(.../EAGLE-7.2.0/ulp/pcb-gcode.ulp)
(Copyright 2005 - 2012 by John Johnson)
(See readme.txt for licensing terms.)
(This file generated from the board:)
(.../espbreakoutprograming jig/espbreakoutprograming jig.brd)
(Current profile is .../pcb-gcode-3.6.2.4/profiles/emc.pp  )
(This file generated 15-11-2015 10:51:36)
(Settings from pcb-machine.h)
(spindle on time = 3.0000)
(spindle speed = 20000.0000)
(tool change at 0.0000 0.0000 5.0000 )
(feed rate xy = F0.00  )
(feed rate z  = F508.00 )
(Z Axis Settings)
(  High     Up        Down     Drill)
(5.0000 	2.0000 	0.0000 	-1.6000 )
(Settings from pcb-defaults.h)
(isolate min = 0.0254)
(isolate max = 0.5080)
(isolate step = 0.1270)
(Generated bottom outlines, bottom drill, )
(Unit of measure: mm)
( Tool|       Size       |  Min Sub |  Max Sub |   Count )
( T01 | 0.700mm 0.0276in | 0.0000in | 0.0000in |       0 )
( T02 | 1.000mm 0.0394in | 0.0000in | 0.0000in |       0 )
( T03 | 1.016mm 0.0400in | 0.0000in | 0.0000in |       0 )
( T04 | 2.300mm 0.0906in | 0.0000in | 0.0000in |       0 )
(Metric Mode)
G21
(Absolute Coordinates)
G90
S20000
G00 Z5.0000 
G00 X0.0000 Y0.0000 
M03
G04 P3.000000
M05
M06 T01 (0.7000 )
G01 Z0.0000 F508.00 
M06 
G00 Z2.0000 
M03
G04 P3.000000
G82 X-16.0500 Y3.9850 Z-1.6000 F508.00 R2.0000 P0.500000
G82 X-16.0500 Y5.9850 
G82 X-16.0500 Y7.9850 
G82 X-21.0500 Y7.9850 
G82 X-21.0500 Y5.9850 
G82 X-21.0500 Y3.9850 
G82 X-38.9100 Y3.9850 
G82 X-38.9100 Y5.9850 
G82 X-38.9100 Y7.9850 
G82 X-43.9100 Y7.9850 
G82 X-43.9100 Y5.9850 
G82 X-43.9100 Y3.9850 
G82 X-19.7400 Y28.3600 
G82 X-19.7400 Y30.3600 
G82 X-19.7400 Y32.3600 
G82 X-19.7400 Y34.3600 
M05
G00 Z5.0000 
M05
M02
