(.../EAGLE-7.2.0/ulp/pcb-gcode.ulp)
(Copyright 2005 - 2012 by John Johnson)
(See readme.txt for licensing terms.)
(This file generated from the board:)
(.../espbreakoutprograming jig/espbreakoutprograming jig.brd)
(Current profile is .../pcb-gcode-3.6.2.4/profiles/emc.pp  )
(This file generated 15-11-2015 10:51:21)
(Settings from pcb-machine.h)
(spindle on time = 3.0000)
(  Tool Size)
(0.2540 )
(spindle speed = 30000.0000)
(tool change at 0.0000 0.0000 5.0000 )
(feed rate xy = F508.00 )
(feed rate z  = F254.00 )
(Z Axis Settings)
(  High     Up        Down     Drill)
(5.0000 	2.0000 	0.0000 	-1.6000 )
(Settings from pcb-defaults.h)
(isolate min = 0.0254)
(isolate max = 0.5080)
(isolate step = 0.1270)
(Generated bottom outlines, bottom drill, )
(Unit of measure: mm)
(Metric Mode)
G21
(Absolute Coordinates)
G90
S30000
G00 Z5.0000 
G00 X0.0000 Y0.0000 
M03
G04 P3.000000
G00 Z2.0000 
G00 X-7.3354 Y1.0517 
G01 Z0.0000 F254.00 
G01 X-7.4017 Y0.9855 F508.00 
G01 X-7.4827 Y0.9386 
G01 X-7.5732 Y0.9144 
G01 X-34.3368 Y0.9144 
G01 X-34.4273 Y0.9386 
G01 X-34.5083 Y0.9855 
G01 X-34.5745 Y1.0517 
G01 X-34.6214 Y1.1327 
G01 X-34.6456 Y1.2232 
G01 X-34.6456 Y9.1694 
G01 X-41.5544 Y9.1694 
G01 X-41.5544 Y5.9382 
G01 X-41.5786 Y5.8477 
G01 X-41.6255 Y5.7667 
G01 X-41.6917 Y5.7005 
G01 X-41.7727 Y5.6536 
G01 X-41.8632 Y5.6294 
G01 X-43.1225 Y5.6294 
G01 X-43.1447 Y5.5759 
G01 X-43.2392 Y5.4345 
G01 X-43.3595 Y5.3142 
G01 X-43.5009 Y5.2197 
G01 X-43.6581 Y5.1546 
G01 X-43.8249 Y5.1214 
G01 X-43.9951 Y5.1214 
G01 X-44.1619 Y5.1546 
G01 X-44.3191 Y5.2197 
G01 X-44.4605 Y5.3142 
G01 X-44.5808 Y5.4345 
G01 X-44.6753 Y5.5759 
G01 X-44.6975 Y5.6294 
G01 X-48.7778 Y5.6294 
G01 X-49.0986 Y5.3086 
G01 X-49.9614 Y5.3086 
G01 X-50.5714 Y5.9186 
G01 X-50.5714 Y6.7814 
G01 X-49.9614 Y7.3914 
G01 X-49.0986 Y7.3914 
G01 X-48.4886 Y6.7814 
G01 X-48.4886 Y6.3406 
G01 X-44.6975 Y6.3406 
G01 X-44.6753 Y6.3941 
G01 X-44.5808 Y6.5355 
G01 X-44.4605 Y6.6558 
G01 X-44.3191 Y6.7503 
G01 X-44.1619 Y6.8154 
G01 X-43.9951 Y6.8486 
G01 X-43.8249 Y6.8486 
G01 X-43.6581 Y6.8154 
G01 X-43.5009 Y6.7503 
G01 X-43.3595 Y6.6558 
G01 X-43.2392 Y6.5355 
G01 X-43.1447 Y6.3941 
G01 X-43.1225 Y6.3406 
G01 X-42.2656 Y6.3406 
G01 X-42.2656 Y14.2706 
G01 X-42.3431 Y14.3027 
G01 X-42.4929 Y14.4027 
G01 X-42.6203 Y14.5301 
G01 X-42.7203 Y14.6799 
G01 X-42.7893 Y14.8463 
G01 X-42.8244 Y15.0229 
G01 X-42.8244 Y16.7271 
G01 X-42.7893 Y16.9037 
G01 X-42.7203 Y17.0701 
G01 X-42.6203 Y17.2199 
G01 X-42.4929 Y17.3473 
G01 X-42.3431 Y17.4473 
G01 X-42.2656 Y17.4794 
G01 X-42.2656 Y18.4904 
G01 X-42.3390 Y18.5143 
G01 X-42.4957 Y18.5941 
G01 X-42.6381 Y18.6975 
G01 X-42.7625 Y18.8219 
G01 X-42.8659 Y18.9642 
G01 X-42.9457 Y19.1210 
G01 X-43.0001 Y19.2883 
G01 X-43.0276 Y19.4620 
G01 X-43.0276 Y19.6380 
G01 X-43.0001 Y19.8117 
G01 X-42.9457 Y19.9790 
G01 X-42.8659 Y20.1357 
G01 X-42.7625 Y20.2781 
G01 X-42.6381 Y20.4025 
G01 X-42.4957 Y20.5059 
G01 X-42.3390 Y20.5857 
G01 X-42.2656 Y20.6096 
G01 X-42.2656 Y24.6544 
G01 X-48.7606 Y24.6544 
G01 X-48.7749 Y24.6102 
G01 X-48.8493 Y24.4642 
G01 X-48.9457 Y24.3316 
G01 X-49.0616 Y24.2157 
G01 X-49.1942 Y24.1193 
G01 X-49.3402 Y24.0449 
G01 X-49.4961 Y23.9942 
G01 X-49.6580 Y23.9686 
G01 X-49.8220 Y23.9686 
G01 X-49.9839 Y23.9942 
G01 X-50.1398 Y24.0449 
G01 X-50.2858 Y24.1193 
G01 X-50.4184 Y24.2157 
G01 X-50.5343 Y24.3316 
G01 X-50.6307 Y24.4642 
G01 X-50.7051 Y24.6102 
G01 X-50.7558 Y24.7661 
G01 X-50.7814 Y24.9280 
G01 X-50.7814 Y25.0920 
G01 X-50.7558 Y25.2539 
G01 X-50.7051 Y25.4098 
G01 X-50.6307 Y25.5558 
G01 X-50.5343 Y25.6884 
G01 X-50.4184 Y25.8043 
G01 X-50.2858 Y25.9007 
G01 X-50.1398 Y25.9751 
G01 X-49.9839 Y26.0258 
G01 X-49.8220 Y26.0514 
G01 X-49.6580 Y26.0514 
G01 X-49.4961 Y26.0258 
G01 X-49.3402 Y25.9751 
G01 X-49.1942 Y25.9007 
G01 X-49.0616 Y25.8043 
G01 X-48.9457 Y25.6884 
G01 X-48.8493 Y25.5558 
G01 X-48.7749 Y25.4098 
G01 X-48.7606 Y25.3656 
G01 X-39.7256 Y25.3656 
G01 X-39.7256 Y29.4204 
G01 X-39.7990 Y29.4443 
G01 X-39.9557 Y29.5241 
G01 X-40.0981 Y29.6275 
G01 X-40.2225 Y29.7519 
G01 X-40.3259 Y29.8942 
G01 X-40.4057 Y30.0510 
G01 X-40.4601 Y30.2183 
G01 X-40.4876 Y30.3920 
G01 X-40.4876 Y30.5680 
G01 X-40.4601 Y30.7417 
G01 X-40.4057 Y30.9090 
G01 X-40.3259 Y31.0657 
G01 X-40.2225 Y31.2081 
G01 X-40.0981 Y31.3325 
G01 X-39.9557 Y31.4359 
G01 X-39.7990 Y31.5157 
G01 X-39.6317 Y31.5701 
G01 X-39.4580 Y31.5976 
G01 X-39.2820 Y31.5976 
G01 X-39.1083 Y31.5701 
G01 X-38.9410 Y31.5157 
G01 X-38.7843 Y31.4359 
G01 X-38.6419 Y31.3325 
G01 X-38.5175 Y31.2081 
G01 X-38.4141 Y31.0657 
G01 X-38.3343 Y30.9090 
G01 X-38.2799 Y30.7417 
G01 X-38.2524 Y30.5680 
G01 X-38.2524 Y30.3920 
G01 X-38.2799 Y30.2183 
G01 X-38.3343 Y30.0510 
G01 X-38.4141 Y29.8942 
G01 X-38.5175 Y29.7519 
G01 X-38.6419 Y29.6275 
G01 X-38.7843 Y29.5241 
G01 X-38.9410 Y29.4443 
G01 X-39.0144 Y29.4204 
G01 X-39.0144 Y24.9632 
G01 X-39.0386 Y24.8727 
G01 X-39.0855 Y24.7917 
G01 X-39.1517 Y24.7254 
G01 X-39.2327 Y24.6786 
G01 X-39.3232 Y24.6544 
G01 X-41.5544 Y24.6544 
G01 X-41.5544 Y20.6096 
G01 X-41.4810 Y20.5857 
G01 X-41.3242 Y20.5059 
G01 X-41.1819 Y20.4025 
G01 X-41.0575 Y20.2781 
G01 X-40.9541 Y20.1357 
G01 X-40.8743 Y19.9790 
G01 X-40.8199 Y19.8117 
G01 X-40.7924 Y19.6380 
G01 X-40.7924 Y19.4620 
G01 X-40.8199 Y19.2883 
G01 X-40.8743 Y19.1210 
G01 X-40.9541 Y18.9642 
G01 X-41.0575 Y18.8219 
G01 X-41.1819 Y18.6975 
G01 X-41.3242 Y18.5941 
G01 X-41.4810 Y18.5143 
G01 X-41.5544 Y18.4904 
G01 X-41.5544 Y17.4794 
G01 X-41.4769 Y17.4473 
G01 X-41.3271 Y17.3473 
G01 X-41.1997 Y17.2199 
G01 X-41.0997 Y17.0701 
G01 X-41.0307 Y16.9037 
G01 X-40.9956 Y16.7271 
G01 X-40.9956 Y15.0229 
G01 X-41.0307 Y14.8463 
G01 X-41.0997 Y14.6799 
G01 X-41.1997 Y14.5301 
G01 X-41.3271 Y14.4027 
G01 X-41.4769 Y14.3027 
G01 X-41.5544 Y14.2706 
G01 X-41.5544 Y9.8806 
G01 X-34.2432 Y9.8806 
G01 X-34.1527 Y9.8564 
G01 X-34.0717 Y9.8095 
G01 X-34.0055 Y9.7433 
G01 X-33.9586 Y9.6623 
G01 X-33.9344 Y9.5718 
G01 X-33.9344 Y1.6256 
G01 X-7.9756 Y1.6256 
G01 X-7.9756 Y5.3086 
G01 X-8.0514 Y5.3086 
G01 X-8.6614 Y5.9186 
G01 X-8.6614 Y6.7814 
G01 X-8.0514 Y7.3914 
G01 X-7.9756 Y7.3914 
G01 X-7.9756 Y23.1769 
G01 X-8.0789 Y23.1975 
G01 X-8.2592 Y23.2721 
G01 X-8.4215 Y23.3805 
G01 X-8.5594 Y23.5185 
G01 X-8.6679 Y23.6808 
G01 X-8.7425 Y23.8610 
G01 X-8.7806 Y24.0524 
G01 X-8.7806 Y24.2476 
G01 X-8.7425 Y24.4389 
G01 X-8.6679 Y24.6192 
G01 X-8.5594 Y24.7815 
G01 X-8.4215 Y24.9194 
G01 X-8.2592 Y25.0279 
G01 X-8.0789 Y25.1025 
G01 X-7.8876 Y25.1406 
G01 X-7.6924 Y25.1406 
G01 X-7.5011 Y25.1025 
G01 X-7.3208 Y25.0279 
G01 X-7.1585 Y24.9194 
G01 X-7.0206 Y24.7815 
G01 X-6.9121 Y24.6192 
G01 X-6.8568 Y24.4856 
G01 X-1.6256 Y24.4856 
G01 X-1.6256 Y34.0044 
G01 X-18.9525 Y34.0044 
G01 X-18.9747 Y33.9509 
G01 X-19.0692 Y33.8095 
G01 X-19.1895 Y33.6892 
G01 X-19.3309 Y33.5947 
G01 X-19.4881 Y33.5296 
G01 X-19.6549 Y33.4964 
G01 X-19.8251 Y33.4964 
G01 X-19.9919 Y33.5296 
G01 X-20.1491 Y33.5947 
G01 X-20.2905 Y33.6892 
G01 X-20.4108 Y33.8095 
G01 X-20.5053 Y33.9509 
G01 X-20.5704 Y34.1081 
G01 X-20.6036 Y34.2749 
G01 X-20.6036 Y34.4451 
G01 X-20.5704 Y34.6119 
G01 X-20.5053 Y34.7691 
G01 X-20.4108 Y34.9105 
G01 X-20.2905 Y35.0308 
G01 X-20.1491 Y35.1253 
G01 X-19.9919 Y35.1904 
G01 X-19.8251 Y35.2236 
G01 X-19.6549 Y35.2236 
G01 X-19.4881 Y35.1904 
G01 X-19.3309 Y35.1253 
G01 X-19.1895 Y35.0308 
G01 X-19.0692 Y34.9105 
G01 X-18.9747 Y34.7691 
G01 X-18.9525 Y34.7156 
G01 X-1.2232 Y34.7156 
G01 X-1.1327 Y34.6914 
G01 X-1.0517 Y34.6445 
G01 X-0.9855 Y34.5783 
G01 X-0.9386 Y34.4973 
G01 X-0.9144 Y34.4068 
G01 X-0.9144 Y24.0832 
G01 X-0.9386 Y23.9927 
G01 X-0.9855 Y23.9117 
G01 X-1.0517 Y23.8454 
G01 X-1.1327 Y23.7986 
G01 X-1.2232 Y23.7744 
G01 X-6.8734 Y23.7744 
G01 X-6.9121 Y23.6808 
G01 X-7.0206 Y23.5185 
G01 X-7.1585 Y23.3805 
G01 X-7.2644 Y23.3098 
G01 X-7.2644 Y7.3914 
G01 X-7.1886 Y7.3914 
G01 X-6.5786 Y6.7814 
G01 X-6.5786 Y5.9186 
G01 X-7.1886 Y5.3086 
G01 X-7.2644 Y5.3086 
G01 X-7.2644 Y1.2232 
G01 X-7.2886 Y1.1327 
G01 X-7.3354 Y1.0517 
G00 Z2.0000 
G00 X-9.1186 Y5.9186 
G01 Z0.0000 F254.00 
G01 X-9.7286 Y5.3086 F508.00 
G01 X-10.5914 Y5.3086 
G01 X-11.0661 Y5.7834 
G01 X-11.7102 Y5.6396 
G01 X-11.7482 Y5.6294 
G01 X-11.7558 Y5.6294 
G01 X-11.7632 Y5.6277 
G01 X-11.8025 Y5.6294 
G01 X-15.2625 Y5.6294 
G01 X-15.2847 Y5.5759 
G01 X-15.3792 Y5.4345 
G01 X-15.4995 Y5.3142 
G01 X-15.6409 Y5.2197 
G01 X-15.7981 Y5.1546 
G01 X-15.9649 Y5.1214 
G01 X-16.1351 Y5.1214 
G01 X-16.3019 Y5.1546 
G01 X-16.4591 Y5.2197 
G01 X-16.6005 Y5.3142 
G01 X-16.7208 Y5.4345 
G01 X-16.8153 Y5.5759 
G01 X-16.8804 Y5.7331 
G01 X-16.9136 Y5.8999 
G01 X-16.9136 Y6.0701 
G01 X-16.8804 Y6.2369 
G01 X-16.8153 Y6.3941 
G01 X-16.7208 Y6.5355 
G01 X-16.6005 Y6.6558 
G01 X-16.4591 Y6.7503 
G01 X-16.3019 Y6.8154 
G01 X-16.1351 Y6.8486 
G01 X-15.9649 Y6.8486 
G01 X-15.7981 Y6.8154 
G01 X-15.6409 Y6.7503 
G01 X-15.4995 Y6.6558 
G01 X-15.3792 Y6.5355 
G01 X-15.2847 Y6.3941 
G01 X-15.2625 Y6.3406 
G01 X-11.8342 Y6.3406 
G01 X-11.2014 Y6.4819 
G01 X-11.2014 Y6.7814 
G01 X-10.5914 Y7.3914 
G01 X-9.7286 Y7.3914 
G01 X-9.1186 Y6.7814 
G01 X-9.1186 Y5.9186 
G00 Z2.0000 
G00 X-15.4995 Y4.6558 
G01 Z0.0000 F254.00 
G01 X-15.3792 Y4.5355 F508.00 
G01 X-15.2847 Y4.3941 
G01 X-15.2196 Y4.2369 
G01 X-15.1864 Y4.0701 
G01 X-15.1864 Y3.8999 
G01 X-15.2196 Y3.7331 
G01 X-15.2847 Y3.5759 
G01 X-15.3792 Y3.4345 
G01 X-15.4995 Y3.3142 
G01 X-15.6409 Y3.2197 
G01 X-15.7981 Y3.1546 
G01 X-15.9649 Y3.1214 
G01 X-16.1351 Y3.1214 
G01 X-16.3019 Y3.1546 
G01 X-16.4591 Y3.2197 
G01 X-16.6005 Y3.3142 
G01 X-16.7208 Y3.4345 
G01 X-16.8153 Y3.5759 
G01 X-16.8804 Y3.7331 
G01 X-16.9136 Y3.8999 
G01 X-16.9136 Y4.0701 
G01 X-16.8804 Y4.2369 
G01 X-16.8153 Y4.3941 
G01 X-16.7208 Y4.5355 
G01 X-16.6005 Y4.6558 
G01 X-16.4591 Y4.7503 
G01 X-16.3019 Y4.8154 
G01 X-16.1351 Y4.8486 
G01 X-15.9649 Y4.8486 
G01 X-15.7981 Y4.8154 
G01 X-15.6409 Y4.7503 
G01 X-15.4995 Y4.6558 
G00 Z2.0000 
G00 X-15.4995 Y7.3142 
G01 Z0.0000 F254.00 
G01 X-15.6409 Y7.2197 F508.00 
G01 X-15.7981 Y7.1546 
G01 X-15.9649 Y7.1214 
G01 X-16.1351 Y7.1214 
G01 X-16.3019 Y7.1546 
G01 X-16.4591 Y7.2197 
G01 X-16.6005 Y7.3142 
G01 X-16.7208 Y7.4345 
G01 X-16.8153 Y7.5759 
G01 X-16.8804 Y7.7331 
G01 X-16.9136 Y7.8999 
G01 X-16.9136 Y8.0701 
G01 X-16.8804 Y8.2369 
G01 X-16.8153 Y8.3941 
G01 X-16.7208 Y8.5355 
G01 X-16.6005 Y8.6558 
G01 X-16.4591 Y8.7503 
G01 X-16.4056 Y8.7725 
G01 X-16.4056 Y10.6668 
G01 X-16.3814 Y10.7573 
G01 X-16.3345 Y10.8383 
G01 X-16.2407 Y10.9322 
G01 X-16.2757 Y11.0010 
G01 X-16.3301 Y11.1683 
G01 X-16.3576 Y11.3420 
G01 X-16.3576 Y11.5180 
G01 X-16.3301 Y11.6917 
G01 X-16.2757 Y11.8590 
G01 X-16.1959 Y12.0157 
G01 X-16.0925 Y12.1581 
G01 X-15.9681 Y12.2825 
G01 X-15.8257 Y12.3859 
G01 X-15.6690 Y12.4657 
G01 X-15.5017 Y12.5201 
G01 X-15.3280 Y12.5476 
G01 X-15.1520 Y12.5476 
G01 X-14.9783 Y12.5201 
G01 X-14.8110 Y12.4657 
G01 X-14.6542 Y12.3859 
G01 X-14.5119 Y12.2825 
G01 X-14.3875 Y12.1581 
G01 X-14.2841 Y12.0157 
G01 X-14.2043 Y11.8590 
G01 X-14.1499 Y11.6917 
G01 X-14.1224 Y11.5180 
G01 X-14.1224 Y11.3420 
G01 X-14.1499 Y11.1683 
G01 X-14.2043 Y11.0010 
G01 X-14.2841 Y10.8443 
G01 X-14.3875 Y10.7019 
G01 X-14.5119 Y10.5775 
G01 X-14.6542 Y10.4741 
G01 X-14.8110 Y10.3943 
G01 X-14.9783 Y10.3399 
G01 X-15.1520 Y10.3124 
G01 X-15.3280 Y10.3124 
G01 X-15.5017 Y10.3399 
G01 X-15.6690 Y10.3943 
G01 X-15.6944 Y10.4072 
G01 X-15.6944 Y8.7725 
G01 X-15.6409 Y8.7503 
G01 X-15.4995 Y8.6558 
G01 X-15.3792 Y8.5355 
G01 X-15.2847 Y8.3941 
G01 X-15.2196 Y8.2369 
G01 X-15.1864 Y8.0701 
G01 X-15.1864 Y7.8999 
G01 X-15.2196 Y7.7331 
G01 X-15.2847 Y7.5759 
G01 X-15.3792 Y7.4345 
G01 X-15.4995 Y7.3142 
G00 Z2.0000 
G00 X-17.4244 Y5.9382 
G01 Z0.0000 F254.00 
G01 X-17.4486 Y5.8477 F508.00 
G01 X-17.4955 Y5.7667 
G01 X-17.5617 Y5.7005 
G01 X-17.6427 Y5.6536 
G01 X-17.7332 Y5.6294 
G01 X-20.2625 Y5.6294 
G01 X-20.2847 Y5.5759 
G01 X-20.3792 Y5.4345 
G01 X-20.4995 Y5.3142 
G01 X-20.6409 Y5.2197 
G01 X-20.7981 Y5.1546 
G01 X-20.9649 Y5.1214 
G01 X-21.1351 Y5.1214 
G01 X-21.3019 Y5.1546 
G01 X-21.4591 Y5.2197 
G01 X-21.6005 Y5.3142 
G01 X-21.6457 Y5.3594 
G01 X-26.1524 Y5.3594 
G01 X-26.2410 Y5.3143 
G01 X-26.4083 Y5.2599 
G01 X-26.5820 Y5.2324 
G01 X-26.7580 Y5.2324 
G01 X-26.9317 Y5.2599 
G01 X-27.0990 Y5.3143 
G01 X-27.2557 Y5.3941 
G01 X-27.3981 Y5.4975 
G01 X-27.5225 Y5.6219 
G01 X-27.6259 Y5.7642 
G01 X-27.7057 Y5.9210 
G01 X-27.7601 Y6.0883 
G01 X-27.7876 Y6.2620 
G01 X-27.7876 Y6.4380 
G01 X-27.7601 Y6.6117 
G01 X-27.7057 Y6.7790 
G01 X-27.6259 Y6.9357 
G01 X-27.5225 Y7.0781 
G01 X-27.3981 Y7.2025 
G01 X-27.2557 Y7.3059 
G01 X-27.0990 Y7.3857 
G01 X-26.9317 Y7.4401 
G01 X-26.7580 Y7.4676 
G01 X-26.5820 Y7.4676 
G01 X-26.4083 Y7.4401 
G01 X-26.2410 Y7.3857 
G01 X-26.1722 Y7.3507 
G01 X-25.7556 Y7.7673 
G01 X-25.7556 Y10.3704 
G01 X-25.8290 Y10.3943 
G01 X-25.9857 Y10.4741 
G01 X-26.1281 Y10.5775 
G01 X-26.2525 Y10.7019 
G01 X-26.3559 Y10.8443 
G01 X-26.4357 Y11.0010 
G01 X-26.4901 Y11.1683 
G01 X-26.5176 Y11.3420 
G01 X-26.5176 Y11.5180 
G01 X-26.4901 Y11.6917 
G01 X-26.4357 Y11.8590 
G01 X-26.3559 Y12.0157 
G01 X-26.2525 Y12.1581 
G01 X-26.1281 Y12.2825 
G01 X-25.9857 Y12.3859 
G01 X-25.8290 Y12.4657 
G01 X-25.6617 Y12.5201 
G01 X-25.4880 Y12.5476 
G01 X-25.3120 Y12.5476 
G01 X-25.1383 Y12.5201 
G01 X-24.9710 Y12.4657 
G01 X-24.8143 Y12.3859 
G01 X-24.6719 Y12.2825 
G01 X-24.5475 Y12.1581 
G01 X-24.4441 Y12.0157 
G01 X-24.3643 Y11.8590 
G01 X-24.3099 Y11.6917 
G01 X-24.2824 Y11.5180 
G01 X-24.2824 Y11.3420 
G01 X-24.3099 Y11.1683 
G01 X-24.3643 Y11.0010 
G01 X-24.4441 Y10.8443 
G01 X-24.5475 Y10.7019 
G01 X-24.6719 Y10.5775 
G01 X-24.8143 Y10.4741 
G01 X-24.9710 Y10.3943 
G01 X-25.0444 Y10.3704 
G01 X-25.0444 Y7.5732 
G01 X-25.0686 Y7.4827 
G01 X-25.1154 Y7.4017 
G01 X-25.6693 Y6.8478 
G01 X-25.6343 Y6.7790 
G01 X-25.5799 Y6.6117 
G01 X-25.5524 Y6.4380 
G01 X-25.5524 Y6.2620 
G01 X-25.5799 Y6.0883 
G01 X-25.5857 Y6.0706 
G01 X-21.9135 Y6.0706 
G01 X-21.8804 Y6.2369 
G01 X-21.8153 Y6.3941 
G01 X-21.7208 Y6.5355 
G01 X-21.6005 Y6.6558 
G01 X-21.4591 Y6.7503 
G01 X-21.3019 Y6.8154 
G01 X-21.1351 Y6.8486 
G01 X-20.9649 Y6.8486 
G01 X-20.7981 Y6.8154 
G01 X-20.6409 Y6.7503 
G01 X-20.4995 Y6.6558 
G01 X-20.3792 Y6.5355 
G01 X-20.2847 Y6.3941 
G01 X-20.2625 Y6.3406 
G01 X-18.1356 Y6.3406 
G01 X-18.1356 Y12.7468 
G01 X-18.1114 Y12.8373 
G01 X-18.0645 Y12.9183 
G01 X-16.7945 Y14.1883 
G01 X-16.7283 Y14.2545 
G01 X-16.6473 Y14.3014 
G01 X-16.5568 Y14.3256 
G01 X-11.7856 Y14.3256 
G01 X-11.7856 Y23.7744 
G01 X-19.0968 Y23.7744 
G01 X-19.1873 Y23.7986 
G01 X-19.2683 Y23.8454 
G01 X-19.3345 Y23.9117 
G01 X-19.3814 Y23.9927 
G01 X-19.4056 Y24.0832 
G01 X-19.4056 Y27.5638 
G01 X-19.4881 Y27.5296 
G01 X-19.6549 Y27.4964 
G01 X-19.8251 Y27.4964 
G01 X-19.9919 Y27.5296 
G01 X-20.1491 Y27.5947 
G01 X-20.2905 Y27.6892 
G01 X-20.4108 Y27.8095 
G01 X-20.5053 Y27.9509 
G01 X-20.5704 Y28.1081 
G01 X-20.6036 Y28.2749 
G01 X-20.6036 Y28.4451 
G01 X-20.5704 Y28.6119 
G01 X-20.5053 Y28.7691 
G01 X-20.4108 Y28.9105 
G01 X-20.2905 Y29.0308 
G01 X-20.1491 Y29.1253 
G01 X-19.9919 Y29.1904 
G01 X-19.8251 Y29.2236 
G01 X-19.6549 Y29.2236 
G01 X-19.4881 Y29.1904 
G01 X-19.3309 Y29.1253 
G01 X-19.1895 Y29.0308 
G01 X-19.0692 Y28.9105 
G01 X-18.9747 Y28.7691 
G01 X-18.9462 Y28.7003 
G01 X-18.9127 Y28.6914 
G01 X-18.8317 Y28.6445 
G01 X-18.7655 Y28.5783 
G01 X-18.7186 Y28.4973 
G01 X-18.6944 Y28.4068 
G01 X-18.6944 Y24.4856 
G01 X-11.5515 Y24.4856 
G01 X-11.4768 Y24.5056 
G01 X-10.7149 Y24.5056 
G01 X-10.6679 Y24.6192 
G01 X-10.5594 Y24.7815 
G01 X-10.4215 Y24.9194 
G01 X-10.2592 Y25.0279 
G01 X-10.0789 Y25.1025 
G01 X-9.8876 Y25.1406 
G01 X-9.6924 Y25.1406 
G01 X-9.5010 Y25.1025 
G01 X-9.3208 Y25.0279 
G01 X-9.1585 Y24.9194 
G01 X-9.0206 Y24.7815 
G01 X-8.9121 Y24.6192 
G01 X-8.8375 Y24.4389 
G01 X-8.7994 Y24.2476 
G01 X-8.7994 Y24.0524 
G01 X-8.8375 Y23.8610 
G01 X-8.9121 Y23.6808 
G01 X-9.0206 Y23.5185 
G01 X-9.1585 Y23.3805 
G01 X-9.3208 Y23.2721 
G01 X-9.5010 Y23.1975 
G01 X-9.6924 Y23.1594 
G01 X-9.8876 Y23.1594 
G01 X-10.0789 Y23.1975 
G01 X-10.2592 Y23.2721 
G01 X-10.4215 Y23.3805 
G01 X-10.5594 Y23.5185 
G01 X-10.6679 Y23.6808 
G01 X-10.7149 Y23.7944 
G01 X-11.0744 Y23.7944 
G01 X-11.0744 Y13.9232 
G01 X-11.0986 Y13.8327 
G01 X-11.1455 Y13.7517 
G01 X-11.2117 Y13.6854 
G01 X-11.2927 Y13.6386 
G01 X-11.3832 Y13.6144 
G01 X-16.3627 Y13.6144 
G01 X-17.4244 Y12.5527 
G01 X-17.4244 Y5.9382 
G00 Z2.0000 
G00 X-20.4995 Y4.6558 
G01 Z0.0000 F254.00 
G01 X-20.3792 Y4.5355 F508.00 
G01 X-20.2847 Y4.3941 
G01 X-20.2196 Y4.2369 
G01 X-20.1864 Y4.0701 
G01 X-20.1864 Y3.8999 
G01 X-20.2196 Y3.7331 
G01 X-20.2847 Y3.5759 
G01 X-20.3792 Y3.4345 
G01 X-20.4995 Y3.3142 
G01 X-20.6409 Y3.2197 
G01 X-20.7981 Y3.1546 
G01 X-20.9649 Y3.1214 
G01 X-21.1351 Y3.1214 
G01 X-21.3019 Y3.1546 
G01 X-21.4591 Y3.2197 
G01 X-21.6005 Y3.3142 
G01 X-21.7208 Y3.4345 
G01 X-21.8153 Y3.5759 
G01 X-21.8804 Y3.7331 
G01 X-21.9136 Y3.8999 
G01 X-21.9136 Y4.0701 
G01 X-21.8804 Y4.2369 
G01 X-21.8153 Y4.3941 
G01 X-21.7208 Y4.5355 
G01 X-21.6005 Y4.6558 
G01 X-21.4591 Y4.7503 
G01 X-21.3019 Y4.8154 
G01 X-21.1351 Y4.8486 
G01 X-20.9649 Y4.8486 
G01 X-20.7981 Y4.8154 
G01 X-20.6409 Y4.7503 
G01 X-20.4995 Y4.6558 
G00 Z2.0000 
G00 X-20.4995 Y7.3142 
G01 Z0.0000 F254.00 
G01 X-20.6409 Y7.2197 F508.00 
G01 X-20.7981 Y7.1546 
G01 X-20.9649 Y7.1214 
G01 X-21.1351 Y7.1214 
G01 X-21.3019 Y7.1546 
G01 X-21.4591 Y7.2197 
G01 X-21.6005 Y7.3142 
G01 X-21.7208 Y7.4345 
G01 X-21.8153 Y7.5759 
G01 X-21.8804 Y7.7331 
G01 X-21.9136 Y7.8999 
G01 X-21.9136 Y8.0701 
G01 X-21.8804 Y8.2369 
G01 X-21.8153 Y8.3941 
G01 X-21.7208 Y8.5355 
G01 X-21.6005 Y8.6558 
G01 X-21.4591 Y8.7503 
G01 X-21.3819 Y8.7823 
G01 X-21.3106 Y11.1653 
G01 X-21.3106 Y12.9794 
G01 X-33.5077 Y12.9794 
G01 X-34.7067 Y11.7805 
G01 X-34.7877 Y11.7336 
G01 X-34.8782 Y11.7094 
G01 X-39.0801 Y11.7094 
G01 X-39.1271 Y11.5958 
G01 X-39.2356 Y11.4335 
G01 X-39.3735 Y11.2956 
G01 X-39.5358 Y11.1871 
G01 X-39.7161 Y11.1125 
G01 X-39.9074 Y11.0744 
G01 X-40.1026 Y11.0744 
G01 X-40.2939 Y11.1125 
G01 X-40.4742 Y11.1871 
G01 X-40.6365 Y11.2956 
G01 X-40.7744 Y11.4335 
G01 X-40.8829 Y11.5958 
G01 X-40.9575 Y11.7760 
G01 X-40.9956 Y11.9674 
G01 X-40.9956 Y12.1626 
G01 X-40.9575 Y12.3539 
G01 X-40.8829 Y12.5342 
G01 X-40.7744 Y12.6965 
G01 X-40.6365 Y12.8344 
G01 X-40.4742 Y12.9429 
G01 X-40.2939 Y13.0175 
G01 X-40.1026 Y13.0556 
G01 X-39.9074 Y13.0556 
G01 X-39.7161 Y13.0175 
G01 X-39.5358 Y12.9429 
G01 X-39.3735 Y12.8344 
G01 X-39.2356 Y12.6965 
G01 X-39.1271 Y12.5342 
G01 X-39.0801 Y12.4206 
G01 X-35.0723 Y12.4206 
G01 X-33.8733 Y13.6195 
G01 X-33.7923 Y13.6664 
G01 X-33.7018 Y13.6906 
G01 X-20.9082 Y13.6906 
G01 X-20.8177 Y13.6664 
G01 X-20.7367 Y13.6195 
G01 X-20.6704 Y13.5533 
G01 X-20.6236 Y13.4723 
G01 X-20.5994 Y13.3818 
G01 X-20.5994 Y11.2014 
G01 X-20.5982 Y11.1962 
G01 X-20.5994 Y11.1547 
G01 X-20.5994 Y11.1132 
G01 X-20.6008 Y11.1080 
G01 X-20.6710 Y8.7628 
G01 X-20.6409 Y8.7503 
G01 X-20.4995 Y8.6558 
G01 X-20.3792 Y8.5355 
G01 X-20.2847 Y8.3941 
G01 X-20.2196 Y8.2369 
G01 X-20.1864 Y8.0701 
G01 X-20.1864 Y7.8999 
G01 X-20.2196 Y7.7331 
G01 X-20.2847 Y7.5759 
G01 X-20.3792 Y7.4345 
G01 X-20.4995 Y7.3142 
G00 Z2.0000 
G00 X-20.8797 Y14.5301 
G01 Z0.0000 F254.00 
G01 X-21.0071 Y14.4027 F508.00 
G01 X-21.1569 Y14.3027 
G01 X-21.3233 Y14.2337 
G01 X-21.4999 Y14.1986 
G01 X-21.6801 Y14.1986 
G01 X-21.8567 Y14.2337 
G01 X-22.0231 Y14.3027 
G01 X-22.1729 Y14.4027 
G01 X-22.3003 Y14.5301 
G01 X-22.4003 Y14.6799 
G01 X-22.4693 Y14.8463 
G01 X-22.5044 Y15.0229 
G01 X-22.5044 Y16.7271 
G01 X-22.4693 Y16.9037 
G01 X-22.4003 Y17.0701 
G01 X-22.3003 Y17.2199 
G01 X-22.1729 Y17.3473 
G01 X-22.0231 Y17.4473 
G01 X-21.9456 Y17.4794 
G01 X-21.9456 Y18.4904 
G01 X-22.0190 Y18.5143 
G01 X-22.1757 Y18.5941 
G01 X-22.3181 Y18.6975 
G01 X-22.4425 Y18.8219 
G01 X-22.5459 Y18.9642 
G01 X-22.6257 Y19.1210 
G01 X-22.6801 Y19.2883 
G01 X-22.7076 Y19.4620 
G01 X-22.7076 Y19.6380 
G01 X-22.6801 Y19.8117 
G01 X-22.6257 Y19.9790 
G01 X-22.5459 Y20.1357 
G01 X-22.4425 Y20.2781 
G01 X-22.3181 Y20.4025 
G01 X-22.1757 Y20.5059 
G01 X-22.0190 Y20.5857 
G01 X-21.8517 Y20.6401 
G01 X-21.6780 Y20.6676 
G01 X-21.5020 Y20.6676 
G01 X-21.3283 Y20.6401 
G01 X-21.1610 Y20.5857 
G01 X-21.0042 Y20.5059 
G01 X-20.8619 Y20.4025 
G01 X-20.7375 Y20.2781 
G01 X-20.6341 Y20.1357 
G01 X-20.5543 Y19.9790 
G01 X-20.4999 Y19.8117 
G01 X-20.4724 Y19.6380 
G01 X-20.4724 Y19.4620 
G01 X-20.4999 Y19.2883 
G01 X-20.5543 Y19.1210 
G01 X-20.6341 Y18.9642 
G01 X-20.7375 Y18.8219 
G01 X-20.8619 Y18.6975 
G01 X-21.0042 Y18.5941 
G01 X-21.1610 Y18.5143 
G01 X-21.2344 Y18.4904 
G01 X-21.2344 Y17.4794 
G01 X-21.1569 Y17.4473 
G01 X-21.0071 Y17.3473 
G01 X-20.8797 Y17.2199 
G01 X-20.7797 Y17.0701 
G01 X-20.7107 Y16.9037 
G01 X-20.6756 Y16.7271 
G01 X-20.6756 Y15.0229 
G01 X-20.7107 Y14.8463 
G01 X-20.7797 Y14.6799 
G01 X-20.8797 Y14.5301 
G00 Z2.0000 
G00 X-19.7603 Y14.5301 
G01 Z0.0000 F254.00 
G01 X-19.8603 Y14.6799 F508.00 
G01 X-19.9293 Y14.8463 
G01 X-19.9644 Y15.0229 
G01 X-19.9644 Y16.7271 
G01 X-19.9293 Y16.9037 
G01 X-19.8603 Y17.0701 
G01 X-19.7603 Y17.2199 
G01 X-19.6329 Y17.3473 
G01 X-19.4831 Y17.4473 
G01 X-19.4056 Y17.4794 
G01 X-19.4056 Y18.4904 
G01 X-19.4790 Y18.5143 
G01 X-19.6357 Y18.5941 
G01 X-19.7781 Y18.6975 
G01 X-19.9025 Y18.8219 
G01 X-20.0059 Y18.9642 
G01 X-20.0857 Y19.1210 
G01 X-20.1401 Y19.2883 
G01 X-20.1676 Y19.4620 
G01 X-20.1676 Y19.6380 
G01 X-20.1401 Y19.8117 
G01 X-20.0857 Y19.9790 
G01 X-20.0059 Y20.1357 
G01 X-19.9025 Y20.2781 
G01 X-19.7781 Y20.4025 
G01 X-19.6357 Y20.5059 
G01 X-19.4790 Y20.5857 
G01 X-19.3117 Y20.6401 
G01 X-19.1380 Y20.6676 
G01 X-18.9620 Y20.6676 
G01 X-18.7883 Y20.6401 
G01 X-18.6210 Y20.5857 
G01 X-18.4642 Y20.5059 
G01 X-18.3219 Y20.4025 
G01 X-18.1975 Y20.2781 
G01 X-18.0941 Y20.1357 
G01 X-18.0143 Y19.9790 
G01 X-17.9599 Y19.8117 
G01 X-17.9324 Y19.6380 
G01 X-17.9324 Y19.4620 
G01 X-17.9599 Y19.2883 
G01 X-18.0143 Y19.1210 
G01 X-18.0941 Y18.9642 
G01 X-18.1975 Y18.8219 
G01 X-18.3219 Y18.6975 
G01 X-18.4642 Y18.5941 
G01 X-18.6210 Y18.5143 
G01 X-18.6944 Y18.4904 
G01 X-18.6944 Y17.4794 
G01 X-18.6169 Y17.4473 
G01 X-18.4671 Y17.3473 
G01 X-18.3397 Y17.2199 
G01 X-18.2397 Y17.0701 
G01 X-18.1707 Y16.9037 
G01 X-18.1356 Y16.7271 
G01 X-18.1356 Y15.0229 
G01 X-18.1707 Y14.8463 
G01 X-18.2397 Y14.6799 
G01 X-18.3397 Y14.5301 
G01 X-18.4671 Y14.4027 
G01 X-18.6169 Y14.3027 
G01 X-18.7833 Y14.2337 
G01 X-18.9599 Y14.1986 
G01 X-19.1401 Y14.1986 
G01 X-19.3167 Y14.2337 
G01 X-19.4831 Y14.3027 
G01 X-19.6329 Y14.4027 
G01 X-19.7603 Y14.5301 
G00 Z2.0000 
G00 X-23.4197 Y14.5301 
G01 Z0.0000 F254.00 
G01 X-23.5471 Y14.4027 F508.00 
G01 X-23.6969 Y14.3027 
G01 X-23.8633 Y14.2337 
G01 X-24.0399 Y14.1986 
G01 X-24.2201 Y14.1986 
G01 X-24.3967 Y14.2337 
G01 X-24.5631 Y14.3027 
G01 X-24.7129 Y14.4027 
G01 X-24.8403 Y14.5301 
G01 X-24.9403 Y14.6799 
G01 X-25.0093 Y14.8463 
G01 X-25.0444 Y15.0229 
G01 X-25.0444 Y16.7271 
G01 X-25.0093 Y16.9037 
G01 X-24.9403 Y17.0701 
G01 X-24.8403 Y17.2199 
G01 X-24.7129 Y17.3473 
G01 X-24.5631 Y17.4473 
G01 X-24.4856 Y17.4794 
G01 X-24.4856 Y18.4904 
G01 X-24.5590 Y18.5143 
G01 X-24.7157 Y18.5941 
G01 X-24.8581 Y18.6975 
G01 X-24.9825 Y18.8219 
G01 X-25.0859 Y18.9642 
G01 X-25.1657 Y19.1210 
G01 X-25.2201 Y19.2883 
G01 X-25.2476 Y19.4620 
G01 X-25.2476 Y19.6380 
G01 X-25.2201 Y19.8117 
G01 X-25.1657 Y19.9790 
G01 X-25.0859 Y20.1357 
G01 X-24.9825 Y20.2781 
G01 X-24.8581 Y20.4025 
G01 X-24.7157 Y20.5059 
G01 X-24.5590 Y20.5857 
G01 X-24.3917 Y20.6401 
G01 X-24.2180 Y20.6676 
G01 X-24.0420 Y20.6676 
G01 X-23.8683 Y20.6401 
G01 X-23.7010 Y20.5857 
G01 X-23.5443 Y20.5059 
G01 X-23.4019 Y20.4025 
G01 X-23.2775 Y20.2781 
G01 X-23.1741 Y20.1357 
G01 X-23.0943 Y19.9790 
G01 X-23.0399 Y19.8117 
G01 X-23.0124 Y19.6380 
G01 X-23.0124 Y19.4620 
G01 X-23.0399 Y19.2883 
G01 X-23.0943 Y19.1210 
G01 X-23.1741 Y18.9642 
G01 X-23.2775 Y18.8219 
G01 X-23.4019 Y18.6975 
G01 X-23.5443 Y18.5941 
G01 X-23.7010 Y18.5143 
G01 X-23.7744 Y18.4904 
G01 X-23.7744 Y17.4794 
G01 X-23.6969 Y17.4473 
G01 X-23.5471 Y17.3473 
G01 X-23.4197 Y17.2199 
G01 X-23.3197 Y17.0701 
G01 X-23.2507 Y16.9037 
G01 X-23.2156 Y16.7271 
G01 X-23.2156 Y15.0229 
G01 X-23.2507 Y14.8463 
G01 X-23.3197 Y14.6799 
G01 X-23.4197 Y14.5301 
G00 Z2.0000 
G00 X-25.9597 Y14.5301 
G01 Z0.0000 F254.00 
G01 X-26.0871 Y14.4027 F508.00 
G01 X-26.2369 Y14.3027 
G01 X-26.4033 Y14.2337 
G01 X-26.5799 Y14.1986 
G01 X-26.7601 Y14.1986 
G01 X-26.9367 Y14.2337 
G01 X-27.1031 Y14.3027 
G01 X-27.2529 Y14.4027 
G01 X-27.3803 Y14.5301 
G01 X-27.4803 Y14.6799 
G01 X-27.5493 Y14.8463 
G01 X-27.5844 Y15.0229 
G01 X-27.5844 Y16.7271 
G01 X-27.5493 Y16.9037 
G01 X-27.4803 Y17.0701 
G01 X-27.3803 Y17.2199 
G01 X-27.2529 Y17.3473 
G01 X-27.1031 Y17.4473 
G01 X-27.0256 Y17.4794 
G01 X-27.0256 Y18.4904 
G01 X-27.0990 Y18.5143 
G01 X-27.2557 Y18.5941 
G01 X-27.3981 Y18.6975 
G01 X-27.5225 Y18.8219 
G01 X-27.6259 Y18.9642 
G01 X-27.7057 Y19.1210 
G01 X-27.7601 Y19.2883 
G01 X-27.7876 Y19.4620 
G01 X-27.7876 Y19.6380 
G01 X-27.7601 Y19.8117 
G01 X-27.7057 Y19.9790 
G01 X-27.6259 Y20.1357 
G01 X-27.5225 Y20.2781 
G01 X-27.3981 Y20.4025 
G01 X-27.2557 Y20.5059 
G01 X-27.0990 Y20.5857 
G01 X-26.9317 Y20.6401 
G01 X-26.7580 Y20.6676 
G01 X-26.5820 Y20.6676 
G01 X-26.4083 Y20.6401 
G01 X-26.2410 Y20.5857 
G01 X-26.0843 Y20.5059 
G01 X-25.9419 Y20.4025 
G01 X-25.8175 Y20.2781 
G01 X-25.7141 Y20.1357 
G01 X-25.6343 Y19.9790 
G01 X-25.5799 Y19.8117 
G01 X-25.5524 Y19.6380 
G01 X-25.5524 Y19.4620 
G01 X-25.5799 Y19.2883 
G01 X-25.6343 Y19.1210 
G01 X-25.7141 Y18.9642 
G01 X-25.8175 Y18.8219 
G01 X-25.9419 Y18.6975 
G01 X-26.0843 Y18.5941 
G01 X-26.2410 Y18.5143 
G01 X-26.3144 Y18.4904 
G01 X-26.3144 Y17.4794 
G01 X-26.2369 Y17.4473 
G01 X-26.0871 Y17.3473 
G01 X-25.9597 Y17.2199 
G01 X-25.8597 Y17.0701 
G01 X-25.7907 Y16.9037 
G01 X-25.7556 Y16.7271 
G01 X-25.7556 Y15.0229 
G01 X-25.7907 Y14.8463 
G01 X-25.8597 Y14.6799 
G01 X-25.9597 Y14.5301 
G00 Z2.0000 
G00 X-28.4997 Y14.5301 
G01 Z0.0000 F254.00 
G01 X-28.6271 Y14.4027 F508.00 
G01 X-28.7769 Y14.3027 
G01 X-28.9433 Y14.2337 
G01 X-29.1199 Y14.1986 
G01 X-29.3001 Y14.1986 
G01 X-29.4767 Y14.2337 
G01 X-29.6431 Y14.3027 
G01 X-29.7929 Y14.4027 
G01 X-29.9203 Y14.5301 
G01 X-30.0203 Y14.6799 
G01 X-30.0893 Y14.8463 
G01 X-30.1244 Y15.0229 
G01 X-30.1244 Y16.7271 
G01 X-30.0893 Y16.9037 
G01 X-30.0203 Y17.0701 
G01 X-29.9203 Y17.2199 
G01 X-29.7929 Y17.3473 
G01 X-29.6431 Y17.4473 
G01 X-29.5656 Y17.4794 
G01 X-29.5656 Y18.4904 
G01 X-29.6390 Y18.5143 
G01 X-29.7957 Y18.5941 
G01 X-29.9381 Y18.6975 
G01 X-30.0625 Y18.8219 
G01 X-30.1659 Y18.9642 
G01 X-30.2457 Y19.1210 
G01 X-30.3001 Y19.2883 
G01 X-30.3276 Y19.4620 
G01 X-30.3276 Y19.6380 
G01 X-30.3001 Y19.8117 
G01 X-30.2457 Y19.9790 
G01 X-30.1659 Y20.1357 
G01 X-30.0625 Y20.2781 
G01 X-29.9381 Y20.4025 
G01 X-29.7957 Y20.5059 
G01 X-29.6390 Y20.5857 
G01 X-29.4717 Y20.6401 
G01 X-29.2980 Y20.6676 
G01 X-29.1220 Y20.6676 
G01 X-28.9483 Y20.6401 
G01 X-28.7810 Y20.5857 
G01 X-28.6242 Y20.5059 
G01 X-28.4819 Y20.4025 
G01 X-28.3575 Y20.2781 
G01 X-28.2541 Y20.1357 
G01 X-28.1743 Y19.9790 
G01 X-28.1199 Y19.8117 
G01 X-28.0924 Y19.6380 
G01 X-28.0924 Y19.4620 
G01 X-28.1199 Y19.2883 
G01 X-28.1743 Y19.1210 
G01 X-28.2541 Y18.9642 
G01 X-28.3575 Y18.8219 
G01 X-28.4819 Y18.6975 
G01 X-28.6242 Y18.5941 
G01 X-28.7810 Y18.5143 
G01 X-28.8544 Y18.4904 
G01 X-28.8544 Y17.4794 
G01 X-28.7769 Y17.4473 
G01 X-28.6271 Y17.3473 
G01 X-28.4997 Y17.2199 
G01 X-28.3997 Y17.0701 
G01 X-28.3307 Y16.9037 
G01 X-28.2956 Y16.7271 
G01 X-28.2956 Y15.0229 
G01 X-28.3307 Y14.8463 
G01 X-28.3997 Y14.6799 
G01 X-28.4997 Y14.5301 
G00 Z2.0000 
G00 X-31.0397 Y14.5301 
G01 Z0.0000 F254.00 
G01 X-31.1671 Y14.4027 F508.00 
G01 X-31.3169 Y14.3027 
G01 X-31.4833 Y14.2337 
G01 X-31.6599 Y14.1986 
G01 X-31.8401 Y14.1986 
G01 X-32.0167 Y14.2337 
G01 X-32.1831 Y14.3027 
G01 X-32.3329 Y14.4027 
G01 X-32.4603 Y14.5301 
G01 X-32.5603 Y14.6799 
G01 X-32.6293 Y14.8463 
G01 X-32.6644 Y15.0229 
G01 X-32.6644 Y16.7271 
G01 X-32.6293 Y16.9037 
G01 X-32.5603 Y17.0701 
G01 X-32.4603 Y17.2199 
G01 X-32.3329 Y17.3473 
G01 X-32.1831 Y17.4473 
G01 X-32.1056 Y17.4794 
G01 X-32.1056 Y18.4904 
G01 X-32.1790 Y18.5143 
G01 X-32.3357 Y18.5941 
G01 X-32.4781 Y18.6975 
G01 X-32.6025 Y18.8219 
G01 X-32.7059 Y18.9642 
G01 X-32.7857 Y19.1210 
G01 X-32.8401 Y19.2883 
G01 X-32.8676 Y19.4620 
G01 X-32.8676 Y19.6380 
G01 X-32.8401 Y19.8117 
G01 X-32.7857 Y19.9790 
G01 X-32.7059 Y20.1357 
G01 X-32.6025 Y20.2781 
G01 X-32.4781 Y20.4025 
G01 X-32.3357 Y20.5059 
G01 X-32.1790 Y20.5857 
G01 X-32.0117 Y20.6401 
G01 X-31.8380 Y20.6676 
G01 X-31.6620 Y20.6676 
G01 X-31.4883 Y20.6401 
G01 X-31.3210 Y20.5857 
G01 X-31.1642 Y20.5059 
G01 X-31.0219 Y20.4025 
G01 X-30.8975 Y20.2781 
G01 X-30.7941 Y20.1357 
G01 X-30.7143 Y19.9790 
G01 X-30.6599 Y19.8117 
G01 X-30.6324 Y19.6380 
G01 X-30.6324 Y19.4620 
G01 X-30.6599 Y19.2883 
G01 X-30.7143 Y19.1210 
G01 X-30.7941 Y18.9642 
G01 X-30.8975 Y18.8219 
G01 X-31.0219 Y18.6975 
G01 X-31.1642 Y18.5941 
G01 X-31.3210 Y18.5143 
G01 X-31.3944 Y18.4904 
G01 X-31.3944 Y17.4794 
G01 X-31.3169 Y17.4473 
G01 X-31.1671 Y17.3473 
G01 X-31.0397 Y17.2199 
G01 X-30.9397 Y17.0701 
G01 X-30.8707 Y16.9037 
G01 X-30.8356 Y16.7271 
G01 X-30.8356 Y15.0229 
G01 X-30.8707 Y14.8463 
G01 X-30.9397 Y14.6799 
G01 X-31.0397 Y14.5301 
G00 Z2.0000 
G00 X-33.5797 Y14.5301 
G01 Z0.0000 F254.00 
G01 X-33.7071 Y14.4027 F508.00 
G01 X-33.8569 Y14.3027 
G01 X-34.0233 Y14.2337 
G01 X-34.1999 Y14.1986 
G01 X-34.3801 Y14.1986 
G01 X-34.5567 Y14.2337 
G01 X-34.7231 Y14.3027 
G01 X-34.8729 Y14.4027 
G01 X-35.0003 Y14.5301 
G01 X-35.1003 Y14.6799 
G01 X-35.1693 Y14.8463 
G01 X-35.2044 Y15.0229 
G01 X-35.2044 Y16.7271 
G01 X-35.1693 Y16.9037 
G01 X-35.1003 Y17.0701 
G01 X-35.0003 Y17.2199 
G01 X-34.8729 Y17.3473 
G01 X-34.7231 Y17.4473 
G01 X-34.6456 Y17.4794 
G01 X-34.6456 Y18.4904 
G01 X-34.7190 Y18.5143 
G01 X-34.8757 Y18.5941 
G01 X-35.0181 Y18.6975 
G01 X-35.1425 Y18.8219 
G01 X-35.2459 Y18.9642 
G01 X-35.3257 Y19.1210 
G01 X-35.3801 Y19.2883 
G01 X-35.4076 Y19.4620 
G01 X-35.4076 Y19.6380 
G01 X-35.3801 Y19.8117 
G01 X-35.3257 Y19.9790 
G01 X-35.2459 Y20.1357 
G01 X-35.1425 Y20.2781 
G01 X-35.0181 Y20.4025 
G01 X-34.8757 Y20.5059 
G01 X-34.7190 Y20.5857 
G01 X-34.5517 Y20.6401 
G01 X-34.3780 Y20.6676 
G01 X-34.2020 Y20.6676 
G01 X-34.0283 Y20.6401 
G01 X-33.8610 Y20.5857 
G01 X-33.7043 Y20.5059 
G01 X-33.5619 Y20.4025 
G01 X-33.4375 Y20.2781 
G01 X-33.3341 Y20.1357 
G01 X-33.2543 Y19.9790 
G01 X-33.1999 Y19.8117 
G01 X-33.1724 Y19.6380 
G01 X-33.1724 Y19.4620 
G01 X-33.1999 Y19.2883 
G01 X-33.2543 Y19.1210 
G01 X-33.3341 Y18.9642 
G01 X-33.4375 Y18.8219 
G01 X-33.5619 Y18.6975 
G01 X-33.7043 Y18.5941 
G01 X-33.8610 Y18.5143 
G01 X-33.9344 Y18.4904 
G01 X-33.9344 Y17.4794 
G01 X-33.8569 Y17.4473 
G01 X-33.7071 Y17.3473 
G01 X-33.5797 Y17.2199 
G01 X-33.4797 Y17.0701 
G01 X-33.4107 Y16.9037 
G01 X-33.3756 Y16.7271 
G01 X-33.3756 Y15.0229 
G01 X-33.4107 Y14.8463 
G01 X-33.4797 Y14.6799 
G01 X-33.5797 Y14.5301 
G00 Z2.0000 
G00 X-36.1197 Y14.5301 
G01 Z0.0000 F254.00 
G01 X-36.2471 Y14.4027 F508.00 
G01 X-36.3969 Y14.3027 
G01 X-36.5633 Y14.2337 
G01 X-36.7399 Y14.1986 
G01 X-36.9201 Y14.1986 
G01 X-37.0967 Y14.2337 
G01 X-37.2631 Y14.3027 
G01 X-37.4129 Y14.4027 
G01 X-37.5403 Y14.5301 
G01 X-37.6403 Y14.6799 
G01 X-37.7093 Y14.8463 
G01 X-37.7444 Y15.0229 
G01 X-37.7444 Y15.5194 
G01 X-38.4556 Y15.5194 
G01 X-38.4556 Y15.0229 
G01 X-38.4907 Y14.8463 
G01 X-38.5597 Y14.6799 
G01 X-38.6597 Y14.5301 
G01 X-38.7871 Y14.4027 
G01 X-38.9369 Y14.3027 
G01 X-39.1033 Y14.2337 
G01 X-39.2799 Y14.1986 
G01 X-39.4601 Y14.1986 
G01 X-39.6367 Y14.2337 
G01 X-39.8031 Y14.3027 
G01 X-39.9529 Y14.4027 
G01 X-40.0803 Y14.5301 
G01 X-40.1803 Y14.6799 
G01 X-40.2493 Y14.8463 
G01 X-40.2844 Y15.0229 
G01 X-40.2844 Y16.7271 
G01 X-40.2493 Y16.9037 
G01 X-40.1803 Y17.0701 
G01 X-40.0803 Y17.2199 
G01 X-39.9529 Y17.3473 
G01 X-39.8031 Y17.4473 
G01 X-39.7256 Y17.4794 
G01 X-39.7256 Y18.4904 
G01 X-39.7990 Y18.5143 
G01 X-39.9557 Y18.5941 
G01 X-40.0981 Y18.6975 
G01 X-40.2225 Y18.8219 
G01 X-40.3259 Y18.9642 
G01 X-40.4057 Y19.1210 
G01 X-40.4601 Y19.2883 
G01 X-40.4876 Y19.4620 
G01 X-40.4876 Y19.6380 
G01 X-40.4601 Y19.8117 
G01 X-40.4057 Y19.9790 
G01 X-40.3259 Y20.1357 
G01 X-40.2225 Y20.2781 
G01 X-40.0981 Y20.4025 
G01 X-39.9557 Y20.5059 
G01 X-39.7990 Y20.5857 
G01 X-39.6317 Y20.6401 
G01 X-39.4580 Y20.6676 
G01 X-39.2820 Y20.6676 
G01 X-39.1083 Y20.6401 
G01 X-38.9410 Y20.5857 
G01 X-38.7843 Y20.5059 
G01 X-38.6419 Y20.4025 
G01 X-38.5175 Y20.2781 
G01 X-38.4141 Y20.1357 
G01 X-38.3343 Y19.9790 
G01 X-38.2799 Y19.8117 
G01 X-38.2524 Y19.6380 
G01 X-38.2524 Y19.4620 
G01 X-38.2799 Y19.2883 
G01 X-38.3343 Y19.1210 
G01 X-38.4141 Y18.9642 
G01 X-38.5175 Y18.8219 
G01 X-38.6419 Y18.6975 
G01 X-38.7843 Y18.5941 
G01 X-38.9410 Y18.5143 
G01 X-39.0144 Y18.4904 
G01 X-39.0144 Y17.4794 
G01 X-38.9369 Y17.4473 
G01 X-38.7871 Y17.3473 
G01 X-38.6597 Y17.2199 
G01 X-38.5597 Y17.0701 
G01 X-38.4907 Y16.9037 
G01 X-38.4556 Y16.7271 
G01 X-38.4556 Y16.2306 
G01 X-37.7444 Y16.2306 
G01 X-37.7444 Y16.7271 
G01 X-37.7093 Y16.9037 
G01 X-37.6403 Y17.0701 
G01 X-37.5403 Y17.2199 
G01 X-37.4129 Y17.3473 
G01 X-37.2631 Y17.4473 
G01 X-37.1856 Y17.4794 
G01 X-37.1856 Y18.4904 
G01 X-37.2590 Y18.5143 
G01 X-37.4157 Y18.5941 
G01 X-37.5581 Y18.6975 
G01 X-37.6825 Y18.8219 
G01 X-37.7859 Y18.9642 
G01 X-37.8657 Y19.1210 
G01 X-37.9201 Y19.2883 
G01 X-37.9476 Y19.4620 
G01 X-37.9476 Y19.6380 
G01 X-37.9201 Y19.8117 
G01 X-37.8657 Y19.9790 
G01 X-37.7859 Y20.1357 
G01 X-37.6825 Y20.2781 
G01 X-37.5581 Y20.4025 
G01 X-37.4157 Y20.5059 
G01 X-37.2590 Y20.5857 
G01 X-37.0917 Y20.6401 
G01 X-36.9180 Y20.6676 
G01 X-36.7420 Y20.6676 
G01 X-36.5683 Y20.6401 
G01 X-36.4010 Y20.5857 
G01 X-36.2443 Y20.5059 
G01 X-36.1019 Y20.4025 
G01 X-35.9775 Y20.2781 
G01 X-35.8741 Y20.1357 
G01 X-35.7943 Y19.9790 
G01 X-35.7399 Y19.8117 
G01 X-35.7124 Y19.6380 
G01 X-35.7124 Y19.4620 
G01 X-35.7399 Y19.2883 
G01 X-35.7943 Y19.1210 
G01 X-35.8741 Y18.9642 
G01 X-35.9775 Y18.8219 
G01 X-36.1019 Y18.6975 
G01 X-36.2443 Y18.5941 
G01 X-36.4010 Y18.5143 
G01 X-36.4744 Y18.4904 
G01 X-36.4744 Y17.4794 
G01 X-36.3969 Y17.4473 
G01 X-36.2471 Y17.3473 
G01 X-36.1197 Y17.2199 
G01 X-36.0197 Y17.0701 
G01 X-35.9507 Y16.9037 
G01 X-35.9156 Y16.7271 
G01 X-35.9156 Y15.0229 
G01 X-35.9507 Y14.8463 
G01 X-36.0197 Y14.6799 
G01 X-36.1197 Y14.5301 
G00 Z2.0000 
G00 X-36.1019 Y7.2025 
G01 Z0.0000 F254.00 
G01 X-35.9775 Y7.0781 F508.00 
G01 X-35.8741 Y6.9357 
G01 X-35.7943 Y6.7790 
G01 X-35.7399 Y6.6117 
G01 X-35.7124 Y6.4380 
G01 X-35.7124 Y6.2620 
G01 X-35.7399 Y6.0883 
G01 X-35.7943 Y5.9210 
G01 X-35.8741 Y5.7642 
G01 X-35.9775 Y5.6219 
G01 X-36.1019 Y5.4975 
G01 X-36.2443 Y5.3941 
G01 X-36.4010 Y5.3143 
G01 X-36.5683 Y5.2599 
G01 X-36.7420 Y5.2324 
G01 X-36.9180 Y5.2324 
G01 X-37.0917 Y5.2599 
G01 X-37.2590 Y5.3143 
G01 X-37.4157 Y5.3941 
G01 X-37.5581 Y5.4975 
G01 X-37.6825 Y5.6219 
G01 X-37.7859 Y5.7642 
G01 X-37.8657 Y5.9210 
G01 X-37.8896 Y5.9944 
G01 X-38.0464 Y5.9944 
G01 X-38.0464 Y5.8999 
G01 X-38.0796 Y5.7331 
G01 X-38.1447 Y5.5759 
G01 X-38.2392 Y5.4345 
G01 X-38.3595 Y5.3142 
G01 X-38.5009 Y5.2197 
G01 X-38.6581 Y5.1546 
G01 X-38.8249 Y5.1214 
G01 X-38.9951 Y5.1214 
G01 X-39.1619 Y5.1546 
G01 X-39.3191 Y5.2197 
G01 X-39.4605 Y5.3142 
G01 X-39.5808 Y5.4345 
G01 X-39.6753 Y5.5759 
G01 X-39.7404 Y5.7331 
G01 X-39.7736 Y5.8999 
G01 X-39.7736 Y6.0701 
G01 X-39.7404 Y6.2369 
G01 X-39.6753 Y6.3941 
G01 X-39.5808 Y6.5355 
G01 X-39.4605 Y6.6558 
G01 X-39.3191 Y6.7503 
G01 X-39.1619 Y6.8154 
G01 X-38.9951 Y6.8486 
G01 X-38.8249 Y6.8486 
G01 X-38.6581 Y6.8154 
G01 X-38.5009 Y6.7503 
G01 X-38.4340 Y6.7056 
G01 X-37.8896 Y6.7056 
G01 X-37.8657 Y6.7790 
G01 X-37.7859 Y6.9357 
G01 X-37.6825 Y7.0781 
G01 X-37.5581 Y7.2025 
G01 X-37.4157 Y7.3059 
G01 X-37.2590 Y7.3857 
G01 X-37.0917 Y7.4401 
G01 X-36.9180 Y7.4676 
G01 X-36.7420 Y7.4676 
G01 X-36.5683 Y7.4401 
G01 X-36.4010 Y7.3857 
G01 X-36.2443 Y7.3059 
G01 X-36.1019 Y7.2025 
G00 Z2.0000 
G00 X-38.2392 Y7.4345 
G01 Z0.0000 F254.00 
G01 X-38.3595 Y7.3142 F508.00 
G01 X-38.5009 Y7.2197 
G01 X-38.6581 Y7.1546 
G01 X-38.8249 Y7.1214 
G01 X-38.9951 Y7.1214 
G01 X-39.1619 Y7.1546 
G01 X-39.3191 Y7.2197 
G01 X-39.4605 Y7.3142 
G01 X-39.5808 Y7.4345 
G01 X-39.6753 Y7.5759 
G01 X-39.7404 Y7.7331 
G01 X-39.7735 Y7.8994 
G01 X-40.2844 Y7.8994 
G01 X-40.2844 Y2.4932 
G01 X-40.3086 Y2.4027 
G01 X-40.3554 Y2.3217 
G01 X-40.4217 Y2.2555 
G01 X-40.5027 Y2.2086 
G01 X-40.5932 Y2.1844 
G01 X-52.1168 Y2.1844 
G01 X-52.2073 Y2.2086 
G01 X-52.2883 Y2.2555 
G01 X-52.3545 Y2.3217 
G01 X-52.4014 Y2.4027 
G01 X-52.4256 Y2.4932 
G01 X-52.4256 Y5.3086 
G01 X-52.5014 Y5.3086 
G01 X-53.1114 Y5.9186 
G01 X-53.1114 Y6.7814 
G01 X-52.5014 Y7.3914 
G01 X-51.6386 Y7.3914 
G01 X-51.0286 Y6.7814 
G01 X-51.0286 Y5.9186 
G01 X-51.6386 Y5.3086 
G01 X-51.7144 Y5.3086 
G01 X-51.7144 Y2.8956 
G01 X-40.9956 Y2.8956 
G01 X-40.9956 Y8.3018 
G01 X-40.9714 Y8.3923 
G01 X-40.9245 Y8.4733 
G01 X-40.8583 Y8.5395 
G01 X-40.7773 Y8.5864 
G01 X-40.6868 Y8.6106 
G01 X-39.5057 Y8.6106 
G01 X-39.4605 Y8.6558 
G01 X-39.3191 Y8.7503 
G01 X-39.1619 Y8.8154 
G01 X-38.9951 Y8.8486 
G01 X-38.8249 Y8.8486 
G01 X-38.6581 Y8.8154 
G01 X-38.5009 Y8.7503 
G01 X-38.3595 Y8.6558 
G01 X-38.2392 Y8.5355 
G01 X-38.1447 Y8.3941 
G01 X-38.0796 Y8.2369 
G01 X-38.0464 Y8.0701 
G01 X-38.0464 Y7.8999 
G01 X-38.0796 Y7.7331 
G01 X-38.1447 Y7.5759 
G01 X-38.2392 Y7.4345 
G00 Z2.0000 
G00 X-38.3595 Y4.6558 
G01 Z0.0000 F254.00 
G01 X-38.2392 Y4.5355 F508.00 
G01 X-38.1447 Y4.3941 
G01 X-38.0796 Y4.2369 
G01 X-38.0464 Y4.0701 
G01 X-38.0464 Y3.8999 
G01 X-38.0796 Y3.7331 
G01 X-38.1447 Y3.5759 
G01 X-38.2392 Y3.4345 
G01 X-38.3595 Y3.3142 
G01 X-38.5009 Y3.2197 
G01 X-38.6581 Y3.1546 
G01 X-38.8249 Y3.1214 
G01 X-38.9951 Y3.1214 
G01 X-39.1619 Y3.1546 
G01 X-39.3191 Y3.2197 
G01 X-39.4605 Y3.3142 
G01 X-39.5808 Y3.4345 
G01 X-39.6753 Y3.5759 
G01 X-39.7404 Y3.7331 
G01 X-39.7736 Y3.8999 
G01 X-39.7736 Y4.0701 
G01 X-39.7404 Y4.2369 
G01 X-39.6753 Y4.3941 
G01 X-39.5808 Y4.5355 
G01 X-39.4605 Y4.6558 
G01 X-39.3191 Y4.7503 
G01 X-39.1619 Y4.8154 
G01 X-38.9951 Y4.8486 
G01 X-38.8249 Y4.8486 
G01 X-38.6581 Y4.8154 
G01 X-38.5009 Y4.7503 
G01 X-38.3595 Y4.6558 
G00 Z2.0000 
G00 X-43.3595 Y4.6558 
G01 Z0.0000 F254.00 
G01 X-43.2392 Y4.5355 F508.00 
G01 X-43.1447 Y4.3941 
G01 X-43.0796 Y4.2369 
G01 X-43.0464 Y4.0701 
G01 X-43.0464 Y3.8999 
G01 X-43.0796 Y3.7331 
G01 X-43.1447 Y3.5759 
G01 X-43.2392 Y3.4345 
G01 X-43.3595 Y3.3142 
G01 X-43.5009 Y3.2197 
G01 X-43.6581 Y3.1546 
G01 X-43.8249 Y3.1214 
G01 X-43.9951 Y3.1214 
G01 X-44.1619 Y3.1546 
G01 X-44.3191 Y3.2197 
G01 X-44.4605 Y3.3142 
G01 X-44.5808 Y3.4345 
G01 X-44.6753 Y3.5759 
G01 X-44.7404 Y3.7331 
G01 X-44.7736 Y3.8999 
G01 X-44.7736 Y4.0701 
G01 X-44.7404 Y4.2369 
G01 X-44.6753 Y4.3941 
G01 X-44.5808 Y4.5355 
G01 X-44.4605 Y4.6558 
G01 X-44.3191 Y4.7503 
G01 X-44.1619 Y4.8154 
G01 X-43.9951 Y4.8486 
G01 X-43.8249 Y4.8486 
G01 X-43.6581 Y4.8154 
G01 X-43.5009 Y4.7503 
G01 X-43.3595 Y4.6558 
G00 Z2.0000 
G00 X-43.3595 Y7.3142 
G01 Z0.0000 F254.00 
G01 X-43.5009 Y7.2197 F508.00 
G01 X-43.6581 Y7.1546 
G01 X-43.8249 Y7.1214 
G01 X-43.9951 Y7.1214 
G01 X-44.1619 Y7.1546 
G01 X-44.3191 Y7.2197 
G01 X-44.4605 Y7.3142 
G01 X-44.5808 Y7.4345 
G01 X-44.6753 Y7.5759 
G01 X-44.7404 Y7.7331 
G01 X-44.7736 Y7.8999 
G01 X-44.7736 Y8.0701 
G01 X-44.7404 Y8.2369 
G01 X-44.7183 Y8.2904 
G01 X-44.9623 Y8.5344 
G01 X-45.7668 Y8.5344 
G01 X-45.8573 Y8.5586 
G01 X-45.9383 Y8.6054 
G01 X-46.0045 Y8.6717 
G01 X-47.5023 Y10.1694 
G01 X-54.0218 Y10.1694 
G01 X-54.1123 Y10.1936 
G01 X-54.1933 Y10.2404 
G01 X-54.2595 Y10.3067 
G01 X-54.3064 Y10.3877 
G01 X-54.3306 Y10.4782 
G01 X-54.3306 Y48.3068 
G01 X-54.3064 Y48.3973 
G01 X-54.2595 Y48.4783 
G01 X-54.1933 Y48.5445 
G01 X-54.1123 Y48.5914 
G01 X-54.0218 Y48.6156 
G01 X-29.1632 Y48.6156 
G01 X-29.0727 Y48.5914 
G01 X-28.9917 Y48.5445 
G01 X-28.9255 Y48.4783 
G01 X-28.8786 Y48.3973 
G01 X-28.8544 Y48.3068 
G01 X-28.8544 Y47.3244 
G01 X-28.7769 Y47.2923 
G01 X-28.6271 Y47.1923 
G01 X-28.4997 Y47.0649 
G01 X-28.3997 Y46.9151 
G01 X-28.3307 Y46.7487 
G01 X-28.2956 Y46.5721 
G01 X-28.2956 Y44.8679 
G01 X-28.3307 Y44.6913 
G01 X-28.3997 Y44.5249 
G01 X-28.4997 Y44.3751 
G01 X-28.6271 Y44.2477 
G01 X-28.7769 Y44.1477 
G01 X-28.8544 Y44.1156 
G01 X-28.8544 Y43.4696 
G01 X-28.7810 Y43.4457 
G01 X-28.6242 Y43.3659 
G01 X-28.4819 Y43.2625 
G01 X-28.3575 Y43.1381 
G01 X-28.2541 Y42.9957 
G01 X-28.1743 Y42.8390 
G01 X-28.1199 Y42.6717 
G01 X-28.0924 Y42.4980 
G01 X-28.0924 Y42.3220 
G01 X-28.1199 Y42.1483 
G01 X-28.1743 Y41.9810 
G01 X-28.2541 Y41.8242 
G01 X-28.3575 Y41.6819 
G01 X-28.4819 Y41.5575 
G01 X-28.6242 Y41.4541 
G01 X-28.7810 Y41.3743 
G01 X-28.9483 Y41.3199 
G01 X-29.1220 Y41.2924 
G01 X-29.2980 Y41.2924 
G01 X-29.4717 Y41.3199 
G01 X-29.6390 Y41.3743 
G01 X-29.7957 Y41.4541 
G01 X-29.9381 Y41.5575 
G01 X-30.0625 Y41.6819 
G01 X-30.1659 Y41.8242 
G01 X-30.2457 Y41.9810 
G01 X-30.3001 Y42.1483 
G01 X-30.3276 Y42.3220 
G01 X-30.3276 Y42.4980 
G01 X-30.3001 Y42.6717 
G01 X-30.2457 Y42.8390 
G01 X-30.1659 Y42.9957 
G01 X-30.0625 Y43.1381 
G01 X-29.9381 Y43.2625 
G01 X-29.7957 Y43.3659 
G01 X-29.6390 Y43.4457 
G01 X-29.5656 Y43.4696 
G01 X-29.5656 Y44.1156 
G01 X-29.6431 Y44.1477 
G01 X-29.7929 Y44.2477 
G01 X-29.9203 Y44.3751 
G01 X-30.0203 Y44.5249 
G01 X-30.0893 Y44.6913 
G01 X-30.1244 Y44.8679 
G01 X-30.1244 Y46.5721 
G01 X-30.0893 Y46.7487 
G01 X-30.0203 Y46.9151 
G01 X-29.9203 Y47.0649 
G01 X-29.7929 Y47.1923 
G01 X-29.6431 Y47.2923 
G01 X-29.5656 Y47.3244 
G01 X-29.5656 Y47.9044 
G01 X-53.6194 Y47.9044 
G01 X-53.6194 Y10.8806 
G01 X-47.3082 Y10.8806 
G01 X-47.2177 Y10.8564 
G01 X-47.1367 Y10.8095 
G01 X-45.5727 Y9.2456 
G01 X-44.7682 Y9.2456 
G01 X-44.6777 Y9.2214 
G01 X-44.5967 Y9.1745 
G01 X-44.2154 Y8.7933 
G01 X-44.1619 Y8.8154 
G01 X-43.9951 Y8.8486 
G01 X-43.8249 Y8.8486 
G01 X-43.6581 Y8.8154 
G01 X-43.5009 Y8.7503 
G01 X-43.3595 Y8.6558 
G01 X-43.2392 Y8.5355 
G01 X-43.1447 Y8.3941 
G01 X-43.0796 Y8.2369 
G01 X-43.0464 Y8.0701 
G01 X-43.0464 Y7.8999 
G01 X-43.0796 Y7.7331 
G01 X-43.1447 Y7.5759 
G01 X-43.2392 Y7.4345 
G01 X-43.3595 Y7.3142 
G00 Z2.0000 
G00 X-43.3458 Y11.1871 
G01 Z0.0000 F254.00 
G01 X-43.5260 Y11.1125 F508.00 
G01 X-43.7174 Y11.0744 
G01 X-43.9126 Y11.0744 
G01 X-44.1039 Y11.1125 
G01 X-44.2842 Y11.1871 
G01 X-44.4465 Y11.2956 
G01 X-44.5844 Y11.4335 
G01 X-44.6929 Y11.5958 
G01 X-44.7399 Y11.7094 
G01 X-52.1168 Y11.7094 
G01 X-52.2073 Y11.7336 
G01 X-52.2883 Y11.7805 
G01 X-52.3545 Y11.8467 
G01 X-52.4014 Y11.9277 
G01 X-52.4256 Y12.0182 
G01 X-52.4256 Y39.4168 
G01 X-52.4014 Y39.5073 
G01 X-52.3545 Y39.5883 
G01 X-52.2883 Y39.6545 
G01 X-52.2073 Y39.7014 
G01 X-52.1168 Y39.7256 
G01 X-42.2656 Y39.7256 
G01 X-42.2656 Y41.3504 
G01 X-42.3390 Y41.3743 
G01 X-42.4957 Y41.4541 
G01 X-42.6381 Y41.5575 
G01 X-42.7625 Y41.6819 
G01 X-42.8659 Y41.8242 
G01 X-42.9457 Y41.9810 
G01 X-43.0001 Y42.1483 
G01 X-43.0276 Y42.3220 
G01 X-43.0276 Y42.4980 
G01 X-43.0001 Y42.6717 
G01 X-42.9457 Y42.8390 
G01 X-42.8659 Y42.9957 
G01 X-42.7625 Y43.1381 
G01 X-42.6381 Y43.2625 
G01 X-42.4957 Y43.3659 
G01 X-42.3390 Y43.4457 
G01 X-42.2656 Y43.4696 
G01 X-42.2656 Y44.1156 
G01 X-42.3431 Y44.1477 
G01 X-42.4929 Y44.2477 
G01 X-42.6203 Y44.3751 
G01 X-42.7203 Y44.5249 
G01 X-42.7893 Y44.6913 
G01 X-42.8244 Y44.8679 
G01 X-42.8244 Y46.5721 
G01 X-42.7893 Y46.7487 
G01 X-42.7203 Y46.9151 
G01 X-42.6203 Y47.0649 
G01 X-42.4929 Y47.1923 
G01 X-42.3431 Y47.2923 
G01 X-42.1767 Y47.3613 
G01 X-42.0001 Y47.3964 
G01 X-41.8199 Y47.3964 
G01 X-41.6433 Y47.3613 
G01 X-41.4769 Y47.2923 
G01 X-41.3271 Y47.1923 
G01 X-41.1997 Y47.0649 
G01 X-41.0997 Y46.9151 
G01 X-41.0307 Y46.7487 
G01 X-40.9956 Y46.5721 
G01 X-40.9956 Y44.8679 
G01 X-41.0307 Y44.6913 
G01 X-41.0997 Y44.5249 
G01 X-41.1997 Y44.3751 
G01 X-41.3271 Y44.2477 
G01 X-41.4769 Y44.1477 
G01 X-41.5544 Y44.1156 
G01 X-41.5544 Y43.4696 
G01 X-41.4810 Y43.4457 
G01 X-41.3242 Y43.3659 
G01 X-41.1819 Y43.2625 
G01 X-41.0575 Y43.1381 
G01 X-40.9541 Y42.9957 
G01 X-40.8743 Y42.8390 
G01 X-40.8199 Y42.6717 
G01 X-40.7924 Y42.4980 
G01 X-40.7924 Y42.3220 
G01 X-40.8199 Y42.1483 
G01 X-40.8743 Y41.9810 
G01 X-40.9541 Y41.8242 
G01 X-41.0575 Y41.6819 
G01 X-41.1819 Y41.5575 
G01 X-41.3242 Y41.4541 
G01 X-41.4810 Y41.3743 
G01 X-41.5544 Y41.3504 
G01 X-41.5544 Y39.3232 
G01 X-41.5786 Y39.2327 
G01 X-41.6255 Y39.1517 
G01 X-41.6917 Y39.0855 
G01 X-41.7727 Y39.0386 
G01 X-41.8632 Y39.0144 
G01 X-51.7144 Y39.0144 
G01 X-51.7144 Y12.4206 
G01 X-44.7399 Y12.4206 
G01 X-44.6929 Y12.5342 
G01 X-44.5844 Y12.6965 
G01 X-44.4465 Y12.8344 
G01 X-44.2842 Y12.9429 
G01 X-44.1039 Y13.0175 
G01 X-43.9126 Y13.0556 
G01 X-43.7174 Y13.0556 
G01 X-43.5260 Y13.0175 
G01 X-43.3458 Y12.9429 
G01 X-43.1835 Y12.8344 
G01 X-43.0455 Y12.6965 
G01 X-42.9371 Y12.5342 
G01 X-42.8625 Y12.3539 
G01 X-42.8244 Y12.1626 
G01 X-42.8244 Y11.9674 
G01 X-42.8625 Y11.7760 
G01 X-42.9371 Y11.5958 
G01 X-43.0455 Y11.4335 
G01 X-43.1835 Y11.2956 
G01 X-43.3458 Y11.1871 
G00 Z2.0000 
G00 X-43.7397 Y14.5301 
G01 Z0.0000 F254.00 
G01 X-43.8671 Y14.4027 F508.00 
G01 X-44.0169 Y14.3027 
G01 X-44.1833 Y14.2337 
G01 X-44.3599 Y14.1986 
G01 X-44.5401 Y14.1986 
G01 X-44.7167 Y14.2337 
G01 X-44.8831 Y14.3027 
G01 X-45.0329 Y14.4027 
G01 X-45.1603 Y14.5301 
G01 X-45.2603 Y14.6799 
G01 X-45.3293 Y14.8463 
G01 X-45.3644 Y15.0229 
G01 X-45.3644 Y16.7271 
G01 X-45.3293 Y16.9037 
G01 X-45.2603 Y17.0701 
G01 X-45.1603 Y17.2199 
G01 X-45.0329 Y17.3473 
G01 X-44.8831 Y17.4473 
G01 X-44.8056 Y17.4794 
G01 X-44.8056 Y18.4904 
G01 X-44.8790 Y18.5143 
G01 X-45.0357 Y18.5941 
G01 X-45.1781 Y18.6975 
G01 X-45.3025 Y18.8219 
G01 X-45.4059 Y18.9642 
G01 X-45.4857 Y19.1210 
G01 X-45.5401 Y19.2883 
G01 X-45.5676 Y19.4620 
G01 X-45.5676 Y19.6380 
G01 X-45.5401 Y19.8117 
G01 X-45.4857 Y19.9790 
G01 X-45.4059 Y20.1357 
G01 X-45.3025 Y20.2781 
G01 X-45.1781 Y20.4025 
G01 X-45.0357 Y20.5059 
G01 X-44.8790 Y20.5857 
G01 X-44.7117 Y20.6401 
G01 X-44.5380 Y20.6676 
G01 X-44.3620 Y20.6676 
G01 X-44.1883 Y20.6401 
G01 X-44.0210 Y20.5857 
G01 X-43.8642 Y20.5059 
G01 X-43.7219 Y20.4025 
G01 X-43.5975 Y20.2781 
G01 X-43.4941 Y20.1357 
G01 X-43.4143 Y19.9790 
G01 X-43.3599 Y19.8117 
G01 X-43.3324 Y19.6380 
G01 X-43.3324 Y19.4620 
G01 X-43.3599 Y19.2883 
G01 X-43.4143 Y19.1210 
G01 X-43.4941 Y18.9642 
G01 X-43.5975 Y18.8219 
G01 X-43.7219 Y18.6975 
G01 X-43.8642 Y18.5941 
G01 X-44.0210 Y18.5143 
G01 X-44.0944 Y18.4904 
G01 X-44.0944 Y17.4794 
G01 X-44.0169 Y17.4473 
G01 X-43.8671 Y17.3473 
G01 X-43.7397 Y17.2199 
G01 X-43.6397 Y17.0701 
G01 X-43.5707 Y16.9037 
G01 X-43.5356 Y16.7271 
G01 X-43.5356 Y15.0229 
G01 X-43.5707 Y14.8463 
G01 X-43.6397 Y14.6799 
G01 X-43.7397 Y14.5301 
G00 Z2.0000 
G00 X-46.2797 Y14.5301 
G01 Z0.0000 F254.00 
G01 X-46.4071 Y14.4027 F508.00 
G01 X-46.5569 Y14.3027 
G01 X-46.7233 Y14.2337 
G01 X-46.8999 Y14.1986 
G01 X-47.0801 Y14.1986 
G01 X-47.2567 Y14.2337 
G01 X-47.4231 Y14.3027 
G01 X-47.5729 Y14.4027 
G01 X-47.7003 Y14.5301 
G01 X-47.8003 Y14.6799 
G01 X-47.8693 Y14.8463 
G01 X-47.9044 Y15.0229 
G01 X-47.9044 Y16.7271 
G01 X-47.8693 Y16.9037 
G01 X-47.8003 Y17.0701 
G01 X-47.7003 Y17.2199 
G01 X-47.5729 Y17.3473 
G01 X-47.4231 Y17.4473 
G01 X-47.3456 Y17.4794 
G01 X-47.3456 Y18.4904 
G01 X-47.4190 Y18.5143 
G01 X-47.5757 Y18.5941 
G01 X-47.7181 Y18.6975 
G01 X-47.8425 Y18.8219 
G01 X-47.9459 Y18.9642 
G01 X-48.0257 Y19.1210 
G01 X-48.0801 Y19.2883 
G01 X-48.1076 Y19.4620 
G01 X-48.1076 Y19.6380 
G01 X-48.0801 Y19.8117 
G01 X-48.0257 Y19.9790 
G01 X-47.9459 Y20.1357 
G01 X-47.8425 Y20.2781 
G01 X-47.7181 Y20.4025 
G01 X-47.5757 Y20.5059 
G01 X-47.4190 Y20.5857 
G01 X-47.2517 Y20.6401 
G01 X-47.0780 Y20.6676 
G01 X-46.9020 Y20.6676 
G01 X-46.7283 Y20.6401 
G01 X-46.5610 Y20.5857 
G01 X-46.4042 Y20.5059 
G01 X-46.2619 Y20.4025 
G01 X-46.1375 Y20.2781 
G01 X-46.0341 Y20.1357 
G01 X-45.9543 Y19.9790 
G01 X-45.8999 Y19.8117 
G01 X-45.8724 Y19.6380 
G01 X-45.8724 Y19.4620 
G01 X-45.8999 Y19.2883 
G01 X-45.9543 Y19.1210 
G01 X-46.0341 Y18.9642 
G01 X-46.1375 Y18.8219 
G01 X-46.2619 Y18.6975 
G01 X-46.4042 Y18.5941 
G01 X-46.5610 Y18.5143 
G01 X-46.6344 Y18.4904 
G01 X-46.6344 Y17.4794 
G01 X-46.5569 Y17.4473 
G01 X-46.4071 Y17.3473 
G01 X-46.2797 Y17.2199 
G01 X-46.1797 Y17.0701 
G01 X-46.1107 Y16.9037 
G01 X-46.0756 Y16.7271 
G01 X-46.0756 Y15.0229 
G01 X-46.1107 Y14.8463 
G01 X-46.1797 Y14.6799 
G01 X-46.2797 Y14.5301 
G00 Z2.0000 
G00 X-48.8197 Y14.5301 
G01 Z0.0000 F254.00 
G01 X-48.9471 Y14.4027 F508.00 
G01 X-49.0969 Y14.3027 
G01 X-49.2633 Y14.2337 
G01 X-49.4399 Y14.1986 
G01 X-49.6201 Y14.1986 
G01 X-49.7967 Y14.2337 
G01 X-49.9631 Y14.3027 
G01 X-50.1129 Y14.4027 
G01 X-50.2403 Y14.5301 
G01 X-50.3403 Y14.6799 
G01 X-50.4093 Y14.8463 
G01 X-50.4444 Y15.0229 
G01 X-50.4444 Y16.7271 
G01 X-50.4093 Y16.9037 
G01 X-50.3403 Y17.0701 
G01 X-50.2403 Y17.2199 
G01 X-50.1129 Y17.3473 
G01 X-49.9631 Y17.4473 
G01 X-49.8856 Y17.4794 
G01 X-49.8856 Y18.4904 
G01 X-49.9590 Y18.5143 
G01 X-50.1157 Y18.5941 
G01 X-50.2581 Y18.6975 
G01 X-50.3825 Y18.8219 
G01 X-50.4859 Y18.9642 
G01 X-50.5657 Y19.1210 
G01 X-50.6201 Y19.2883 
G01 X-50.6476 Y19.4620 
G01 X-50.6476 Y19.6380 
G01 X-50.6201 Y19.8117 
G01 X-50.5657 Y19.9790 
G01 X-50.4859 Y20.1357 
G01 X-50.3825 Y20.2781 
G01 X-50.2581 Y20.4025 
G01 X-50.1157 Y20.5059 
G01 X-49.9590 Y20.5857 
G01 X-49.7917 Y20.6401 
G01 X-49.6180 Y20.6676 
G01 X-49.4420 Y20.6676 
G01 X-49.2683 Y20.6401 
G01 X-49.1010 Y20.5857 
G01 X-48.9442 Y20.5059 
G01 X-48.8019 Y20.4025 
G01 X-48.6775 Y20.2781 
G01 X-48.5741 Y20.1357 
G01 X-48.4943 Y19.9790 
G01 X-48.4399 Y19.8117 
G01 X-48.4124 Y19.6380 
G01 X-48.4124 Y19.4620 
G01 X-48.4399 Y19.2883 
G01 X-48.4943 Y19.1210 
G01 X-48.5741 Y18.9642 
G01 X-48.6775 Y18.8219 
G01 X-48.8019 Y18.6975 
G01 X-48.9442 Y18.5941 
G01 X-49.1010 Y18.5143 
G01 X-49.1744 Y18.4904 
G01 X-49.1744 Y17.4794 
G01 X-49.0969 Y17.4473 
G01 X-48.9471 Y17.3473 
G01 X-48.8197 Y17.2199 
G01 X-48.7197 Y17.0701 
G01 X-48.6507 Y16.9037 
G01 X-48.6156 Y16.7271 
G01 X-48.6156 Y15.0229 
G01 X-48.6507 Y14.8463 
G01 X-48.7197 Y14.6799 
G01 X-48.8197 Y14.5301 
G00 Z2.0000 
G00 X-48.9457 Y26.8716 
G01 Z0.0000 F254.00 
G01 X-49.0616 Y26.7557 F508.00 
G01 X-49.1942 Y26.6593 
G01 X-49.3402 Y26.5849 
G01 X-49.4961 Y26.5342 
G01 X-49.6580 Y26.5086 
G01 X-49.8220 Y26.5086 
G01 X-49.9839 Y26.5342 
G01 X-50.1398 Y26.5849 
G01 X-50.2858 Y26.6593 
G01 X-50.4184 Y26.7557 
G01 X-50.5343 Y26.8716 
G01 X-50.6307 Y27.0042 
G01 X-50.7051 Y27.1502 
G01 X-50.7558 Y27.3061 
G01 X-50.7814 Y27.4680 
G01 X-50.7814 Y27.6320 
G01 X-50.7558 Y27.7939 
G01 X-50.7051 Y27.9498 
G01 X-50.6307 Y28.0958 
G01 X-50.5343 Y28.2284 
G01 X-50.4184 Y28.3443 
G01 X-50.2858 Y28.4407 
G01 X-50.1398 Y28.5151 
G01 X-49.9839 Y28.5658 
G01 X-49.8220 Y28.5914 
G01 X-49.6580 Y28.5914 
G01 X-49.4961 Y28.5658 
G01 X-49.3402 Y28.5151 
G01 X-49.1942 Y28.4407 
G01 X-49.0616 Y28.3443 
G01 X-48.9457 Y28.2284 
G01 X-48.8493 Y28.0958 
G01 X-48.7749 Y27.9498 
G01 X-48.7242 Y27.7939 
G01 X-48.6986 Y27.6320 
G01 X-48.6986 Y27.4680 
G01 X-48.7242 Y27.3061 
G01 X-48.7749 Y27.1502 
G01 X-48.8493 Y27.0042 
G01 X-48.9457 Y26.8716 
G00 Z2.0000 
G00 X-48.9457 Y29.4116 
G01 Z0.0000 F254.00 
G01 X-49.0616 Y29.2957 F508.00 
G01 X-49.1942 Y29.1993 
G01 X-49.3402 Y29.1249 
G01 X-49.4961 Y29.0742 
G01 X-49.6580 Y29.0486 
G01 X-49.8220 Y29.0486 
G01 X-49.9839 Y29.0742 
G01 X-50.1398 Y29.1249 
G01 X-50.2858 Y29.1993 
G01 X-50.4184 Y29.2957 
G01 X-50.5343 Y29.4116 
G01 X-50.6307 Y29.5442 
G01 X-50.7051 Y29.6902 
G01 X-50.7558 Y29.8461 
G01 X-50.7814 Y30.0080 
G01 X-50.7814 Y30.1720 
G01 X-50.7558 Y30.3339 
G01 X-50.7051 Y30.4898 
G01 X-50.6307 Y30.6358 
G01 X-50.5343 Y30.7684 
G01 X-50.4184 Y30.8843 
G01 X-50.2858 Y30.9807 
G01 X-50.1398 Y31.0551 
G01 X-49.9839 Y31.1058 
G01 X-49.8220 Y31.1314 
G01 X-49.6580 Y31.1314 
G01 X-49.4961 Y31.1058 
G01 X-49.3402 Y31.0551 
G01 X-49.1942 Y30.9807 
G01 X-49.0616 Y30.8843 
G01 X-48.9457 Y30.7684 
G01 X-48.8493 Y30.6358 
G01 X-48.7749 Y30.4898 
G01 X-48.7242 Y30.3339 
G01 X-48.6986 Y30.1720 
G01 X-48.6986 Y30.0080 
G01 X-48.7242 Y29.8461 
G01 X-48.7749 Y29.6902 
G01 X-48.8493 Y29.5442 
G01 X-48.9457 Y29.4116 
G00 Z2.0000 
G00 X-48.9457 Y31.9516 
G01 Z0.0000 F254.00 
G01 X-49.0616 Y31.8357 F508.00 
G01 X-49.1942 Y31.7393 
G01 X-49.3402 Y31.6649 
G01 X-49.4961 Y31.6142 
G01 X-49.6580 Y31.5886 
G01 X-49.8220 Y31.5886 
G01 X-49.9839 Y31.6142 
G01 X-50.1398 Y31.6649 
G01 X-50.2858 Y31.7393 
G01 X-50.4184 Y31.8357 
G01 X-50.5343 Y31.9516 
G01 X-50.6307 Y32.0842 
G01 X-50.7051 Y32.2302 
G01 X-50.7558 Y32.3861 
G01 X-50.7814 Y32.5480 
G01 X-50.7814 Y32.7120 
G01 X-50.7558 Y32.8739 
G01 X-50.7051 Y33.0298 
G01 X-50.6307 Y33.1758 
G01 X-50.5343 Y33.3084 
G01 X-50.4184 Y33.4243 
G01 X-50.2858 Y33.5207 
G01 X-50.1398 Y33.5951 
G01 X-49.9839 Y33.6458 
G01 X-49.8220 Y33.6714 
G01 X-49.6580 Y33.6714 
G01 X-49.4961 Y33.6458 
G01 X-49.3402 Y33.5951 
G01 X-49.1942 Y33.5207 
G01 X-49.0616 Y33.4243 
G01 X-48.9457 Y33.3084 
G01 X-48.8493 Y33.1758 
G01 X-48.7749 Y33.0298 
G01 X-48.7606 Y32.9856 
G01 X-23.2156 Y32.9856 
G01 X-23.2156 Y36.8768 
G01 X-23.1914 Y36.9673 
G01 X-23.1445 Y37.0483 
G01 X-23.0783 Y37.1145 
G01 X-22.9973 Y37.1614 
G01 X-22.9068 Y37.1856 
G01 X-21.9456 Y37.1856 
G01 X-21.9456 Y41.3504 
G01 X-22.0190 Y41.3743 
G01 X-22.1757 Y41.4541 
G01 X-22.3181 Y41.5575 
G01 X-22.4425 Y41.6819 
G01 X-22.5459 Y41.8242 
G01 X-22.6257 Y41.9810 
G01 X-22.6801 Y42.1483 
G01 X-22.7076 Y42.3220 
G01 X-22.7076 Y42.4980 
G01 X-22.6801 Y42.6717 
G01 X-22.6257 Y42.8390 
G01 X-22.5459 Y42.9957 
G01 X-22.4425 Y43.1381 
G01 X-22.3181 Y43.2625 
G01 X-22.1757 Y43.3659 
G01 X-22.0190 Y43.4457 
G01 X-21.9456 Y43.4696 
G01 X-21.9456 Y44.1156 
G01 X-22.0231 Y44.1477 
G01 X-22.1729 Y44.2477 
G01 X-22.3003 Y44.3751 
G01 X-22.4003 Y44.5249 
G01 X-22.4693 Y44.6913 
G01 X-22.5044 Y44.8679 
G01 X-22.5044 Y46.5721 
G01 X-22.4693 Y46.7487 
G01 X-22.4003 Y46.9151 
G01 X-22.3003 Y47.0649 
G01 X-22.1729 Y47.1923 
G01 X-22.0231 Y47.2923 
G01 X-21.8567 Y47.3613 
G01 X-21.6801 Y47.3964 
G01 X-21.4999 Y47.3964 
G01 X-21.3233 Y47.3613 
G01 X-21.1569 Y47.2923 
G01 X-21.0071 Y47.1923 
G01 X-20.8797 Y47.0649 
G01 X-20.7797 Y46.9151 
G01 X-20.7107 Y46.7487 
G01 X-20.6756 Y46.5721 
G01 X-20.6756 Y44.8679 
G01 X-20.7107 Y44.6913 
G01 X-20.7797 Y44.5249 
G01 X-20.8797 Y44.3751 
G01 X-21.0071 Y44.2477 
G01 X-21.1569 Y44.1477 
G01 X-21.2344 Y44.1156 
G01 X-21.2344 Y43.4696 
G01 X-21.1610 Y43.4457 
G01 X-21.0042 Y43.3659 
G01 X-20.8619 Y43.2625 
G01 X-20.7375 Y43.1381 
G01 X-20.6341 Y42.9957 
G01 X-20.5543 Y42.8390 
G01 X-20.4999 Y42.6717 
G01 X-20.4724 Y42.4980 
G01 X-20.4724 Y42.3220 
G01 X-20.4999 Y42.1483 
G01 X-20.5543 Y41.9810 
G01 X-20.6341 Y41.8242 
G01 X-20.7375 Y41.6819 
G01 X-20.8619 Y41.5575 
G01 X-21.0042 Y41.4541 
G01 X-21.1610 Y41.3743 
G01 X-21.2344 Y41.3504 
G01 X-21.2344 Y36.7832 
G01 X-21.2586 Y36.6927 
G01 X-21.3055 Y36.6117 
G01 X-21.3717 Y36.5455 
G01 X-21.4527 Y36.4986 
G01 X-21.5432 Y36.4744 
G01 X-22.5044 Y36.4744 
G01 X-22.5044 Y32.5832 
G01 X-22.5286 Y32.4927 
G01 X-22.5755 Y32.4117 
G01 X-22.6417 Y32.3454 
G01 X-22.7227 Y32.2986 
G01 X-22.8132 Y32.2744 
G01 X-48.7606 Y32.2744 
G01 X-48.7749 Y32.2302 
G01 X-48.8493 Y32.0842 
G01 X-48.9457 Y31.9516 
G00 Z2.0000 
G00 X-48.9457 Y34.4916 
G01 Z0.0000 F254.00 
G01 X-49.0616 Y34.3757 F508.00 
G01 X-49.1942 Y34.2793 
G01 X-49.3402 Y34.2049 
G01 X-49.4961 Y34.1542 
G01 X-49.6580 Y34.1286 
G01 X-49.8220 Y34.1286 
G01 X-49.9839 Y34.1542 
G01 X-50.1398 Y34.2049 
G01 X-50.2858 Y34.2793 
G01 X-50.4184 Y34.3757 
G01 X-50.5343 Y34.4916 
G01 X-50.6307 Y34.6242 
G01 X-50.7051 Y34.7702 
G01 X-50.7558 Y34.9261 
G01 X-50.7814 Y35.0880 
G01 X-50.7814 Y35.2520 
G01 X-50.7558 Y35.4139 
G01 X-50.7051 Y35.5698 
G01 X-50.6307 Y35.7158 
G01 X-50.5343 Y35.8484 
G01 X-50.4184 Y35.9643 
G01 X-50.2858 Y36.0607 
G01 X-50.1398 Y36.1351 
G01 X-49.9839 Y36.1858 
G01 X-49.8220 Y36.2114 
G01 X-49.6580 Y36.2114 
G01 X-49.4961 Y36.1858 
G01 X-49.3402 Y36.1351 
G01 X-49.1942 Y36.0607 
G01 X-49.0616 Y35.9643 
G01 X-48.9457 Y35.8484 
G01 X-48.8493 Y35.7158 
G01 X-48.7749 Y35.5698 
G01 X-48.7606 Y35.5256 
G01 X-25.7556 Y35.5256 
G01 X-25.7556 Y38.3104 
G01 X-25.8290 Y38.3343 
G01 X-25.9857 Y38.4141 
G01 X-26.1281 Y38.5175 
G01 X-26.2525 Y38.6419 
G01 X-26.3559 Y38.7843 
G01 X-26.4357 Y38.9410 
G01 X-26.4901 Y39.1083 
G01 X-26.5176 Y39.2820 
G01 X-26.5176 Y39.4580 
G01 X-26.4901 Y39.6317 
G01 X-26.4357 Y39.7990 
G01 X-26.3559 Y39.9557 
G01 X-26.2525 Y40.0981 
G01 X-26.1281 Y40.2225 
G01 X-25.9857 Y40.3259 
G01 X-25.8290 Y40.4057 
G01 X-25.6617 Y40.4601 
G01 X-25.4880 Y40.4876 
G01 X-25.3120 Y40.4876 
G01 X-25.1383 Y40.4601 
G01 X-24.9710 Y40.4057 
G01 X-24.8143 Y40.3259 
G01 X-24.6719 Y40.2225 
G01 X-24.5475 Y40.0981 
G01 X-24.4441 Y39.9557 
G01 X-24.3643 Y39.7990 
G01 X-24.3099 Y39.6317 
G01 X-24.2824 Y39.4580 
G01 X-24.2824 Y39.2820 
G01 X-24.3099 Y39.1083 
G01 X-24.3643 Y38.9410 
G01 X-24.4441 Y38.7843 
G01 X-24.5475 Y38.6419 
G01 X-24.6719 Y38.5175 
G01 X-24.8143 Y38.4141 
G01 X-24.9710 Y38.3343 
G01 X-25.0444 Y38.3104 
G01 X-25.0444 Y35.1232 
G01 X-25.0686 Y35.0327 
G01 X-25.1154 Y34.9517 
G01 X-25.1817 Y34.8854 
G01 X-25.2627 Y34.8386 
G01 X-25.3532 Y34.8144 
G01 X-48.7606 Y34.8144 
G01 X-48.7749 Y34.7702 
G01 X-48.8493 Y34.6242 
G01 X-48.9457 Y34.4916 
G00 Z2.0000 
G00 X-48.9457 Y37.0316 
G01 Z0.0000 F254.00 
G01 X-49.0616 Y36.9157 F508.00 
G01 X-49.1942 Y36.8193 
G01 X-49.3402 Y36.7449 
G01 X-49.4961 Y36.6942 
G01 X-49.6580 Y36.6686 
G01 X-49.8220 Y36.6686 
G01 X-49.9839 Y36.6942 
G01 X-50.1398 Y36.7449 
G01 X-50.2858 Y36.8193 
G01 X-50.4184 Y36.9157 
G01 X-50.5343 Y37.0316 
G01 X-50.6307 Y37.1642 
G01 X-50.7051 Y37.3102 
G01 X-50.7558 Y37.4661 
G01 X-50.7814 Y37.6280 
G01 X-50.7814 Y37.7920 
G01 X-50.7558 Y37.9539 
G01 X-50.7051 Y38.1098 
G01 X-50.6307 Y38.2558 
G01 X-50.5343 Y38.3884 
G01 X-50.4184 Y38.5043 
G01 X-50.2858 Y38.6007 
G01 X-50.1398 Y38.6751 
G01 X-49.9839 Y38.7258 
G01 X-49.8220 Y38.7514 
G01 X-49.6580 Y38.7514 
G01 X-49.4961 Y38.7258 
G01 X-49.3402 Y38.6751 
G01 X-49.1942 Y38.6007 
G01 X-49.0616 Y38.5043 
G01 X-48.9457 Y38.3884 
G01 X-48.8493 Y38.2558 
G01 X-48.7749 Y38.1098 
G01 X-48.7242 Y37.9539 
G01 X-48.6986 Y37.7920 
G01 X-48.6986 Y37.6280 
G01 X-48.7242 Y37.4661 
G01 X-48.7749 Y37.3102 
G01 X-48.8493 Y37.1642 
G01 X-48.9457 Y37.0316 
G00 Z2.0000 
G00 X-48.9442 Y41.4541 
G01 Z0.0000 F254.00 
G01 X-49.1010 Y41.3743 F508.00 
G01 X-49.2683 Y41.3199 
G01 X-49.4420 Y41.2924 
G01 X-49.6180 Y41.2924 
G01 X-49.7917 Y41.3199 
G01 X-49.9590 Y41.3743 
G01 X-50.1157 Y41.4541 
G01 X-50.2581 Y41.5575 
G01 X-50.3825 Y41.6819 
G01 X-50.4859 Y41.8242 
G01 X-50.5657 Y41.9810 
G01 X-50.6201 Y42.1483 
G01 X-50.6476 Y42.3220 
G01 X-50.6476 Y42.4980 
G01 X-50.6201 Y42.6717 
G01 X-50.5657 Y42.8390 
G01 X-50.4859 Y42.9957 
G01 X-50.3825 Y43.1381 
G01 X-50.2581 Y43.2625 
G01 X-50.1157 Y43.3659 
G01 X-49.9590 Y43.4457 
G01 X-49.8856 Y43.4696 
G01 X-49.8856 Y44.1156 
G01 X-49.9631 Y44.1477 
G01 X-50.1129 Y44.2477 
G01 X-50.2403 Y44.3751 
G01 X-50.3403 Y44.5249 
G01 X-50.4093 Y44.6913 
G01 X-50.4444 Y44.8679 
G01 X-50.4444 Y46.5721 
G01 X-50.4093 Y46.7487 
G01 X-50.3403 Y46.9151 
G01 X-50.2403 Y47.0649 
G01 X-50.1129 Y47.1923 
G01 X-49.9631 Y47.2923 
G01 X-49.7967 Y47.3613 
G01 X-49.6201 Y47.3964 
G01 X-49.4399 Y47.3964 
G01 X-49.2633 Y47.3613 
G01 X-49.0969 Y47.2923 
G01 X-48.9471 Y47.1923 
G01 X-48.8197 Y47.0649 
G01 X-48.7197 Y46.9151 
G01 X-48.6507 Y46.7487 
G01 X-48.6156 Y46.5721 
G01 X-48.6156 Y44.8679 
G01 X-48.6507 Y44.6913 
G01 X-48.7197 Y44.5249 
G01 X-48.8197 Y44.3751 
G01 X-48.9471 Y44.2477 
G01 X-49.0969 Y44.1477 
G01 X-49.1744 Y44.1156 
G01 X-49.1744 Y43.4696 
G01 X-49.1010 Y43.4457 
G01 X-48.9442 Y43.3659 
G01 X-48.8019 Y43.2625 
G01 X-48.6775 Y43.1381 
G01 X-48.5741 Y42.9957 
G01 X-48.4943 Y42.8390 
G01 X-48.4399 Y42.6717 
G01 X-48.4124 Y42.4980 
G01 X-48.4124 Y42.3220 
G01 X-48.4399 Y42.1483 
G01 X-48.4943 Y41.9810 
G01 X-48.5741 Y41.8242 
G01 X-48.6775 Y41.6819 
G01 X-48.8019 Y41.5575 
G01 X-48.9442 Y41.4541 
G00 Z2.0000 
G00 X-47.7181 Y41.5575 
G01 Z0.0000 F254.00 
G01 X-47.8425 Y41.6819 F508.00 
G01 X-47.9459 Y41.8242 
G01 X-48.0257 Y41.9810 
G01 X-48.0801 Y42.1483 
G01 X-48.1076 Y42.3220 
G01 X-48.1076 Y42.4980 
G01 X-48.0801 Y42.6717 
G01 X-48.0257 Y42.8390 
G01 X-47.9459 Y42.9957 
G01 X-47.8425 Y43.1381 
G01 X-47.7181 Y43.2625 
G01 X-47.5757 Y43.3659 
G01 X-47.4190 Y43.4457 
G01 X-47.3456 Y43.4696 
G01 X-47.3456 Y44.1156 
G01 X-47.4231 Y44.1477 
G01 X-47.5729 Y44.2477 
G01 X-47.7003 Y44.3751 
G01 X-47.8003 Y44.5249 
G01 X-47.8693 Y44.6913 
G01 X-47.9044 Y44.8679 
G01 X-47.9044 Y46.5721 
G01 X-47.8693 Y46.7487 
G01 X-47.8003 Y46.9151 
G01 X-47.7003 Y47.0649 
G01 X-47.5729 Y47.1923 
G01 X-47.4231 Y47.2923 
G01 X-47.2567 Y47.3613 
G01 X-47.0801 Y47.3964 
G01 X-46.8999 Y47.3964 
G01 X-46.7233 Y47.3613 
G01 X-46.5569 Y47.2923 
G01 X-46.4071 Y47.1923 
G01 X-46.2797 Y47.0649 
G01 X-46.1797 Y46.9151 
G01 X-46.1107 Y46.7487 
G01 X-46.0756 Y46.5721 
G01 X-46.0756 Y44.8679 
G01 X-46.1107 Y44.6913 
G01 X-46.1797 Y44.5249 
G01 X-46.2797 Y44.3751 
G01 X-46.4071 Y44.2477 
G01 X-46.5569 Y44.1477 
G01 X-46.6344 Y44.1156 
G01 X-46.6344 Y43.4696 
G01 X-46.5610 Y43.4457 
G01 X-46.4042 Y43.3659 
G01 X-46.2619 Y43.2625 
G01 X-46.1375 Y43.1381 
G01 X-46.0341 Y42.9957 
G01 X-45.9543 Y42.8390 
G01 X-45.8999 Y42.6717 
G01 X-45.8724 Y42.4980 
G01 X-45.8724 Y42.3220 
G01 X-45.8999 Y42.1483 
G01 X-45.9543 Y41.9810 
G01 X-46.0341 Y41.8242 
G01 X-46.1375 Y41.6819 
G01 X-46.2619 Y41.5575 
G01 X-46.4042 Y41.4541 
G01 X-46.5610 Y41.3743 
G01 X-46.7283 Y41.3199 
G01 X-46.9020 Y41.2924 
G01 X-47.0780 Y41.2924 
G01 X-47.2517 Y41.3199 
G01 X-47.4190 Y41.3743 
G01 X-47.5757 Y41.4541 
G01 X-47.7181 Y41.5575 
G00 Z2.0000 
G00 X-45.1781 Y41.5575 
G01 Z0.0000 F254.00 
G01 X-45.3025 Y41.6819 F508.00 
G01 X-45.4059 Y41.8242 
G01 X-45.4857 Y41.9810 
G01 X-45.5401 Y42.1483 
G01 X-45.5676 Y42.3220 
G01 X-45.5676 Y42.4980 
G01 X-45.5401 Y42.6717 
G01 X-45.4857 Y42.8390 
G01 X-45.4059 Y42.9957 
G01 X-45.3025 Y43.1381 
G01 X-45.1781 Y43.2625 
G01 X-45.0357 Y43.3659 
G01 X-44.8790 Y43.4457 
G01 X-44.8056 Y43.4696 
G01 X-44.8056 Y44.1156 
G01 X-44.8831 Y44.1477 
G01 X-45.0329 Y44.2477 
G01 X-45.1603 Y44.3751 
G01 X-45.2603 Y44.5249 
G01 X-45.3293 Y44.6913 
G01 X-45.3644 Y44.8679 
G01 X-45.3644 Y46.5721 
G01 X-45.3293 Y46.7487 
G01 X-45.2603 Y46.9151 
G01 X-45.1603 Y47.0649 
G01 X-45.0329 Y47.1923 
G01 X-44.8831 Y47.2923 
G01 X-44.7167 Y47.3613 
G01 X-44.5401 Y47.3964 
G01 X-44.3599 Y47.3964 
G01 X-44.1833 Y47.3613 
G01 X-44.0169 Y47.2923 
G01 X-43.8671 Y47.1923 
G01 X-43.7397 Y47.0649 
G01 X-43.6397 Y46.9151 
G01 X-43.5707 Y46.7487 
G01 X-43.5356 Y46.5721 
G01 X-43.5356 Y44.8679 
G01 X-43.5707 Y44.6913 
G01 X-43.6397 Y44.5249 
G01 X-43.7397 Y44.3751 
G01 X-43.8671 Y44.2477 
G01 X-44.0169 Y44.1477 
G01 X-44.0944 Y44.1156 
G01 X-44.0944 Y43.4696 
G01 X-44.0210 Y43.4457 
G01 X-43.8642 Y43.3659 
G01 X-43.7219 Y43.2625 
G01 X-43.5975 Y43.1381 
G01 X-43.4941 Y42.9957 
G01 X-43.4143 Y42.8390 
G01 X-43.3599 Y42.6717 
G01 X-43.3324 Y42.4980 
G01 X-43.3324 Y42.3220 
G01 X-43.3599 Y42.1483 
G01 X-43.4143 Y41.9810 
G01 X-43.4941 Y41.8242 
G01 X-43.5975 Y41.6819 
G01 X-43.7219 Y41.5575 
G01 X-43.8642 Y41.4541 
G01 X-44.0210 Y41.3743 
G01 X-44.1883 Y41.3199 
G01 X-44.3620 Y41.2924 
G01 X-44.5380 Y41.2924 
G01 X-44.7117 Y41.3199 
G01 X-44.8790 Y41.3743 
G01 X-45.0357 Y41.4541 
G01 X-45.1781 Y41.5575 
G00 Z2.0000 
G00 X-40.0981 Y41.5575 
G01 Z0.0000 F254.00 
G01 X-40.2225 Y41.6819 F508.00 
G01 X-40.3259 Y41.8242 
G01 X-40.4057 Y41.9810 
G01 X-40.4601 Y42.1483 
G01 X-40.4876 Y42.3220 
G01 X-40.4876 Y42.4980 
G01 X-40.4601 Y42.6717 
G01 X-40.4057 Y42.8390 
G01 X-40.3259 Y42.9957 
G01 X-40.2225 Y43.1381 
G01 X-40.0981 Y43.2625 
G01 X-39.9557 Y43.3659 
G01 X-39.7990 Y43.4457 
G01 X-39.7256 Y43.4696 
G01 X-39.7256 Y44.1156 
G01 X-39.8031 Y44.1477 
G01 X-39.9529 Y44.2477 
G01 X-40.0803 Y44.3751 
G01 X-40.1803 Y44.5249 
G01 X-40.2493 Y44.6913 
G01 X-40.2844 Y44.8679 
G01 X-40.2844 Y46.5721 
G01 X-40.2493 Y46.7487 
G01 X-40.1803 Y46.9151 
G01 X-40.0803 Y47.0649 
G01 X-39.9529 Y47.1923 
G01 X-39.8031 Y47.2923 
G01 X-39.6367 Y47.3613 
G01 X-39.4601 Y47.3964 
G01 X-39.2799 Y47.3964 
G01 X-39.1033 Y47.3613 
G01 X-38.9369 Y47.2923 
G01 X-38.7871 Y47.1923 
G01 X-38.6597 Y47.0649 
G01 X-38.5597 Y46.9151 
G01 X-38.4907 Y46.7487 
G01 X-38.4556 Y46.5721 
G01 X-38.4556 Y44.8679 
G01 X-38.4907 Y44.6913 
G01 X-38.5597 Y44.5249 
G01 X-38.6597 Y44.3751 
G01 X-38.7871 Y44.2477 
G01 X-38.9369 Y44.1477 
G01 X-39.0144 Y44.1156 
G01 X-39.0144 Y43.4696 
G01 X-38.9410 Y43.4457 
G01 X-38.7843 Y43.3659 
G01 X-38.6419 Y43.2625 
G01 X-38.5175 Y43.1381 
G01 X-38.4141 Y42.9957 
G01 X-38.3343 Y42.8390 
G01 X-38.3104 Y42.7656 
G01 X-37.8896 Y42.7656 
G01 X-37.8657 Y42.8390 
G01 X-37.7859 Y42.9957 
G01 X-37.6825 Y43.1381 
G01 X-37.5581 Y43.2625 
G01 X-37.4157 Y43.3659 
G01 X-37.2590 Y43.4457 
G01 X-37.1856 Y43.4696 
G01 X-37.1856 Y44.1156 
G01 X-37.2631 Y44.1477 
G01 X-37.4129 Y44.2477 
G01 X-37.5403 Y44.3751 
G01 X-37.6403 Y44.5249 
G01 X-37.7093 Y44.6913 
G01 X-37.7444 Y44.8679 
G01 X-37.7444 Y46.5721 
G01 X-37.7093 Y46.7487 
G01 X-37.6403 Y46.9151 
G01 X-37.5403 Y47.0649 
G01 X-37.4129 Y47.1923 
G01 X-37.2631 Y47.2923 
G01 X-37.0967 Y47.3613 
G01 X-36.9201 Y47.3964 
G01 X-36.7399 Y47.3964 
G01 X-36.5633 Y47.3613 
G01 X-36.3969 Y47.2923 
G01 X-36.2471 Y47.1923 
G01 X-36.1197 Y47.0649 
G01 X-36.0197 Y46.9151 
G01 X-35.9507 Y46.7487 
G01 X-35.9156 Y46.5721 
G01 X-35.9156 Y44.8679 
G01 X-35.9507 Y44.6913 
G01 X-36.0197 Y44.5249 
G01 X-36.1197 Y44.3751 
G01 X-36.2471 Y44.2477 
G01 X-36.3969 Y44.1477 
G01 X-36.4744 Y44.1156 
G01 X-36.4744 Y43.4696 
G01 X-36.4010 Y43.4457 
G01 X-36.2443 Y43.3659 
G01 X-36.1019 Y43.2625 
G01 X-35.9775 Y43.1381 
G01 X-35.8741 Y42.9957 
G01 X-35.7943 Y42.8390 
G01 X-35.7399 Y42.6717 
G01 X-35.7124 Y42.4980 
G01 X-35.7124 Y42.3220 
G01 X-35.7399 Y42.1483 
G01 X-35.7943 Y41.9810 
G01 X-35.8741 Y41.8242 
G01 X-35.9775 Y41.6819 
G01 X-36.1019 Y41.5575 
G01 X-36.2443 Y41.4541 
G01 X-36.4010 Y41.3743 
G01 X-36.5683 Y41.3199 
G01 X-36.7420 Y41.2924 
G01 X-36.9180 Y41.2924 
G01 X-37.0917 Y41.3199 
G01 X-37.2590 Y41.3743 
G01 X-37.4157 Y41.4541 
G01 X-37.5581 Y41.5575 
G01 X-37.6825 Y41.6819 
G01 X-37.7859 Y41.8242 
G01 X-37.8657 Y41.9810 
G01 X-37.8896 Y42.0544 
G01 X-38.3104 Y42.0544 
G01 X-38.3343 Y41.9810 
G01 X-38.4141 Y41.8242 
G01 X-38.5175 Y41.6819 
G01 X-38.6419 Y41.5575 
G01 X-38.7843 Y41.4541 
G01 X-38.9410 Y41.3743 
G01 X-39.0144 Y41.3504 
G01 X-39.0144 Y39.1596 
G01 X-38.9410 Y39.1357 
G01 X-38.7843 Y39.0559 
G01 X-38.6419 Y38.9525 
G01 X-38.5175 Y38.8281 
G01 X-38.4141 Y38.6857 
G01 X-38.3343 Y38.5290 
G01 X-38.2799 Y38.3617 
G01 X-38.2524 Y38.1880 
G01 X-38.2524 Y38.0120 
G01 X-38.2799 Y37.8383 
G01 X-38.3343 Y37.6710 
G01 X-38.4141 Y37.5142 
G01 X-38.5175 Y37.3719 
G01 X-38.6419 Y37.2475 
G01 X-38.7843 Y37.1441 
G01 X-38.9410 Y37.0643 
G01 X-39.1083 Y37.0099 
G01 X-39.2820 Y36.9824 
G01 X-39.4580 Y36.9824 
G01 X-39.6317 Y37.0099 
G01 X-39.7990 Y37.0643 
G01 X-39.9557 Y37.1441 
G01 X-40.0981 Y37.2475 
G01 X-40.2225 Y37.3719 
G01 X-40.3259 Y37.5142 
G01 X-40.4057 Y37.6710 
G01 X-40.4601 Y37.8383 
G01 X-40.4876 Y38.0120 
G01 X-40.4876 Y38.1880 
G01 X-40.4601 Y38.3617 
G01 X-40.4057 Y38.5290 
G01 X-40.3259 Y38.6857 
G01 X-40.2225 Y38.8281 
G01 X-40.0981 Y38.9525 
G01 X-39.9557 Y39.0559 
G01 X-39.7990 Y39.1357 
G01 X-39.7256 Y39.1596 
G01 X-39.7256 Y41.3504 
G01 X-39.7990 Y41.3743 
G01 X-39.9557 Y41.4541 
G01 X-40.0981 Y41.5575 
G00 Z2.0000 
G00 X-35.0181 Y41.5575 
G01 Z0.0000 F254.00 
G01 X-35.1425 Y41.6819 F508.00 
G01 X-35.2459 Y41.8242 
G01 X-35.3257 Y41.9810 
G01 X-35.3801 Y42.1483 
G01 X-35.4076 Y42.3220 
G01 X-35.4076 Y42.4980 
G01 X-35.3801 Y42.6717 
G01 X-35.3257 Y42.8390 
G01 X-35.2459 Y42.9957 
G01 X-35.1425 Y43.1381 
G01 X-35.0181 Y43.2625 
G01 X-34.8757 Y43.3659 
G01 X-34.7190 Y43.4457 
G01 X-34.6456 Y43.4696 
G01 X-34.6456 Y44.1156 
G01 X-34.7231 Y44.1477 
G01 X-34.8729 Y44.2477 
G01 X-35.0003 Y44.3751 
G01 X-35.1003 Y44.5249 
G01 X-35.1693 Y44.6913 
G01 X-35.2044 Y44.8679 
G01 X-35.2044 Y46.5721 
G01 X-35.1693 Y46.7487 
G01 X-35.1003 Y46.9151 
G01 X-35.0003 Y47.0649 
G01 X-34.8729 Y47.1923 
G01 X-34.7231 Y47.2923 
G01 X-34.5567 Y47.3613 
G01 X-34.3801 Y47.3964 
G01 X-34.1999 Y47.3964 
G01 X-34.0233 Y47.3613 
G01 X-33.8569 Y47.2923 
G01 X-33.7071 Y47.1923 
G01 X-33.5797 Y47.0649 
G01 X-33.4797 Y46.9151 
G01 X-33.4107 Y46.7487 
G01 X-33.3756 Y46.5721 
G01 X-33.3756 Y44.8679 
G01 X-33.4107 Y44.6913 
G01 X-33.4797 Y44.5249 
G01 X-33.5797 Y44.3751 
G01 X-33.7071 Y44.2477 
G01 X-33.8569 Y44.1477 
G01 X-33.9344 Y44.1156 
G01 X-33.9344 Y43.4696 
G01 X-33.8610 Y43.4457 
G01 X-33.7043 Y43.3659 
G01 X-33.5619 Y43.2625 
G01 X-33.4375 Y43.1381 
G01 X-33.3341 Y42.9957 
G01 X-33.2543 Y42.8390 
G01 X-33.1999 Y42.6717 
G01 X-33.1724 Y42.4980 
G01 X-33.1724 Y42.3220 
G01 X-33.1999 Y42.1483 
G01 X-33.2543 Y41.9810 
G01 X-33.3341 Y41.8242 
G01 X-33.4375 Y41.6819 
G01 X-33.5619 Y41.5575 
G01 X-33.7043 Y41.4541 
G01 X-33.8610 Y41.3743 
G01 X-34.0283 Y41.3199 
G01 X-34.2020 Y41.2924 
G01 X-34.3780 Y41.2924 
G01 X-34.5517 Y41.3199 
G01 X-34.7190 Y41.3743 
G01 X-34.8757 Y41.4541 
G01 X-35.0181 Y41.5575 
G00 Z2.0000 
G00 X-32.4781 Y41.5575 
G01 Z0.0000 F254.00 
G01 X-32.6025 Y41.6819 F508.00 
G01 X-32.7059 Y41.8242 
G01 X-32.7857 Y41.9810 
G01 X-32.8401 Y42.1483 
G01 X-32.8676 Y42.3220 
G01 X-32.8676 Y42.4980 
G01 X-32.8401 Y42.6717 
G01 X-32.7857 Y42.8390 
G01 X-32.7059 Y42.9957 
G01 X-32.6025 Y43.1381 
G01 X-32.4781 Y43.2625 
G01 X-32.3357 Y43.3659 
G01 X-32.1790 Y43.4457 
G01 X-32.1056 Y43.4696 
G01 X-32.1056 Y44.1156 
G01 X-32.1831 Y44.1477 
G01 X-32.3329 Y44.2477 
G01 X-32.4603 Y44.3751 
G01 X-32.5603 Y44.5249 
G01 X-32.6293 Y44.6913 
G01 X-32.6644 Y44.8679 
G01 X-32.6644 Y46.5721 
G01 X-32.6293 Y46.7487 
G01 X-32.5603 Y46.9151 
G01 X-32.4603 Y47.0649 
G01 X-32.3329 Y47.1923 
G01 X-32.1831 Y47.2923 
G01 X-32.0167 Y47.3613 
G01 X-31.8401 Y47.3964 
G01 X-31.6599 Y47.3964 
G01 X-31.4833 Y47.3613 
G01 X-31.3169 Y47.2923 
G01 X-31.1671 Y47.1923 
G01 X-31.0397 Y47.0649 
G01 X-30.9397 Y46.9151 
G01 X-30.8707 Y46.7487 
G01 X-30.8356 Y46.5721 
G01 X-30.8356 Y44.8679 
G01 X-30.8707 Y44.6913 
G01 X-30.9397 Y44.5249 
G01 X-31.0397 Y44.3751 
G01 X-31.1671 Y44.2477 
G01 X-31.3169 Y44.1477 
G01 X-31.3944 Y44.1156 
G01 X-31.3944 Y43.4696 
G01 X-31.3210 Y43.4457 
G01 X-31.1642 Y43.3659 
G01 X-31.0219 Y43.2625 
G01 X-30.8975 Y43.1381 
G01 X-30.7941 Y42.9957 
G01 X-30.7143 Y42.8390 
G01 X-30.6599 Y42.6717 
G01 X-30.6324 Y42.4980 
G01 X-30.6324 Y42.3220 
G01 X-30.6599 Y42.1483 
G01 X-30.7143 Y41.9810 
G01 X-30.7941 Y41.8242 
G01 X-30.8975 Y41.6819 
G01 X-31.0219 Y41.5575 
G01 X-31.1642 Y41.4541 
G01 X-31.3210 Y41.3743 
G01 X-31.4883 Y41.3199 
G01 X-31.6620 Y41.2924 
G01 X-31.8380 Y41.2924 
G01 X-32.0117 Y41.3199 
G01 X-32.1790 Y41.3743 
G01 X-32.3357 Y41.4541 
G01 X-32.4781 Y41.5575 
G00 Z2.0000 
G00 X-27.3981 Y41.5575 
G01 Z0.0000 F254.00 
G01 X-27.5225 Y41.6819 F508.00 
G01 X-27.6259 Y41.8242 
G01 X-27.7057 Y41.9810 
G01 X-27.7601 Y42.1483 
G01 X-27.7876 Y42.3220 
G01 X-27.7876 Y42.4980 
G01 X-27.7601 Y42.6717 
G01 X-27.7057 Y42.8390 
G01 X-27.6259 Y42.9957 
G01 X-27.5225 Y43.1381 
G01 X-27.3981 Y43.2625 
G01 X-27.2557 Y43.3659 
G01 X-27.0990 Y43.4457 
G01 X-27.0256 Y43.4696 
G01 X-27.0256 Y44.1156 
G01 X-27.1031 Y44.1477 
G01 X-27.2529 Y44.2477 
G01 X-27.3803 Y44.3751 
G01 X-27.4803 Y44.5249 
G01 X-27.5493 Y44.6913 
G01 X-27.5844 Y44.8679 
G01 X-27.5844 Y46.5721 
G01 X-27.5493 Y46.7487 
G01 X-27.4803 Y46.9151 
G01 X-27.3803 Y47.0649 
G01 X-27.2529 Y47.1923 
G01 X-27.1031 Y47.2923 
G01 X-26.9367 Y47.3613 
G01 X-26.7601 Y47.3964 
G01 X-26.5799 Y47.3964 
G01 X-26.4033 Y47.3613 
G01 X-26.2369 Y47.2923 
G01 X-26.0871 Y47.1923 
G01 X-25.9597 Y47.0649 
G01 X-25.8597 Y46.9151 
G01 X-25.7907 Y46.7487 
G01 X-25.7556 Y46.5721 
G01 X-25.7556 Y44.8679 
G01 X-25.7907 Y44.6913 
G01 X-25.8597 Y44.5249 
G01 X-25.9597 Y44.3751 
G01 X-26.0871 Y44.2477 
G01 X-26.2369 Y44.1477 
G01 X-26.3144 Y44.1156 
G01 X-26.3144 Y43.4696 
G01 X-26.2410 Y43.4457 
G01 X-26.0843 Y43.3659 
G01 X-25.9419 Y43.2625 
G01 X-25.8175 Y43.1381 
G01 X-25.7141 Y42.9957 
G01 X-25.6343 Y42.8390 
G01 X-25.5799 Y42.6717 
G01 X-25.5524 Y42.4980 
G01 X-25.5524 Y42.3220 
G01 X-25.5799 Y42.1483 
G01 X-25.6343 Y41.9810 
G01 X-25.7141 Y41.8242 
G01 X-25.8175 Y41.6819 
G01 X-25.9419 Y41.5575 
G01 X-26.0843 Y41.4541 
G01 X-26.2410 Y41.3743 
G01 X-26.4083 Y41.3199 
G01 X-26.5820 Y41.2924 
G01 X-26.7580 Y41.2924 
G01 X-26.9317 Y41.3199 
G01 X-27.0990 Y41.3743 
G01 X-27.2557 Y41.4541 
G01 X-27.3981 Y41.5575 
G00 Z2.0000 
G00 X-24.8581 Y41.5575 
G01 Z0.0000 F254.00 
G01 X-24.9825 Y41.6819 F508.00 
G01 X-25.0859 Y41.8242 
G01 X-25.1657 Y41.9810 
G01 X-25.2201 Y42.1483 
G01 X-25.2476 Y42.3220 
G01 X-25.2476 Y42.4980 
G01 X-25.2201 Y42.6717 
G01 X-25.1657 Y42.8390 
G01 X-25.0859 Y42.9957 
G01 X-24.9825 Y43.1381 
G01 X-24.8581 Y43.2625 
G01 X-24.7157 Y43.3659 
G01 X-24.5590 Y43.4457 
G01 X-24.4856 Y43.4696 
G01 X-24.4856 Y44.1156 
G01 X-24.5631 Y44.1477 
G01 X-24.7129 Y44.2477 
G01 X-24.8403 Y44.3751 
G01 X-24.9403 Y44.5249 
G01 X-25.0093 Y44.6913 
G01 X-25.0444 Y44.8679 
G01 X-25.0444 Y46.5721 
G01 X-25.0093 Y46.7487 
G01 X-24.9403 Y46.9151 
G01 X-24.8403 Y47.0649 
G01 X-24.7129 Y47.1923 
G01 X-24.5631 Y47.2923 
G01 X-24.3967 Y47.3613 
G01 X-24.2201 Y47.3964 
G01 X-24.0399 Y47.3964 
G01 X-23.8633 Y47.3613 
G01 X-23.6969 Y47.2923 
G01 X-23.5471 Y47.1923 
G01 X-23.4197 Y47.0649 
G01 X-23.3197 Y46.9151 
G01 X-23.2507 Y46.7487 
G01 X-23.2156 Y46.5721 
G01 X-23.2156 Y44.8679 
G01 X-23.2507 Y44.6913 
G01 X-23.3197 Y44.5249 
G01 X-23.4197 Y44.3751 
G01 X-23.5471 Y44.2477 
G01 X-23.6969 Y44.1477 
G01 X-23.7744 Y44.1156 
G01 X-23.7744 Y43.4696 
G01 X-23.7010 Y43.4457 
G01 X-23.5443 Y43.3659 
G01 X-23.4019 Y43.2625 
G01 X-23.2775 Y43.1381 
G01 X-23.1741 Y42.9957 
G01 X-23.0943 Y42.8390 
G01 X-23.0399 Y42.6717 
G01 X-23.0124 Y42.4980 
G01 X-23.0124 Y42.3220 
G01 X-23.0399 Y42.1483 
G01 X-23.0943 Y41.9810 
G01 X-23.1741 Y41.8242 
G01 X-23.2775 Y41.6819 
G01 X-23.4019 Y41.5575 
G01 X-23.5443 Y41.4541 
G01 X-23.7010 Y41.3743 
G01 X-23.8683 Y41.3199 
G01 X-24.0420 Y41.2924 
G01 X-24.2180 Y41.2924 
G01 X-24.3917 Y41.3199 
G01 X-24.5590 Y41.3743 
G01 X-24.7157 Y41.4541 
G01 X-24.8581 Y41.5575 
G00 Z2.0000 
G00 X-19.7781 Y41.5575 
G01 Z0.0000 F254.00 
G01 X-19.9025 Y41.6819 F508.00 
G01 X-20.0059 Y41.8242 
G01 X-20.0857 Y41.9810 
G01 X-20.1401 Y42.1483 
G01 X-20.1676 Y42.3220 
G01 X-20.1676 Y42.4980 
G01 X-20.1401 Y42.6717 
G01 X-20.0857 Y42.8390 
G01 X-20.0059 Y42.9957 
G01 X-19.9025 Y43.1381 
G01 X-19.7781 Y43.2625 
G01 X-19.6357 Y43.3659 
G01 X-19.4790 Y43.4457 
G01 X-19.4056 Y43.4696 
G01 X-19.4056 Y44.1156 
G01 X-19.4831 Y44.1477 
G01 X-19.6329 Y44.2477 
G01 X-19.7603 Y44.3751 
G01 X-19.8603 Y44.5249 
G01 X-19.9293 Y44.6913 
G01 X-19.9644 Y44.8679 
G01 X-19.9644 Y46.5721 
G01 X-19.9293 Y46.7487 
G01 X-19.8603 Y46.9151 
G01 X-19.7603 Y47.0649 
G01 X-19.6329 Y47.1923 
G01 X-19.4831 Y47.2923 
G01 X-19.3167 Y47.3613 
G01 X-19.1401 Y47.3964 
G01 X-18.9599 Y47.3964 
G01 X-18.7833 Y47.3613 
G01 X-18.6169 Y47.2923 
G01 X-18.4671 Y47.1923 
G01 X-18.3397 Y47.0649 
G01 X-18.2397 Y46.9151 
G01 X-18.1707 Y46.7487 
G01 X-18.1356 Y46.5721 
G01 X-18.1356 Y44.8679 
G01 X-18.1707 Y44.6913 
G01 X-18.2397 Y44.5249 
G01 X-18.3397 Y44.3751 
G01 X-18.4671 Y44.2477 
G01 X-18.6169 Y44.1477 
G01 X-18.6944 Y44.1156 
G01 X-18.6944 Y43.4696 
G01 X-18.6210 Y43.4457 
G01 X-18.4642 Y43.3659 
G01 X-18.3219 Y43.2625 
G01 X-18.1975 Y43.1381 
G01 X-18.0941 Y42.9957 
G01 X-18.0143 Y42.8390 
G01 X-17.9599 Y42.6717 
G01 X-17.9324 Y42.4980 
G01 X-17.9324 Y42.3220 
G01 X-17.9599 Y42.1483 
G01 X-18.0143 Y41.9810 
G01 X-18.0941 Y41.8242 
G01 X-18.1975 Y41.6819 
G01 X-18.3219 Y41.5575 
G01 X-18.4642 Y41.4541 
G01 X-18.6210 Y41.3743 
G01 X-18.6944 Y41.3504 
G01 X-18.6944 Y40.4296 
G01 X-18.6210 Y40.4057 
G01 X-18.4642 Y40.3259 
G01 X-18.3219 Y40.2225 
G01 X-18.1975 Y40.0981 
G01 X-18.0941 Y39.9557 
G01 X-18.0143 Y39.7990 
G01 X-17.9599 Y39.6317 
G01 X-17.9324 Y39.4580 
G01 X-17.9324 Y39.2820 
G01 X-17.9599 Y39.1083 
G01 X-18.0143 Y38.9410 
G01 X-18.0941 Y38.7843 
G01 X-18.1975 Y38.6419 
G01 X-18.3219 Y38.5175 
G01 X-18.4642 Y38.4141 
G01 X-18.6210 Y38.3343 
G01 X-18.7883 Y38.2799 
G01 X-18.9620 Y38.2524 
G01 X-19.1380 Y38.2524 
G01 X-19.3117 Y38.2799 
G01 X-19.4790 Y38.3343 
G01 X-19.6357 Y38.4141 
G01 X-19.7781 Y38.5175 
G01 X-19.9025 Y38.6419 
G01 X-20.0059 Y38.7843 
G01 X-20.0857 Y38.9410 
G01 X-20.1401 Y39.1083 
G01 X-20.1676 Y39.2820 
G01 X-20.1676 Y39.4580 
G01 X-20.1401 Y39.6317 
G01 X-20.0857 Y39.7990 
G01 X-20.0059 Y39.9557 
G01 X-19.9025 Y40.0981 
G01 X-19.7781 Y40.2225 
G01 X-19.6357 Y40.3259 
G01 X-19.4790 Y40.4057 
G01 X-19.4056 Y40.4296 
G01 X-19.4056 Y41.3504 
G01 X-19.4790 Y41.3743 
G01 X-19.6357 Y41.4541 
G01 X-19.7781 Y41.5575 
G00 Z2.0000 
G00 X-19.8251 Y33.2236 
G01 Z0.0000 F254.00 
G01 X-19.6549 Y33.2236 F508.00 
G01 X-19.4881 Y33.1904 
G01 X-19.3309 Y33.1253 
G01 X-19.1895 Y33.0308 
G01 X-19.0692 Y32.9105 
G01 X-18.9747 Y32.7691 
G01 X-18.9525 Y32.7156 
G01 X-11.3832 Y32.7156 
G01 X-11.2927 Y32.6914 
G01 X-11.2117 Y32.6445 
G01 X-11.1455 Y32.5783 
G01 X-11.0986 Y32.4973 
G01 X-11.0744 Y32.4068 
G01 X-11.0744 Y29.5656 
G01 X-7.5732 Y29.5656 
G01 X-7.4827 Y29.5414 
G01 X-7.4017 Y29.4945 
G01 X-7.3354 Y29.4283 
G01 X-7.2886 Y29.3473 
G01 X-7.2644 Y29.2568 
G01 X-7.2644 Y27.4902 
G01 X-7.1585 Y27.4194 
G01 X-7.0206 Y27.2815 
G01 X-6.9121 Y27.1192 
G01 X-6.8375 Y26.9389 
G01 X-6.7994 Y26.7476 
G01 X-6.7994 Y26.5524 
G01 X-6.8375 Y26.3610 
G01 X-6.9121 Y26.1808 
G01 X-7.0206 Y26.0185 
G01 X-7.1585 Y25.8805 
G01 X-7.3208 Y25.7721 
G01 X-7.5011 Y25.6975 
G01 X-7.6924 Y25.6594 
G01 X-7.8876 Y25.6594 
G01 X-8.0789 Y25.6975 
G01 X-8.2592 Y25.7721 
G01 X-8.4215 Y25.8805 
G01 X-8.5594 Y26.0185 
G01 X-8.6679 Y26.1808 
G01 X-8.7425 Y26.3610 
G01 X-8.7806 Y26.5524 
G01 X-8.7806 Y26.7476 
G01 X-8.7425 Y26.9389 
G01 X-8.6679 Y27.1192 
G01 X-8.5594 Y27.2815 
G01 X-8.4215 Y27.4194 
G01 X-8.2592 Y27.5279 
G01 X-8.0789 Y27.6025 
G01 X-7.9756 Y27.6231 
G01 X-7.9756 Y28.8544 
G01 X-11.4768 Y28.8544 
G01 X-11.5673 Y28.8786 
G01 X-11.6483 Y28.9255 
G01 X-11.7145 Y28.9917 
G01 X-11.7614 Y29.0727 
G01 X-11.7856 Y29.1632 
G01 X-11.7856 Y32.0044 
G01 X-18.9525 Y32.0044 
G01 X-18.9747 Y31.9509 
G01 X-19.0692 Y31.8095 
G01 X-19.1895 Y31.6892 
G01 X-19.3309 Y31.5947 
G01 X-19.4881 Y31.5296 
G01 X-19.6549 Y31.4964 
G01 X-19.8251 Y31.4964 
G01 X-19.9919 Y31.5296 
G01 X-20.1491 Y31.5947 
G01 X-20.2905 Y31.6892 
G01 X-20.4108 Y31.8095 
G01 X-20.5053 Y31.9509 
G01 X-20.5704 Y32.1081 
G01 X-20.6036 Y32.2749 
G01 X-20.6036 Y32.4451 
G01 X-20.5704 Y32.6119 
G01 X-20.5053 Y32.7691 
G01 X-20.4108 Y32.9105 
G01 X-20.2905 Y33.0308 
G01 X-20.1491 Y33.1253 
G01 X-19.9919 Y33.1904 
G01 X-19.8251 Y33.2236 
G00 Z2.0000 
G00 X-19.8251 Y31.2236 
G01 Z0.0000 F254.00 
G01 X-19.6549 Y31.2236 F508.00 
G01 X-19.4881 Y31.1904 
G01 X-19.3309 Y31.1253 
G01 X-19.1895 Y31.0308 
G01 X-19.0692 Y30.9105 
G01 X-19.0191 Y30.8356 
G01 X-16.4632 Y30.8356 
G01 X-16.3727 Y30.8114 
G01 X-16.2917 Y30.7645 
G01 X-16.2254 Y30.6983 
G01 X-16.1786 Y30.6173 
G01 X-16.1544 Y30.5268 
G01 X-16.1544 Y27.0056 
G01 X-10.7149 Y27.0056 
G01 X-10.6679 Y27.1192 
G01 X-10.5594 Y27.2815 
G01 X-10.4215 Y27.4194 
G01 X-10.2592 Y27.5279 
G01 X-10.0789 Y27.6025 
G01 X-9.8876 Y27.6406 
G01 X-9.6924 Y27.6406 
G01 X-9.5010 Y27.6025 
G01 X-9.3208 Y27.5279 
G01 X-9.1585 Y27.4194 
G01 X-9.0206 Y27.2815 
G01 X-8.9121 Y27.1192 
G01 X-8.8375 Y26.9389 
G01 X-8.7994 Y26.7476 
G01 X-8.7994 Y26.5524 
G01 X-8.8375 Y26.3610 
G01 X-8.9121 Y26.1808 
G01 X-9.0206 Y26.0185 
G01 X-9.1585 Y25.8805 
G01 X-9.3208 Y25.7721 
G01 X-9.5010 Y25.6975 
G01 X-9.6924 Y25.6594 
G01 X-9.8876 Y25.6594 
G01 X-10.0789 Y25.6975 
G01 X-10.2592 Y25.7721 
G01 X-10.4215 Y25.8805 
G01 X-10.5594 Y26.0185 
G01 X-10.6679 Y26.1808 
G01 X-10.7149 Y26.2944 
G01 X-16.5568 Y26.2944 
G01 X-16.6473 Y26.3186 
G01 X-16.7283 Y26.3654 
G01 X-16.7945 Y26.4317 
G01 X-16.8414 Y26.5127 
G01 X-16.8656 Y26.6032 
G01 X-16.8656 Y30.1244 
G01 X-18.9063 Y30.1244 
G01 X-18.9096 Y30.1081 
G01 X-18.9747 Y29.9509 
G01 X-19.0692 Y29.8095 
G01 X-19.1895 Y29.6892 
G01 X-19.3309 Y29.5947 
G01 X-19.4881 Y29.5296 
G01 X-19.6549 Y29.4964 
G01 X-19.8251 Y29.4964 
G01 X-19.9919 Y29.5296 
G01 X-20.1491 Y29.5947 
G01 X-20.2905 Y29.6892 
G01 X-20.4108 Y29.8095 
G01 X-20.5053 Y29.9509 
G01 X-20.5704 Y30.1081 
G01 X-20.6036 Y30.2749 
G01 X-20.6036 Y30.4451 
G01 X-20.5704 Y30.6119 
G01 X-20.5053 Y30.7691 
G01 X-20.4108 Y30.9105 
G01 X-20.2905 Y31.0308 
G01 X-20.1491 Y31.1253 
G01 X-19.9919 Y31.1904 
G01 X-19.8251 Y31.2236 
G00 Z2.0000 
G00 X-7.1374 Y31.2851 
G01 Z0.0000 F254.00 
G01 X-7.1374 Y31.5548 F508.00 
G01 X-7.1022 Y31.8222 
G01 X-7.0324 Y32.0827 
G01 X-6.9292 Y32.3319 
G01 X-6.7943 Y32.5655 
G01 X-6.6302 Y32.7794 
G01 X-6.4394 Y32.9702 
G01 X-6.2255 Y33.1343 
G01 X-5.9919 Y33.2692 
G01 X-5.7427 Y33.3724 
G01 X-5.4822 Y33.4422 
G01 X-5.2149 Y33.4774 
G01 X-4.9451 Y33.4774 
G01 X-4.6778 Y33.4422 
G01 X-4.4173 Y33.3724 
G01 X-4.1681 Y33.2692 
G01 X-3.9345 Y33.1343 
G01 X-3.7205 Y32.9702 
G01 X-3.5298 Y32.7794 
G01 X-3.3657 Y32.5655 
G01 X-3.2308 Y32.3319 
G01 X-3.1276 Y32.0827 
G01 X-3.0578 Y31.8222 
G01 X-3.0226 Y31.5548 
G01 X-3.0226 Y31.2851 
G01 X-3.0578 Y31.0178 
G01 X-3.1276 Y30.7572 
G01 X-3.2308 Y30.5081 
G01 X-3.3657 Y30.2745 
G01 X-3.5298 Y30.0605 
G01 X-3.7205 Y29.8698 
G01 X-3.9345 Y29.7057 
G01 X-4.1681 Y29.5708 
G01 X-4.4173 Y29.4676 
G01 X-4.6778 Y29.3978 
G01 X-4.9451 Y29.3626 
G01 X-5.2149 Y29.3626 
G01 X-5.4822 Y29.3978 
G01 X-5.7427 Y29.4676 
G01 X-5.9919 Y29.5708 
G01 X-6.2255 Y29.7057 
G01 X-6.4394 Y29.8698 
G01 X-6.6302 Y30.0605 
G01 X-6.7943 Y30.2745 
G01 X-6.9292 Y30.5081 
G01 X-7.0324 Y30.7572 
G01 X-7.1022 Y31.0178 
G01 X-7.1374 Y31.2851 
G00 Z2.0000 
G00 X-6.6302 Y20.7394 
G01 Z0.0000 F254.00 
G01 X-6.4394 Y20.9302 F508.00 
G01 X-6.2255 Y21.0943 
G01 X-5.9919 Y21.2292 
G01 X-5.7427 Y21.3324 
G01 X-5.4822 Y21.4022 
G01 X-5.2149 Y21.4374 
G01 X-4.9451 Y21.4374 
G01 X-4.6778 Y21.4022 
G01 X-4.4173 Y21.3324 
G01 X-4.1681 Y21.2292 
G01 X-3.9345 Y21.0943 
G01 X-3.7205 Y20.9302 
G01 X-3.5298 Y20.7394 
G01 X-3.3657 Y20.5255 
G01 X-3.2308 Y20.2919 
G01 X-3.1276 Y20.0427 
G01 X-3.0578 Y19.7822 
G01 X-3.0226 Y19.5148 
G01 X-3.0226 Y19.2451 
G01 X-3.0578 Y18.9778 
G01 X-3.1276 Y18.7172 
G01 X-3.2308 Y18.4681 
G01 X-3.3657 Y18.2345 
G01 X-3.5298 Y18.0206 
G01 X-3.7205 Y17.8298 
G01 X-3.9345 Y17.6657 
G01 X-4.1681 Y17.5308 
G01 X-4.4173 Y17.4276 
G01 X-4.6778 Y17.3578 
G01 X-4.9451 Y17.3226 
G01 X-5.2149 Y17.3226 
G01 X-5.4822 Y17.3578 
G01 X-5.7427 Y17.4276 
G01 X-5.9919 Y17.5308 
G01 X-6.2255 Y17.6657 
G01 X-6.4394 Y17.8298 
G01 X-6.6302 Y18.0206 
G01 X-6.7943 Y18.2345 
G01 X-6.9292 Y18.4681 
G01 X-7.0324 Y18.7172 
G01 X-7.1022 Y18.9778 
G01 X-7.1374 Y19.2451 
G01 X-7.1374 Y19.5148 
G01 X-7.1022 Y19.7822 
G01 X-7.0324 Y20.0427 
G01 X-6.9292 Y20.2919 
G01 X-6.7943 Y20.5255 
G01 X-6.6302 Y20.7394 
G00 Z2.0000 
G00 Z5.0000 
M05
M02
