(.../EAGLE-7.2.0/ulp/pcb-gcode.ulp)
(Copyright 2005 - 2012 by John Johnson)
(See readme.txt for licensing terms.)
(This file generated from the board:)
(.../espbreakoutprograming jig/espbreakoutprograming jig.brd)
(Current profile is .../pcb-gcode-3.6.2.4/profiles/emc.pp  )
(This file generated 15-11-2015 10:51:36)
(Settings from pcb-machine.h)
(spindle on time = 3.0000)
(spindle speed = 20000.0000)
(tool change at 0.0000 0.0000 5.0000 )
(feed rate xy = F0.00  )
(feed rate z  = F508.00 )
(Z Axis Settings)
(  High     Up        Down     Drill)
(5.0000 	2.0000 	0.0000 	-1.6000 )
(Settings from pcb-defaults.h)
(isolate min = 0.0254)
(isolate max = 0.5080)
(isolate step = 0.1270)
(Generated bottom outlines, bottom drill, )
(Unit of measure: mm)
( Tool|       Size       |  Min Sub |  Max Sub |   Count )
( T01 | 0.700mm 0.0276in | 0.0000in | 0.0000in |       0 )
( T02 | 1.000mm 0.0394in | 0.0000in | 0.0000in |       0 )
( T03 | 1.016mm 0.0400in | 0.0000in | 0.0000in |       0 )
( T04 | 2.300mm 0.0906in | 0.0000in | 0.0000in |       0 )
(Metric Mode)
G21
(Absolute Coordinates)
G90
S20000
G00 Z5.0000 
G00 X0.0000 Y0.0000 
M03
G04 P3.000000
M05
M06 T01 (1.0000 )
G01 Z0.0000 F508.00 
M06 
G00 Z2.0000 
M03
G04 P3.000000
G82 X-7.6200 Y6.3500 Z-1.6000 F508.00 R2.0000 P0.500000
G82 X-10.1600 Y6.3500 
G82 X-15.2400 Y11.4300 
G82 X-19.0500 Y19.5500 
G82 X-21.5900 Y19.5500 
G82 X-24.1300 Y19.5500 
G82 X-26.6700 Y19.5500 
G82 X-29.2100 Y19.5500 
G82 X-31.7500 Y19.5500 
G82 X-34.2900 Y19.5500 
G82 X-36.8300 Y19.5500 
G82 X-39.3700 Y19.5500 
G82 X-41.9100 Y19.5500 
G82 X-44.4500 Y19.5500 
G82 X-46.9900 Y19.5500 
G82 X-49.5300 Y19.5500 
G82 X-49.7400 Y25.0100 
G82 X-49.7400 Y27.5500 
G82 X-49.7400 Y30.0900 
G82 X-49.7400 Y32.6300 
G82 X-49.7400 Y35.1700 
G82 X-49.7400 Y37.7100 
G82 X-49.5300 Y42.4100 
G82 X-46.9900 Y42.4100 
G82 X-44.4500 Y42.4100 
G82 X-41.9100 Y42.4100 
G82 X-39.3700 Y42.4100 
G82 X-36.8300 Y42.4100 
G82 X-34.2900 Y42.4100 
G82 X-31.7500 Y42.4100 
G82 X-29.2100 Y42.4100 
G82 X-26.6700 Y42.4100 
G82 X-24.1300 Y42.4100 
G82 X-21.5900 Y42.4100 
G82 X-19.0500 Y42.4100 
G82 X-19.0500 Y39.3700 
G82 X-25.4000 Y39.3700 
G82 X-39.3700 Y38.1000 
G82 X-39.3700 Y30.4800 
G82 X-40.0050 Y12.0650 
G82 X-43.8150 Y12.0650 
G82 X-49.5300 Y6.3500 
G82 X-52.0700 Y6.3500 
G82 X-36.8300 Y6.3500 
G82 X-26.6700 Y6.3500 
G82 X-25.4000 Y11.4300 
G82 X-9.7900 Y24.1500 
G82 X-7.7900 Y24.1500 
G82 X-7.7900 Y26.6500 
G82 X-9.7900 Y26.6500 
M05
G00 Z5.0000 
G00 X0.0000 Y0.0000 
G01 Z0.0000 F508.00 
M06 
G00 Z2.0000 
M03
G04 P3.000000
G82 X-19.0500 Y15.8750 Z-1.6000 F508.00 R2.0000 P0.500000
G82 X-21.5900 Y15.8750 
G82 X-24.1300 Y15.8750 
G82 X-26.6700 Y15.8750 
G82 X-29.2100 Y15.8750 
G82 X-31.7500 Y15.8750 
G82 X-34.2900 Y15.8750 
G82 X-36.8300 Y15.8750 
G82 X-39.3700 Y15.8750 
G82 X-41.9100 Y15.8750 
G82 X-44.4500 Y15.8750 
G82 X-46.9900 Y15.8750 
G82 X-49.5300 Y15.8750 
G82 X-49.5300 Y45.7200 
G82 X-46.9900 Y45.7200 
G82 X-44.4500 Y45.7200 
G82 X-41.9100 Y45.7200 
G82 X-39.3700 Y45.7200 
G82 X-36.8300 Y45.7200 
G82 X-34.2900 Y45.7200 
G82 X-31.7500 Y45.7200 
G82 X-29.2100 Y45.7200 
G82 X-26.6700 Y45.7200 
G82 X-24.1300 Y45.7200 
G82 X-21.5900 Y45.7200 
G82 X-19.0500 Y45.7200 
M05
G00 Z5.0000 
G00 X0.0000 Y0.0000 
G01 Z0.0000 F508.00 
M06 
G00 Z2.0000 
M03
G04 P3.000000
G82 X-5.0800 Y19.3800 Z-1.6000 F508.00 R2.0000 P0.500000
G82 X-5.0800 Y31.4200 
T01 
G00 Z5.0000 
M05
M02
