(.../EAGLE-7.2.0/ulp/pcb-gcode.ulp)
(Copyright 2005 - 2012 by John Johnson)
(See readme.txt for licensing terms.)
(This file generated from the board:)
(.../Breakout Adapter v1.0 - LM1117 - AndersV209/ESP12E Breakout Adapter.brd)
(Current profile is .../pcb-gcode-3.6.2.4/profiles/emc.pp  )
(This file generated 23-10-2015 15:23:24)
(Settings from pcb-machine.h)
(spindle on time = 3.0000)
(spindle speed = 20000.0000)
(tool change at 0.0000 0.0000 5.0000 )
(feed rate xy = F0.00  )
(feed rate z  = F508.00 )
(Z Axis Settings)
(  High     Up        Down     Drill)
(5.0000 	2.0000 	0.0000 	-1.6000 )
(Settings from pcb-defaults.h)
(isolate min = 0.0254)
(isolate max = 0.5080)
(isolate step = 0.1270)
(Generated top outlines, bottom outlines, bottom drill, )
(Unit of measure: mm)
( Tool|       Size       |  Min Sub |  Max Sub |   Count )
( T01 | 0.700mm 0.0276in | 0.0000in | 0.0000in |       0 )
( T02 | 1.016mm 0.0400in | 0.0000in | 0.0000in |       0 )
(Metric Mode)
G21
(Absolute Coordinates)
G90
S20000
G00 Z5.0000 
G00 X0.0000 Y0.0000 
M03
G04 P3.000000
M05
M06 T01 (0.7000 )
G01 Z0.0000 F508.00 
M06 
G00 Z2.0000 
M03
G04 P3.000000
G82 X-8.6360 Y35.8140 Z-1.6000 F508.00 R2.0000 P0.500000
G82 X-8.8036 Y33.2906 
G82 X-8.8036 Y31.2906 
G82 X-8.8036 Y29.2906 
G82 X-8.8036 Y27.2906 
G82 X-8.8036 Y25.2906 
G82 X-8.8036 Y23.2906 
G82 X-8.8036 Y21.2906 
G82 X-8.8036 Y19.2906 
G82 X-10.8636 Y17.6526 
G82 X-12.8636 Y17.6526 
G82 X-14.8636 Y17.6526 
G82 X-16.8636 Y17.6526 
G82 X-18.8636 Y17.6526 
G82 X-20.8636 Y17.6526 
G82 X-23.0036 Y19.2906 
G82 X-23.0036 Y21.2906 
G82 X-23.0036 Y23.2906 
G82 X-23.0036 Y25.2906 
G82 X-23.0036 Y27.2906 
G82 X-23.0036 Y29.2906 
G82 X-23.0036 Y31.2906 
G82 X-23.0036 Y33.2906 
G82 X-23.1140 Y35.5600 
G82 X-19.8120 Y26.4160 
G82 X-15.7480 Y19.8120 
M05
G00 Z5.0000 
G00 X0.0000 Y0.0000 
M06 T02 (1.0160 )
G01 Z0.0000 F508.00 
M06 
G00 Z2.0000 
M03
G04 P3.000000
G82 X-4.3195 Y5.0818 Z-1.6000 F508.00 R2.0000 P0.500000
G82 X-4.3195 Y7.6218 
G82 X-4.3195 Y10.1618 
G82 X-4.3195 Y12.7018 
G82 X-4.3195 Y15.2418 
G82 X-4.3195 Y17.7818 
G82 X-4.3195 Y20.3218 
G82 X-4.3195 Y22.8618 
G82 X-4.3195 Y25.4018 
G82 X-4.3195 Y27.9418 
G82 X-4.3195 Y30.4818 
G82 X-4.3195 Y33.0218 
G82 X-4.3195 Y35.5618 
G82 X-27.1795 Y35.5618 
G82 X-27.1795 Y33.0218 
G82 X-27.1795 Y30.4818 
G82 X-27.1795 Y27.9418 
G82 X-27.1795 Y25.4018 
G82 X-27.1795 Y22.8618 
G82 X-27.1795 Y20.3218 
G82 X-27.1795 Y17.7818 
G82 X-27.1795 Y15.2418 
G82 X-27.1795 Y12.7018 
G82 X-27.1795 Y10.1618 
G82 X-27.1795 Y7.6218 
G82 X-27.1795 Y5.0818 
G82 X-21.8186 Y5.2494 
G82 X-17.2974 Y5.2494 
G82 X-14.1912 Y5.2494 
G82 X-9.6700 Y5.2494 
G82 X-9.6700 Y11.7518 
G82 X-14.1912 Y11.7518 
G82 X-17.2974 Y11.7518 
G82 X-21.8186 Y11.7518 
T01 
G00 Z5.0000 
M05
M02
