(.../EAGLE-7.2.0/ulp/pcb-gcode.ulp)
(Copyright 2005 - 2012 by John Johnson)
(See readme.txt for licensing terms.)
(This file generated from the board:)
(.../Breakout Adapter v1.0 - LM1117 - AndersV209/ESP12E Breakout Adapter.brd)
(Current profile is .../pcb-gcode-3.6.2.4/profiles/emc.pp  )
(This file generated 23-10-2015 15:23:14)
(Settings from pcb-machine.h)
(spindle on time = 3.0000)
(  Tool Size)
(0.2540 )
(spindle speed = 30000.0000)
(tool change at 0.0000 0.0000 5.0000 )
(feed rate xy = F508.00 )
(feed rate z  = F254.00 )
(Z Axis Settings)
(  High     Up        Down     Drill)
(5.0000 	2.0000 	0.0000 	-1.6000 )
(Settings from pcb-defaults.h)
(isolate min = 0.0254)
(isolate max = 0.5080)
(isolate step = 0.1270)
(Generated top outlines, bottom outlines, bottom drill, )
(Unit of measure: mm)
(Metric Mode)
G21
(Absolute Coordinates)
G90
S30000
G00 Z5.0000 
G00 X0.0000 Y0.0000 
M03
G04 P3.000000
G00 Z2.0000 
G00 X-2.1532 Y3.0694 
G01 Z0.0000 F254.00 
G01 X-2.2194 Y3.0032 F508.00 
G01 X-2.3005 Y2.9564 
G01 X-2.3909 Y2.9322 
G01 X-9.3568 Y2.9322 
G01 X-9.3801 Y2.9291 
G01 X-9.4034 Y2.9322 
G01 X-9.4270 Y2.9322 
G01 X-9.4497 Y2.9382 
G01 X-9.4730 Y2.9413 
G01 X-9.4947 Y2.9503 
G01 X-9.5174 Y2.9564 
G01 X-9.5377 Y2.9681 
G01 X-9.5595 Y2.9771 
G01 X-9.5781 Y2.9915 
G01 X-9.5985 Y3.0032 
G01 X-9.6151 Y3.0198 
G01 X-9.6338 Y3.0341 
G01 X-9.6481 Y3.0528 
G01 X-9.6647 Y3.0694 
G01 X-9.6700 Y3.0785 
G01 X-9.6752 Y3.0694 
G01 X-9.6918 Y3.0528 
G01 X-9.7062 Y3.0341 
G01 X-9.7248 Y3.0198 
G01 X-9.7414 Y3.0032 
G01 X-9.7618 Y2.9915 
G01 X-9.7804 Y2.9771 
G01 X-9.8022 Y2.9681 
G01 X-9.8225 Y2.9564 
G01 X-9.8452 Y2.9503 
G01 X-9.8669 Y2.9413 
G01 X-9.8902 Y2.9382 
G01 X-9.9130 Y2.9322 
G01 X-9.9365 Y2.9322 
G01 X-9.9598 Y2.9291 
G01 X-9.9831 Y2.9322 
G01 X-13.9435 Y2.9322 
G01 X-13.9621 Y2.9292 
G01 X-13.9901 Y2.9322 
G01 X-14.0183 Y2.9322 
G01 X-14.0365 Y2.9370 
G01 X-14.0552 Y2.9390 
G01 X-14.0815 Y2.9491 
G01 X-14.1087 Y2.9564 
G01 X-14.1250 Y2.9658 
G01 X-14.1426 Y2.9726 
G01 X-14.1654 Y2.9891 
G01 X-14.1898 Y3.0032 
G01 X-14.1925 Y3.0032 
G01 X-14.2169 Y2.9891 
G01 X-14.2397 Y2.9726 
G01 X-14.2573 Y2.9658 
G01 X-14.2736 Y2.9564 
G01 X-14.3008 Y2.9491 
G01 X-14.3271 Y2.9390 
G01 X-14.3458 Y2.9370 
G01 X-14.3640 Y2.9322 
G01 X-14.3922 Y2.9322 
G01 X-14.4202 Y2.9292 
G01 X-14.4388 Y2.9322 
G01 X-17.0497 Y2.9322 
G01 X-17.0684 Y2.9292 
G01 X-17.0964 Y2.9322 
G01 X-17.1245 Y2.9322 
G01 X-17.1427 Y2.9370 
G01 X-17.1615 Y2.9390 
G01 X-17.1878 Y2.9491 
G01 X-17.2150 Y2.9564 
G01 X-17.2313 Y2.9658 
G01 X-17.2489 Y2.9726 
G01 X-17.2717 Y2.9891 
G01 X-17.2961 Y3.0032 
G01 X-17.2987 Y3.0032 
G01 X-17.3231 Y2.9891 
G01 X-17.3459 Y2.9726 
G01 X-17.3635 Y2.9658 
G01 X-17.3798 Y2.9564 
G01 X-17.4070 Y2.9491 
G01 X-17.4333 Y2.9390 
G01 X-17.4521 Y2.9370 
G01 X-17.4702 Y2.9322 
G01 X-17.4984 Y2.9322 
G01 X-17.5264 Y2.9292 
G01 X-17.5450 Y2.9322 
G01 X-21.5055 Y2.9322 
G01 X-21.5288 Y2.9291 
G01 X-21.5521 Y2.9322 
G01 X-21.5756 Y2.9322 
G01 X-21.5983 Y2.9382 
G01 X-21.6216 Y2.9413 
G01 X-21.6433 Y2.9503 
G01 X-21.6660 Y2.9564 
G01 X-21.6864 Y2.9681 
G01 X-21.7081 Y2.9771 
G01 X-21.7268 Y2.9915 
G01 X-21.7471 Y3.0032 
G01 X-21.7637 Y3.0198 
G01 X-21.7824 Y3.0341 
G01 X-21.7967 Y3.0528 
G01 X-21.8133 Y3.0694 
G01 X-21.8251 Y3.0898 
G01 X-21.8394 Y3.1084 
G01 X-21.8484 Y3.1301 
G01 X-21.8601 Y3.1505 
G01 X-21.8662 Y3.1732 
G01 X-21.8752 Y3.1949 
G01 X-21.8783 Y3.2182 
G01 X-21.8844 Y3.2409 
G01 X-21.8844 Y3.2644 
G01 X-21.8874 Y3.2878 
G01 X-21.8844 Y3.3111 
G01 X-21.8844 Y3.3346 
G01 X-21.8783 Y3.3573 
G01 X-21.8752 Y3.3806 
G01 X-21.8662 Y3.4023 
G01 X-21.8601 Y3.4250 
G01 X-21.8484 Y3.4454 
G01 X-21.8394 Y3.4671 
G01 X-21.8251 Y3.4857 
G01 X-21.8133 Y3.5061 
G01 X-21.7967 Y3.5227 
G01 X-21.7824 Y3.5414 
G01 X-21.7637 Y3.5557 
G01 X-21.7471 Y3.5723 
G01 X-21.9087 Y3.5730 
G01 X-22.0853 Y3.6081 
G01 X-22.2517 Y3.6770 
G01 X-22.4015 Y3.7771 
G01 X-22.5289 Y3.9045 
G01 X-22.6289 Y4.0542 
G01 X-22.6979 Y4.2206 
G01 X-22.7330 Y4.3973 
G01 X-22.7330 Y6.1014 
G01 X-22.6979 Y6.2781 
G01 X-22.6289 Y6.4445 
G01 X-22.5289 Y6.5942 
G01 X-22.4015 Y6.7216 
G01 X-22.2517 Y6.8217 
G01 X-22.1234 Y6.8748 
G01 X-22.1234 Y10.1263 
G01 X-22.2517 Y10.1794 
G01 X-22.4015 Y10.2795 
G01 X-22.5289 Y10.4069 
G01 X-22.6289 Y10.5566 
G01 X-22.6979 Y10.7230 
G01 X-22.7330 Y10.8997 
G01 X-22.7330 Y12.6038 
G01 X-22.6979 Y12.7805 
G01 X-22.6289 Y12.9469 
G01 X-22.5289 Y13.0967 
G01 X-22.4015 Y13.2240 
G01 X-22.2517 Y13.3241 
G01 X-22.0853 Y13.3930 
G01 X-21.9087 Y13.4282 
G01 X-21.8384 Y13.4282 
G01 X-21.8734 Y13.4484 
G01 X-21.9397 Y13.5146 
G01 X-21.9859 Y13.5947 
G01 X-22.0107 Y13.6861 
G01 X-22.0107 Y13.7798 
G01 X-22.0002 Y13.8189 
G01 X-25.5137 Y10.3054 
G01 X-25.5031 Y10.2519 
G01 X-25.5031 Y10.0718 
G01 X-25.5382 Y9.8951 
G01 X-25.6071 Y9.7287 
G01 X-25.7072 Y9.5789 
G01 X-25.8346 Y9.4516 
G01 X-25.9843 Y9.3515 
G01 X-26.1507 Y9.2826 
G01 X-26.3274 Y9.2474 
G01 X-28.0315 Y9.2474 
G01 X-28.2082 Y9.2826 
G01 X-28.3746 Y9.3515 
G01 X-28.5244 Y9.4516 
G01 X-28.6517 Y9.5789 
G01 X-28.7518 Y9.7287 
G01 X-28.8207 Y9.8951 
G01 X-28.8559 Y10.0718 
G01 X-28.8559 Y10.2519 
G01 X-28.8207 Y10.4285 
G01 X-28.7518 Y10.5950 
G01 X-28.6517 Y10.7447 
G01 X-28.5244 Y10.8721 
G01 X-28.3746 Y10.9722 
G01 X-28.2082 Y11.0411 
G01 X-28.0315 Y11.0762 
G01 X-26.3274 Y11.0762 
G01 X-26.1507 Y11.0411 
G01 X-25.9843 Y10.9722 
G01 X-25.9054 Y10.9194 
G01 X-21.2192 Y15.6057 
G01 X-21.2192 Y16.0255 
G01 X-21.2954 Y16.0764 
G01 X-21.3897 Y16.1707 
G01 X-21.4639 Y16.2817 
G01 X-21.5149 Y16.4050 
G01 X-21.5410 Y16.5358 
G01 X-21.5410 Y17.7193 
G01 X-21.5149 Y17.8501 
G01 X-21.4639 Y17.9734 
G01 X-21.3897 Y18.0844 
G01 X-21.2954 Y18.1787 
G01 X-21.1844 Y18.2529 
G01 X-21.0611 Y18.3039 
G01 X-20.9303 Y18.3300 
G01 X-20.7968 Y18.3300 
G01 X-20.6660 Y18.3039 
G01 X-20.5431 Y18.2530 
G01 X-20.5672 Y18.3428 
G01 X-20.5672 Y18.4364 
G01 X-20.5609 Y18.4596 
G01 X-20.5429 Y18.5269 
G01 X-20.4961 Y18.6079 
G01 X-20.4299 Y18.6741 
G01 X-20.3948 Y18.6944 
G01 X-20.9347 Y18.6944 
G01 X-23.0124 Y16.6167 
G01 X-23.0124 Y14.6852 
G01 X-23.0366 Y14.5947 
G01 X-23.0834 Y14.5137 
G01 X-25.1154 Y12.4817 
G01 X-25.1817 Y12.4154 
G01 X-25.2627 Y12.3686 
G01 X-25.3532 Y12.3444 
G01 X-25.5758 Y12.3444 
G01 X-25.6071 Y12.2687 
G01 X-25.7072 Y12.1189 
G01 X-25.8346 Y11.9916 
G01 X-25.9843 Y11.8915 
G01 X-26.1507 Y11.8226 
G01 X-26.3274 Y11.7874 
G01 X-28.0315 Y11.7874 
G01 X-28.2082 Y11.8226 
G01 X-28.3746 Y11.8915 
G01 X-28.5244 Y11.9916 
G01 X-28.6517 Y12.1189 
G01 X-28.7518 Y12.2687 
G01 X-28.8207 Y12.4351 
G01 X-28.8559 Y12.6118 
G01 X-28.8559 Y12.7919 
G01 X-28.8207 Y12.9685 
G01 X-28.7963 Y13.0275 
G01 X-28.8084 Y13.0206 
G01 X-28.8270 Y13.0063 
G01 X-28.8487 Y12.9973 
G01 X-28.8691 Y12.9855 
G01 X-28.8918 Y12.9794 
G01 X-28.9135 Y12.9704 
G01 X-28.9368 Y12.9674 
G01 X-28.9595 Y12.9613 
G01 X-28.9830 Y12.9613 
G01 X-29.0063 Y12.9582 
G01 X-29.0297 Y12.9613 
G01 X-29.0532 Y12.9613 
G01 X-29.0759 Y12.9674 
G01 X-29.0992 Y12.9704 
G01 X-29.1209 Y12.9794 
G01 X-29.1436 Y12.9855 
G01 X-29.1640 Y12.9972 
G01 X-29.1857 Y13.0062 
G01 X-29.2044 Y13.0206 
G01 X-29.2247 Y13.0323 
G01 X-29.2413 Y13.0489 
G01 X-29.2600 Y13.0632 
G01 X-29.2743 Y13.0819 
G01 X-29.2909 Y13.0985 
G01 X-29.3026 Y13.1189 
G01 X-29.3170 Y13.1375 
G01 X-29.3260 Y13.1593 
G01 X-29.3377 Y13.1796 
G01 X-29.3438 Y13.2023 
G01 X-29.3528 Y13.2240 
G01 X-29.3559 Y13.2473 
G01 X-29.3620 Y13.2700 
G01 X-29.3620 Y13.2936 
G01 X-29.3650 Y13.3169 
G01 X-29.3620 Y13.3402 
G01 X-29.3620 Y14.6089 
G01 X-29.3639 Y14.6182 
G01 X-29.3620 Y14.6556 
G01 X-29.3620 Y14.6931 
G01 X-29.3595 Y14.7022 
G01 X-29.3590 Y14.7117 
G01 X-29.3474 Y14.7473 
G01 X-29.3377 Y14.7835 
G01 X-29.3330 Y14.7917 
G01 X-29.3301 Y14.8007 
G01 X-29.3096 Y14.8322 
G01 X-29.2909 Y14.8646 
G01 X-29.2842 Y14.8713 
G01 X-29.2791 Y14.8792 
G01 X-29.2512 Y14.9043 
G01 X-29.2247 Y14.9308 
G01 X-29.2165 Y14.9355 
G01 X-29.2095 Y14.9419 
G01 X-29.1761 Y14.9589 
G01 X-29.1436 Y14.9776 
G01 X-29.1345 Y14.9801 
G01 X-29.1261 Y14.9844 
G01 X-29.0894 Y14.9922 
G01 X-29.0532 Y15.0019 
G01 X-29.0437 Y15.0019 
G01 X-29.0345 Y15.0038 
G01 X-28.9970 Y15.0019 
G01 X-28.9595 Y15.0019 
G01 X-28.9504 Y14.9994 
G01 X-28.9410 Y14.9989 
G01 X-28.9053 Y14.9873 
G01 X-28.8691 Y14.9776 
G01 X-28.8609 Y14.9729 
G01 X-28.8519 Y14.9700 
G01 X-28.8204 Y14.9496 
G01 X-28.8069 Y14.9417 
G01 X-28.8207 Y14.9751 
G01 X-28.8559 Y15.1518 
G01 X-28.8559 Y15.3319 
G01 X-28.8207 Y15.5085 
G01 X-28.8069 Y15.5419 
G01 X-28.8204 Y15.5341 
G01 X-28.8519 Y15.5137 
G01 X-28.8609 Y15.5107 
G01 X-28.8691 Y15.5060 
G01 X-28.9053 Y15.4963 
G01 X-28.9410 Y15.4847 
G01 X-28.9504 Y15.4842 
G01 X-28.9595 Y15.4818 
G01 X-28.9970 Y15.4818 
G01 X-29.0345 Y15.4798 
G01 X-29.0437 Y15.4818 
G01 X-29.0532 Y15.4818 
G01 X-29.0894 Y15.4915 
G01 X-29.1261 Y15.4993 
G01 X-29.1345 Y15.5036 
G01 X-29.1436 Y15.5060 
G01 X-29.1761 Y15.5247 
G01 X-29.2095 Y15.5418 
G01 X-29.2165 Y15.5481 
G01 X-29.2247 Y15.5528 
G01 X-29.2512 Y15.5793 
G01 X-29.2791 Y15.6044 
G01 X-29.2842 Y15.6124 
G01 X-29.2909 Y15.6190 
G01 X-29.3096 Y15.6515 
G01 X-29.3301 Y15.6829 
G01 X-29.3330 Y15.6919 
G01 X-29.3377 Y15.7001 
G01 X-29.3474 Y15.7363 
G01 X-29.3590 Y15.7720 
G01 X-29.3595 Y15.7814 
G01 X-29.3620 Y15.7906 
G01 X-29.3620 Y15.8280 
G01 X-29.3639 Y15.8655 
G01 X-29.3620 Y15.8747 
G01 X-29.3620 Y17.1489 
G01 X-29.3639 Y17.1582 
G01 X-29.3620 Y17.1956 
G01 X-29.3620 Y17.2331 
G01 X-29.3595 Y17.2422 
G01 X-29.3590 Y17.2517 
G01 X-29.3474 Y17.2873 
G01 X-29.3377 Y17.3235 
G01 X-29.3330 Y17.3317 
G01 X-29.3301 Y17.3407 
G01 X-29.3096 Y17.3722 
G01 X-29.2909 Y17.4046 
G01 X-29.2842 Y17.4113 
G01 X-29.2791 Y17.4192 
G01 X-29.2512 Y17.4443 
G01 X-29.2247 Y17.4708 
G01 X-29.2165 Y17.4755 
G01 X-29.2095 Y17.4819 
G01 X-29.1761 Y17.4989 
G01 X-29.1436 Y17.5176 
G01 X-29.1345 Y17.5201 
G01 X-29.1261 Y17.5244 
G01 X-29.0894 Y17.5322 
G01 X-29.0532 Y17.5419 
G01 X-29.0437 Y17.5419 
G01 X-29.0345 Y17.5438 
G01 X-28.9970 Y17.5419 
G01 X-28.9595 Y17.5419 
G01 X-28.9504 Y17.5394 
G01 X-28.9410 Y17.5389 
G01 X-28.9053 Y17.5273 
G01 X-28.8691 Y17.5176 
G01 X-28.8609 Y17.5129 
G01 X-28.8519 Y17.5100 
G01 X-28.8204 Y17.4896 
G01 X-28.8069 Y17.4817 
G01 X-28.8207 Y17.5151 
G01 X-28.8559 Y17.6918 
G01 X-28.8559 Y17.8719 
G01 X-28.8207 Y18.0485 
G01 X-28.8069 Y18.0819 
G01 X-28.8204 Y18.0741 
G01 X-28.8519 Y18.0537 
G01 X-28.8609 Y18.0507 
G01 X-28.8691 Y18.0460 
G01 X-28.9053 Y18.0363 
G01 X-28.9410 Y18.0247 
G01 X-28.9504 Y18.0242 
G01 X-28.9595 Y18.0218 
G01 X-28.9970 Y18.0218 
G01 X-29.0345 Y18.0198 
G01 X-29.0437 Y18.0218 
G01 X-29.0532 Y18.0218 
G01 X-29.0894 Y18.0315 
G01 X-29.1261 Y18.0393 
G01 X-29.1345 Y18.0436 
G01 X-29.1436 Y18.0460 
G01 X-29.1761 Y18.0647 
G01 X-29.2095 Y18.0818 
G01 X-29.2165 Y18.0881 
G01 X-29.2247 Y18.0928 
G01 X-29.2512 Y18.1193 
G01 X-29.2791 Y18.1444 
G01 X-29.2842 Y18.1524 
G01 X-29.2909 Y18.1590 
G01 X-29.3096 Y18.1915 
G01 X-29.3301 Y18.2229 
G01 X-29.3330 Y18.2319 
G01 X-29.3377 Y18.2401 
G01 X-29.3474 Y18.2763 
G01 X-29.3590 Y18.3120 
G01 X-29.3595 Y18.3214 
G01 X-29.3620 Y18.3306 
G01 X-29.3620 Y18.3680 
G01 X-29.3639 Y18.4055 
G01 X-29.3620 Y18.4147 
G01 X-29.3620 Y19.6835 
G01 X-29.3650 Y19.7068 
G01 X-29.3620 Y19.7301 
G01 X-29.3620 Y19.7536 
G01 X-29.3559 Y19.7763 
G01 X-29.3528 Y19.7996 
G01 X-29.3438 Y19.8213 
G01 X-29.3377 Y19.8440 
G01 X-29.3260 Y19.8644 
G01 X-29.3170 Y19.8861 
G01 X-29.3026 Y19.9048 
G01 X-29.2909 Y19.9251 
G01 X-29.2743 Y19.9417 
G01 X-29.2600 Y19.9604 
G01 X-29.2413 Y19.9747 
G01 X-29.2247 Y19.9913 
G01 X-29.2044 Y20.0031 
G01 X-29.1857 Y20.0174 
G01 X-29.1639 Y20.0264 
G01 X-29.1436 Y20.0381 
G01 X-29.1209 Y20.0442 
G01 X-29.0992 Y20.0532 
G01 X-29.0759 Y20.0563 
G01 X-29.0532 Y20.0624 
G01 X-29.0297 Y20.0624 
G01 X-29.0063 Y20.0654 
G01 X-28.9830 Y20.0624 
G01 X-28.9595 Y20.0624 
G01 X-28.9368 Y20.0563 
G01 X-28.9135 Y20.0532 
G01 X-28.8918 Y20.0442 
G01 X-28.8691 Y20.0381 
G01 X-28.8487 Y20.0264 
G01 X-28.8270 Y20.0174 
G01 X-28.8083 Y20.0031 
G01 X-28.7963 Y19.9961 
G01 X-28.8207 Y20.0551 
G01 X-28.8559 Y20.2318 
G01 X-28.8559 Y20.4119 
G01 X-28.8207 Y20.5885 
G01 X-28.7518 Y20.7550 
G01 X-28.6517 Y20.9047 
G01 X-28.5244 Y21.0321 
G01 X-28.3746 Y21.1322 
G01 X-28.2082 Y21.2011 
G01 X-28.0315 Y21.2362 
G01 X-26.3274 Y21.2362 
G01 X-26.1507 Y21.2011 
G01 X-25.9843 Y21.1322 
G01 X-25.8346 Y21.0321 
G01 X-25.7667 Y20.9642 
G01 X-25.1558 Y21.5751 
G01 X-25.0747 Y21.6219 
G01 X-24.9843 Y21.6462 
G01 X-24.6306 Y21.6462 
G01 X-24.5797 Y21.7224 
G01 X-24.4854 Y21.8167 
G01 X-24.3744 Y21.8909 
G01 X-24.2511 Y21.9419 
G01 X-24.1203 Y21.9680 
G01 X-22.9368 Y21.9680 
G01 X-22.8060 Y21.9419 
G01 X-22.6827 Y21.8909 
G01 X-22.5717 Y21.8167 
G01 X-22.5126 Y21.7576 
G01 X-22.2384 Y21.7576 
G01 X-22.2384 Y22.0823 
G01 X-22.2152 Y22.1383 
G01 X-22.1723 Y22.1812 
G01 X-22.1163 Y22.2044 
G01 X-20.5648 Y22.2044 
G01 X-20.5708 Y22.2147 
G01 X-20.5835 Y22.2623 
G01 X-20.5950 Y22.3052 
G01 X-20.5950 Y22.3515 
G01 X-20.5950 Y22.3988 
G01 X-20.5800 Y22.4547 
G01 X-20.5708 Y22.4893 
G01 X-20.5648 Y22.4996 
G01 X-22.1163 Y22.4996 
G01 X-22.1723 Y22.5228 
G01 X-22.2152 Y22.5657 
G01 X-22.2384 Y22.6217 
G01 X-22.2384 Y23.9053 
G01 X-22.2484 Y23.8923 
G01 X-22.2670 Y23.8780 
G01 X-22.2836 Y23.8614 
G01 X-22.3040 Y23.8496 
G01 X-22.3226 Y23.8353 
G01 X-22.3444 Y23.8263 
G01 X-22.3647 Y23.8146 
G01 X-22.3874 Y23.8085 
G01 X-22.4091 Y23.7995 
G01 X-22.4324 Y23.7964 
G01 X-22.4551 Y23.7903 
G01 X-22.4787 Y23.7903 
G01 X-22.5020 Y23.7872 
G01 X-22.5253 Y23.7903 
G01 X-22.5453 Y23.7903 
G01 X-22.4774 Y23.7224 
G01 X-22.4033 Y23.6114 
G01 X-22.3522 Y23.4881 
G01 X-22.3262 Y23.3573 
G01 X-22.3262 Y23.2238 
G01 X-22.3522 Y23.0930 
G01 X-22.4033 Y22.9697 
G01 X-22.4774 Y22.8587 
G01 X-22.5717 Y22.7644 
G01 X-22.6827 Y22.6903 
G01 X-22.8060 Y22.6392 
G01 X-22.9368 Y22.6132 
G01 X-24.1203 Y22.6132 
G01 X-24.2511 Y22.6392 
G01 X-24.3744 Y22.6903 
G01 X-24.4854 Y22.7644 
G01 X-24.5797 Y22.8587 
G01 X-24.6306 Y22.9350 
G01 X-25.5031 Y22.9350 
G01 X-25.5031 Y22.7718 
G01 X-25.5382 Y22.5951 
G01 X-25.6071 Y22.4287 
G01 X-25.7072 Y22.2789 
G01 X-25.8346 Y22.1516 
G01 X-25.9843 Y22.0515 
G01 X-26.1507 Y21.9826 
G01 X-26.3274 Y21.9474 
G01 X-28.0315 Y21.9474 
G01 X-28.2082 Y21.9826 
G01 X-28.3746 Y22.0515 
G01 X-28.5244 Y22.1516 
G01 X-28.6517 Y22.2789 
G01 X-28.7518 Y22.4287 
G01 X-28.8207 Y22.5951 
G01 X-28.8559 Y22.7718 
G01 X-28.8559 Y22.9519 
G01 X-28.8207 Y23.1285 
G01 X-28.7963 Y23.1875 
G01 X-28.8084 Y23.1806 
G01 X-28.8270 Y23.1663 
G01 X-28.8487 Y23.1573 
G01 X-28.8691 Y23.1455 
G01 X-28.8918 Y23.1394 
G01 X-28.9135 Y23.1304 
G01 X-28.9368 Y23.1274 
G01 X-28.9595 Y23.1213 
G01 X-28.9830 Y23.1213 
G01 X-29.0063 Y23.1182 
G01 X-29.0297 Y23.1213 
G01 X-29.0532 Y23.1213 
G01 X-29.0759 Y23.1273 
G01 X-29.0992 Y23.1304 
G01 X-29.1209 Y23.1394 
G01 X-29.1436 Y23.1455 
G01 X-29.1640 Y23.1572 
G01 X-29.1857 Y23.1662 
G01 X-29.2043 Y23.1806 
G01 X-29.2247 Y23.1923 
G01 X-29.2413 Y23.2089 
G01 X-29.2600 Y23.2232 
G01 X-29.2743 Y23.2419 
G01 X-29.2909 Y23.2585 
G01 X-29.3026 Y23.2789 
G01 X-29.3170 Y23.2975 
G01 X-29.3260 Y23.3193 
G01 X-29.3377 Y23.3396 
G01 X-29.3438 Y23.3623 
G01 X-29.3528 Y23.3840 
G01 X-29.3559 Y23.4073 
G01 X-29.3620 Y23.4300 
G01 X-29.3620 Y23.4535 
G01 X-29.3650 Y23.4768 
G01 X-29.3620 Y23.5002 
G01 X-29.3620 Y24.7635 
G01 X-29.3650 Y24.7868 
G01 X-29.3620 Y24.8101 
G01 X-29.3620 Y24.8336 
G01 X-29.3559 Y24.8563 
G01 X-29.3528 Y24.8796 
G01 X-29.3438 Y24.9014 
G01 X-29.3377 Y24.9240 
G01 X-29.3260 Y24.9444 
G01 X-29.3170 Y24.9661 
G01 X-29.3026 Y24.9848 
G01 X-29.2909 Y25.0051 
G01 X-29.2743 Y25.0217 
G01 X-29.2600 Y25.0404 
G01 X-29.2413 Y25.0547 
G01 X-29.2247 Y25.0713 
G01 X-29.2043 Y25.0831 
G01 X-29.1857 Y25.0974 
G01 X-29.1640 Y25.1064 
G01 X-29.1436 Y25.1181 
G01 X-29.1209 Y25.1242 
G01 X-29.0992 Y25.1332 
G01 X-29.0759 Y25.1363 
G01 X-29.0532 Y25.1424 
G01 X-29.0297 Y25.1424 
G01 X-29.0063 Y25.1455 
G01 X-28.9830 Y25.1424 
G01 X-28.9595 Y25.1424 
G01 X-28.9368 Y25.1363 
G01 X-28.9135 Y25.1332 
G01 X-28.8918 Y25.1242 
G01 X-28.8691 Y25.1181 
G01 X-28.8487 Y25.1064 
G01 X-28.8270 Y25.0974 
G01 X-28.8084 Y25.0831 
G01 X-28.7963 Y25.0761 
G01 X-28.8207 Y25.1351 
G01 X-28.8559 Y25.3118 
G01 X-28.8559 Y25.4919 
G01 X-28.8207 Y25.6685 
G01 X-28.7963 Y25.7275 
G01 X-28.8084 Y25.7206 
G01 X-28.8270 Y25.7063 
G01 X-28.8487 Y25.6973 
G01 X-28.8691 Y25.6855 
G01 X-28.8918 Y25.6794 
G01 X-28.9135 Y25.6704 
G01 X-28.9368 Y25.6674 
G01 X-28.9595 Y25.6613 
G01 X-28.9830 Y25.6613 
G01 X-29.0063 Y25.6582 
G01 X-29.0297 Y25.6613 
G01 X-29.0532 Y25.6613 
G01 X-29.0759 Y25.6673 
G01 X-29.0992 Y25.6704 
G01 X-29.1209 Y25.6794 
G01 X-29.1436 Y25.6855 
G01 X-29.1640 Y25.6972 
G01 X-29.1857 Y25.7062 
G01 X-29.2043 Y25.7206 
G01 X-29.2247 Y25.7323 
G01 X-29.2413 Y25.7489 
G01 X-29.2600 Y25.7632 
G01 X-29.2743 Y25.7819 
G01 X-29.2909 Y25.7985 
G01 X-29.3026 Y25.8189 
G01 X-29.3170 Y25.8375 
G01 X-29.3260 Y25.8593 
G01 X-29.3377 Y25.8796 
G01 X-29.3438 Y25.9023 
G01 X-29.3528 Y25.9240 
G01 X-29.3559 Y25.9473 
G01 X-29.3620 Y25.9700 
G01 X-29.3620 Y25.9935 
G01 X-29.3650 Y26.0168 
G01 X-29.3620 Y26.0402 
G01 X-29.3620 Y27.3035 
G01 X-29.3650 Y27.3268 
G01 X-29.3620 Y27.3501 
G01 X-29.3620 Y27.3736 
G01 X-29.3559 Y27.3963 
G01 X-29.3528 Y27.4196 
G01 X-29.3438 Y27.4413 
G01 X-29.3377 Y27.4640 
G01 X-29.3260 Y27.4844 
G01 X-29.3170 Y27.5061 
G01 X-29.3026 Y27.5248 
G01 X-29.2909 Y27.5451 
G01 X-29.2743 Y27.5617 
G01 X-29.2600 Y27.5804 
G01 X-29.2413 Y27.5947 
G01 X-29.2247 Y27.6113 
G01 X-29.2043 Y27.6231 
G01 X-29.1857 Y27.6374 
G01 X-29.1640 Y27.6464 
G01 X-29.1436 Y27.6581 
G01 X-29.1209 Y27.6642 
G01 X-29.0992 Y27.6732 
G01 X-29.0759 Y27.6763 
G01 X-29.0532 Y27.6824 
G01 X-29.0297 Y27.6824 
G01 X-29.0063 Y27.6855 
G01 X-28.9830 Y27.6824 
G01 X-28.9595 Y27.6824 
G01 X-28.9368 Y27.6763 
G01 X-28.9135 Y27.6732 
G01 X-28.8918 Y27.6642 
G01 X-28.8691 Y27.6581 
G01 X-28.8487 Y27.6464 
G01 X-28.8270 Y27.6374 
G01 X-28.8084 Y27.6231 
G01 X-28.7963 Y27.6161 
G01 X-28.8207 Y27.6751 
G01 X-28.8559 Y27.8518 
G01 X-28.8559 Y28.0319 
G01 X-28.8207 Y28.2085 
G01 X-28.7963 Y28.2675 
G01 X-28.8084 Y28.2606 
G01 X-28.8270 Y28.2463 
G01 X-28.8487 Y28.2373 
G01 X-28.8691 Y28.2255 
G01 X-28.8918 Y28.2194 
G01 X-28.9135 Y28.2104 
G01 X-28.9368 Y28.2074 
G01 X-28.9595 Y28.2013 
G01 X-28.9830 Y28.2013 
G01 X-29.0063 Y28.1982 
G01 X-29.0297 Y28.2013 
G01 X-29.0532 Y28.2013 
G01 X-29.0759 Y28.2074 
G01 X-29.0992 Y28.2104 
G01 X-29.1209 Y28.2194 
G01 X-29.1436 Y28.2255 
G01 X-29.1640 Y28.2372 
G01 X-29.1857 Y28.2462 
G01 X-29.2043 Y28.2606 
G01 X-29.2247 Y28.2723 
G01 X-29.2413 Y28.2889 
G01 X-29.2600 Y28.3032 
G01 X-29.2743 Y28.3219 
G01 X-29.2909 Y28.3385 
G01 X-29.3026 Y28.3589 
G01 X-29.3170 Y28.3775 
G01 X-29.3260 Y28.3993 
G01 X-29.3377 Y28.4196 
G01 X-29.3438 Y28.4423 
G01 X-29.3528 Y28.4640 
G01 X-29.3559 Y28.4873 
G01 X-29.3620 Y28.5100 
G01 X-29.3620 Y28.5335 
G01 X-29.3650 Y28.5568 
G01 X-29.3620 Y28.5802 
G01 X-29.3620 Y29.8435 
G01 X-29.3650 Y29.8668 
G01 X-29.3620 Y29.8901 
G01 X-29.3620 Y29.9136 
G01 X-29.3559 Y29.9363 
G01 X-29.3528 Y29.9596 
G01 X-29.3438 Y29.9813 
G01 X-29.3377 Y30.0040 
G01 X-29.3260 Y30.0244 
G01 X-29.3170 Y30.0461 
G01 X-29.3026 Y30.0648 
G01 X-29.2909 Y30.0851 
G01 X-29.2743 Y30.1017 
G01 X-29.2600 Y30.1204 
G01 X-29.2413 Y30.1347 
G01 X-29.2247 Y30.1513 
G01 X-29.2043 Y30.1631 
G01 X-29.1857 Y30.1774 
G01 X-29.1640 Y30.1864 
G01 X-29.1436 Y30.1981 
G01 X-29.1209 Y30.2042 
G01 X-29.0992 Y30.2132 
G01 X-29.0759 Y30.2163 
G01 X-29.0532 Y30.2224 
G01 X-29.0297 Y30.2224 
G01 X-29.0063 Y30.2255 
G01 X-28.9830 Y30.2224 
G01 X-28.9595 Y30.2224 
G01 X-28.9368 Y30.2163 
G01 X-28.9135 Y30.2132 
G01 X-28.8918 Y30.2042 
G01 X-28.8691 Y30.1981 
G01 X-28.8487 Y30.1864 
G01 X-28.8270 Y30.1774 
G01 X-28.8084 Y30.1631 
G01 X-28.7963 Y30.1561 
G01 X-28.8207 Y30.2151 
G01 X-28.8559 Y30.3918 
G01 X-28.8559 Y30.5719 
G01 X-28.8207 Y30.7485 
G01 X-28.7963 Y30.8075 
G01 X-28.8084 Y30.8006 
G01 X-28.8270 Y30.7863 
G01 X-28.8487 Y30.7773 
G01 X-28.8691 Y30.7655 
G01 X-28.8918 Y30.7594 
G01 X-28.9135 Y30.7504 
G01 X-28.9368 Y30.7474 
G01 X-28.9595 Y30.7413 
G01 X-28.9830 Y30.7413 
G01 X-29.0063 Y30.7382 
G01 X-29.0297 Y30.7413 
G01 X-29.0532 Y30.7413 
G01 X-29.0759 Y30.7474 
G01 X-29.0992 Y30.7504 
G01 X-29.1209 Y30.7594 
G01 X-29.1436 Y30.7655 
G01 X-29.1640 Y30.7772 
G01 X-29.1857 Y30.7862 
G01 X-29.2043 Y30.8006 
G01 X-29.2247 Y30.8123 
G01 X-29.2413 Y30.8289 
G01 X-29.2600 Y30.8432 
G01 X-29.2743 Y30.8619 
G01 X-29.2909 Y30.8785 
G01 X-29.3026 Y30.8989 
G01 X-29.3170 Y30.9175 
G01 X-29.3260 Y30.9393 
G01 X-29.3377 Y30.9596 
G01 X-29.3438 Y30.9823 
G01 X-29.3528 Y31.0040 
G01 X-29.3559 Y31.0273 
G01 X-29.3620 Y31.0500 
G01 X-29.3620 Y31.0735 
G01 X-29.3650 Y31.0968 
G01 X-29.3620 Y31.1202 
G01 X-29.3620 Y32.3835 
G01 X-29.3650 Y32.4068 
G01 X-29.3620 Y32.4301 
G01 X-29.3620 Y32.4536 
G01 X-29.3559 Y32.4763 
G01 X-29.3528 Y32.4996 
G01 X-29.3438 Y32.5213 
G01 X-29.3377 Y32.5440 
G01 X-29.3260 Y32.5644 
G01 X-29.3170 Y32.5861 
G01 X-29.3026 Y32.6048 
G01 X-29.2909 Y32.6251 
G01 X-29.2743 Y32.6417 
G01 X-29.2600 Y32.6604 
G01 X-29.2413 Y32.6747 
G01 X-29.2247 Y32.6913 
G01 X-29.2043 Y32.7031 
G01 X-29.1857 Y32.7174 
G01 X-29.1640 Y32.7264 
G01 X-29.1436 Y32.7381 
G01 X-29.1209 Y32.7442 
G01 X-29.0992 Y32.7532 
G01 X-29.0759 Y32.7563 
G01 X-29.0532 Y32.7624 
G01 X-29.0297 Y32.7624 
G01 X-29.0063 Y32.7655 
G01 X-28.9830 Y32.7624 
G01 X-28.9595 Y32.7624 
G01 X-28.9368 Y32.7563 
G01 X-28.9135 Y32.7532 
G01 X-28.8918 Y32.7442 
G01 X-28.8691 Y32.7381 
G01 X-28.8487 Y32.7264 
G01 X-28.8270 Y32.7174 
G01 X-28.8084 Y32.7031 
G01 X-28.7963 Y32.6961 
G01 X-28.8207 Y32.7551 
G01 X-28.8559 Y32.9318 
G01 X-28.8559 Y33.1119 
G01 X-28.8207 Y33.2885 
G01 X-28.7963 Y33.3475 
G01 X-28.8084 Y33.3406 
G01 X-28.8270 Y33.3263 
G01 X-28.8487 Y33.3173 
G01 X-28.8691 Y33.3055 
G01 X-28.8918 Y33.2994 
G01 X-28.9135 Y33.2904 
G01 X-28.9368 Y33.2874 
G01 X-28.9595 Y33.2813 
G01 X-28.9830 Y33.2813 
G01 X-29.0063 Y33.2782 
G01 X-29.0297 Y33.2813 
G01 X-29.0532 Y33.2813 
G01 X-29.0759 Y33.2874 
G01 X-29.0992 Y33.2904 
G01 X-29.1209 Y33.2994 
G01 X-29.1436 Y33.3055 
G01 X-29.1640 Y33.3172 
G01 X-29.1857 Y33.3262 
G01 X-29.2043 Y33.3406 
G01 X-29.2247 Y33.3523 
G01 X-29.2413 Y33.3689 
G01 X-29.2600 Y33.3832 
G01 X-29.2743 Y33.4019 
G01 X-29.2909 Y33.4185 
G01 X-29.3026 Y33.4389 
G01 X-29.3170 Y33.4575 
G01 X-29.3260 Y33.4793 
G01 X-29.3377 Y33.4996 
G01 X-29.3438 Y33.5223 
G01 X-29.3528 Y33.5440 
G01 X-29.3559 Y33.5673 
G01 X-29.3620 Y33.5900 
G01 X-29.3620 Y33.6135 
G01 X-29.3650 Y33.6368 
G01 X-29.3620 Y33.6602 
G01 X-29.3620 Y34.9235 
G01 X-29.3650 Y34.9468 
G01 X-29.3620 Y34.9701 
G01 X-29.3620 Y34.9936 
G01 X-29.3559 Y35.0163 
G01 X-29.3528 Y35.0396 
G01 X-29.3438 Y35.0613 
G01 X-29.3377 Y35.0840 
G01 X-29.3260 Y35.1044 
G01 X-29.3170 Y35.1261 
G01 X-29.3026 Y35.1448 
G01 X-29.2909 Y35.1651 
G01 X-29.2743 Y35.1817 
G01 X-29.2600 Y35.2004 
G01 X-29.2413 Y35.2147 
G01 X-29.2247 Y35.2313 
G01 X-29.2043 Y35.2431 
G01 X-29.1857 Y35.2574 
G01 X-29.1640 Y35.2664 
G01 X-29.1436 Y35.2781 
G01 X-29.1209 Y35.2842 
G01 X-29.0992 Y35.2932 
G01 X-29.0759 Y35.2963 
G01 X-29.0532 Y35.3024 
G01 X-29.0297 Y35.3024 
G01 X-29.0063 Y35.3055 
G01 X-28.9830 Y35.3024 
G01 X-28.9595 Y35.3024 
G01 X-28.9368 Y35.2963 
G01 X-28.9135 Y35.2932 
G01 X-28.8918 Y35.2842 
G01 X-28.8691 Y35.2781 
G01 X-28.8487 Y35.2664 
G01 X-28.8270 Y35.2574 
G01 X-28.8084 Y35.2431 
G01 X-28.7963 Y35.2361 
G01 X-28.8207 Y35.2951 
G01 X-28.8559 Y35.4718 
G01 X-28.8559 Y35.6519 
G01 X-28.8207 Y35.8285 
G01 X-28.7963 Y35.8875 
G01 X-28.8084 Y35.8806 
G01 X-28.8270 Y35.8663 
G01 X-28.8487 Y35.8573 
G01 X-28.8691 Y35.8455 
G01 X-28.8918 Y35.8394 
G01 X-28.9135 Y35.8304 
G01 X-28.9368 Y35.8274 
G01 X-28.9595 Y35.8213 
G01 X-28.9830 Y35.8213 
G01 X-29.0063 Y35.8182 
G01 X-29.0297 Y35.8213 
G01 X-29.0532 Y35.8213 
G01 X-29.0759 Y35.8274 
G01 X-29.0992 Y35.8304 
G01 X-29.1209 Y35.8394 
G01 X-29.1436 Y35.8455 
G01 X-29.1640 Y35.8572 
G01 X-29.1857 Y35.8662 
G01 X-29.2043 Y35.8806 
G01 X-29.2247 Y35.8923 
G01 X-29.2413 Y35.9089 
G01 X-29.2600 Y35.9232 
G01 X-29.2743 Y35.9419 
G01 X-29.2909 Y35.9585 
G01 X-29.3026 Y35.9789 
G01 X-29.3170 Y35.9975 
G01 X-29.3260 Y36.0193 
G01 X-29.3377 Y36.0396 
G01 X-29.3438 Y36.0623 
G01 X-29.3528 Y36.0840 
G01 X-29.3559 Y36.1073 
G01 X-29.3620 Y36.1300 
G01 X-29.3620 Y36.1535 
G01 X-29.3650 Y36.1768 
G01 X-29.3620 Y36.2002 
G01 X-29.3620 Y37.3848 
G01 X-29.3377 Y37.4753 
G01 X-29.2909 Y37.5563 
G01 X-29.2247 Y37.6225 
G01 X-29.1436 Y37.6694 
G01 X-29.0532 Y37.6936 
G01 X-28.9595 Y37.6936 
G01 X-2.3909 Y37.6936 
G01 X-2.3005 Y37.6694 
G01 X-2.2194 Y37.6225 
G01 X-2.1532 Y37.5563 
G01 X-2.1064 Y37.4753 
G01 X-2.0822 Y37.3848 
G01 X-2.0822 Y36.0678 
G01 X-2.0791 Y36.0445 
G01 X-2.0822 Y36.0212 
G01 X-2.0822 Y35.9977 
G01 X-2.0882 Y35.9750 
G01 X-2.0913 Y35.9517 
G01 X-2.1003 Y35.9299 
G01 X-2.1064 Y35.9072 
G01 X-2.1181 Y35.8869 
G01 X-2.1271 Y35.8652 
G01 X-2.1415 Y35.8465 
G01 X-2.1532 Y35.8262 
G01 X-2.1698 Y35.8096 
G01 X-2.1841 Y35.7909 
G01 X-2.2028 Y35.7766 
G01 X-2.2194 Y35.7600 
G01 X-2.2398 Y35.7482 
G01 X-2.2584 Y35.7339 
G01 X-2.2801 Y35.7249 
G01 X-2.3005 Y35.7131 
G01 X-2.3232 Y35.7071 
G01 X-2.3449 Y35.6981 
G01 X-2.3682 Y35.6950 
G01 X-2.3909 Y35.6889 
G01 X-2.4144 Y35.6889 
G01 X-2.4378 Y35.6858 
G01 X-2.4611 Y35.6889 
G01 X-2.4846 Y35.6889 
G01 X-2.5073 Y35.6950 
G01 X-2.5306 Y35.6981 
G01 X-2.5523 Y35.7071 
G01 X-2.5750 Y35.7131 
G01 X-2.5954 Y35.7249 
G01 X-2.6171 Y35.7339 
G01 X-2.6357 Y35.7482 
G01 X-2.6561 Y35.7600 
G01 X-2.6667 Y35.7705 
G01 X-2.6431 Y35.6519 
G01 X-2.6431 Y35.4718 
G01 X-2.6782 Y35.2951 
G01 X-2.7471 Y35.1287 
G01 X-2.8472 Y34.9789 
G01 X-2.9746 Y34.8516 
G01 X-3.1243 Y34.7515 
G01 X-3.2907 Y34.6826 
G01 X-3.4674 Y34.6474 
G01 X-4.8315 Y34.6474 
G01 X-6.0031 Y33.4159 
G01 X-6.0031 Y14.8938 
G01 X-6.0018 Y14.8879 
G01 X-6.0031 Y14.8538 
G01 X-6.0031 Y14.8196 
G01 X-6.0047 Y14.8138 
G01 X-6.0049 Y14.8077 
G01 X-6.0151 Y14.7751 
G01 X-6.0239 Y14.7421 
G01 X-6.0269 Y14.7369 
G01 X-6.0287 Y14.7311 
G01 X-6.0418 Y14.7103 
G01 X-6.0068 Y14.7197 
G01 X-5.9815 Y14.7265 
G01 X-5.8879 Y14.7265 
G01 X-5.8257 Y14.7098 
G01 X-5.8918 Y14.8087 
G01 X-5.9607 Y14.9751 
G01 X-5.9959 Y15.1518 
G01 X-5.9959 Y15.3319 
G01 X-5.9607 Y15.5085 
G01 X-5.8918 Y15.6750 
G01 X-5.7917 Y15.8247 
G01 X-5.6644 Y15.9521 
G01 X-5.5146 Y16.0522 
G01 X-5.3482 Y16.1211 
G01 X-5.1715 Y16.1562 
G01 X-3.4674 Y16.1562 
G01 X-3.2907 Y16.1211 
G01 X-3.1243 Y16.0522 
G01 X-2.9746 Y15.9521 
G01 X-2.8472 Y15.8247 
G01 X-2.7471 Y15.6750 
G01 X-2.6782 Y15.5085 
G01 X-2.6431 Y15.3319 
G01 X-2.6431 Y15.1518 
G01 X-2.6667 Y15.0331 
G01 X-2.6561 Y15.0437 
G01 X-2.6357 Y15.0554 
G01 X-2.6171 Y15.0698 
G01 X-2.5954 Y15.0788 
G01 X-2.5750 Y15.0905 
G01 X-2.5523 Y15.0966 
G01 X-2.5306 Y15.1056 
G01 X-2.5073 Y15.1087 
G01 X-2.4846 Y15.1147 
G01 X-2.4611 Y15.1147 
G01 X-2.4378 Y15.1178 
G01 X-2.4144 Y15.1147 
G01 X-2.3909 Y15.1147 
G01 X-2.3682 Y15.1087 
G01 X-2.3449 Y15.1056 
G01 X-2.3232 Y15.0966 
G01 X-2.3005 Y15.0905 
G01 X-2.2801 Y15.0788 
G01 X-2.2584 Y15.0698 
G01 X-2.2398 Y15.0554 
G01 X-2.2194 Y15.0437 
G01 X-2.2028 Y15.0271 
G01 X-2.1841 Y15.0128 
G01 X-2.1698 Y14.9941 
G01 X-2.1532 Y14.9775 
G01 X-2.1415 Y14.9571 
G01 X-2.1271 Y14.9385 
G01 X-2.1181 Y14.9168 
G01 X-2.1064 Y14.8964 
G01 X-2.1003 Y14.8737 
G01 X-2.0913 Y14.8520 
G01 X-2.0882 Y14.8287 
G01 X-2.0822 Y14.8060 
G01 X-2.0822 Y14.7825 
G01 X-2.0791 Y14.7592 
G01 X-2.0822 Y14.7358 
G01 X-2.0822 Y13.2271 
G01 X-2.0802 Y13.2179 
G01 X-2.0822 Y13.1805 
G01 X-2.0822 Y13.1430 
G01 X-2.0846 Y13.1338 
G01 X-2.0851 Y13.1244 
G01 X-2.0967 Y13.0887 
G01 X-2.1064 Y13.0525 
G01 X-2.1111 Y13.0443 
G01 X-2.1140 Y13.0354 
G01 X-2.1345 Y13.0039 
G01 X-2.1532 Y12.9714 
G01 X-2.1599 Y12.9648 
G01 X-2.1650 Y12.9568 
G01 X-2.1929 Y12.9317 
G01 X-2.2194 Y12.9052 
G01 X-2.2276 Y12.9005 
G01 X-2.2346 Y12.8942 
G01 X-2.2680 Y12.8772 
G01 X-2.3005 Y12.8584 
G01 X-2.3096 Y12.8560 
G01 X-2.3180 Y12.8517 
G01 X-2.3547 Y12.8439 
G01 X-2.3909 Y12.8342 
G01 X-2.4004 Y12.8342 
G01 X-2.4096 Y12.8322 
G01 X-2.4471 Y12.8342 
G01 X-2.4846 Y12.8342 
G01 X-2.4937 Y12.8366 
G01 X-2.5031 Y12.8371 
G01 X-2.5388 Y12.8487 
G01 X-2.5750 Y12.8584 
G01 X-2.5832 Y12.8631 
G01 X-2.5922 Y12.8660 
G01 X-2.6236 Y12.8865 
G01 X-2.6561 Y12.9052 
G01 X-2.6628 Y12.9119 
G01 X-2.6676 Y12.9150 
G01 X-2.6431 Y12.7919 
G01 X-2.6431 Y12.6118 
G01 X-2.6676 Y12.4886 
G01 X-2.6628 Y12.4918 
G01 X-2.6561 Y12.4984 
G01 X-2.6236 Y12.5172 
G01 X-2.5922 Y12.5376 
G01 X-2.5832 Y12.5405 
G01 X-2.5750 Y12.5452 
G01 X-2.5388 Y12.5549 
G01 X-2.5031 Y12.5665 
G01 X-2.4937 Y12.5670 
G01 X-2.4846 Y12.5695 
G01 X-2.4471 Y12.5695 
G01 X-2.4096 Y12.5714 
G01 X-2.4004 Y12.5695 
G01 X-2.3909 Y12.5695 
G01 X-2.3547 Y12.5598 
G01 X-2.3180 Y12.5520 
G01 X-2.3096 Y12.5477 
G01 X-2.3005 Y12.5452 
G01 X-2.2680 Y12.5265 
G01 X-2.2346 Y12.5095 
G01 X-2.2276 Y12.5031 
G01 X-2.2194 Y12.4984 
G01 X-2.1929 Y12.4719 
G01 X-2.1650 Y12.4468 
G01 X-2.1599 Y12.4389 
G01 X-2.1532 Y12.4322 
G01 X-2.1345 Y12.3998 
G01 X-2.1140 Y12.3683 
G01 X-2.1111 Y12.3593 
G01 X-2.1064 Y12.3511 
G01 X-2.0967 Y12.3149 
G01 X-2.0851 Y12.2792 
G01 X-2.0846 Y12.2698 
G01 X-2.0822 Y12.2607 
G01 X-2.0822 Y12.2232 
G01 X-2.0802 Y12.1857 
G01 X-2.0822 Y12.1765 
G01 X-2.0822 Y10.6678 
G01 X-2.0791 Y10.6445 
G01 X-2.0822 Y10.6212 
G01 X-2.0822 Y10.5977 
G01 X-2.0882 Y10.5750 
G01 X-2.0913 Y10.5517 
G01 X-2.1003 Y10.5299 
G01 X-2.1064 Y10.5073 
G01 X-2.1181 Y10.4869 
G01 X-2.1271 Y10.4652 
G01 X-2.1415 Y10.4465 
G01 X-2.1532 Y10.4262 
G01 X-2.1698 Y10.4095 
G01 X-2.1841 Y10.3909 
G01 X-2.2028 Y10.3766 
G01 X-2.2194 Y10.3600 
G01 X-2.2398 Y10.3482 
G01 X-2.2584 Y10.3339 
G01 X-2.2801 Y10.3249 
G01 X-2.3005 Y10.3131 
G01 X-2.3232 Y10.3071 
G01 X-2.3449 Y10.2981 
G01 X-2.3682 Y10.2950 
G01 X-2.3909 Y10.2889 
G01 X-2.4144 Y10.2889 
G01 X-2.4378 Y10.2858 
G01 X-2.4611 Y10.2889 
G01 X-2.4846 Y10.2889 
G01 X-2.5073 Y10.2950 
G01 X-2.5306 Y10.2981 
G01 X-2.5523 Y10.3071 
G01 X-2.5750 Y10.3131 
G01 X-2.5954 Y10.3249 
G01 X-2.6171 Y10.3339 
G01 X-2.6357 Y10.3482 
G01 X-2.6561 Y10.3600 
G01 X-2.6667 Y10.3705 
G01 X-2.6431 Y10.2519 
G01 X-2.6431 Y10.0718 
G01 X-2.6667 Y9.9531 
G01 X-2.6561 Y9.9637 
G01 X-2.6357 Y9.9754 
G01 X-2.6171 Y9.9898 
G01 X-2.5954 Y9.9988 
G01 X-2.5750 Y10.0105 
G01 X-2.5523 Y10.0166 
G01 X-2.5306 Y10.0256 
G01 X-2.5073 Y10.0287 
G01 X-2.4846 Y10.0347 
G01 X-2.4611 Y10.0347 
G01 X-2.4378 Y10.0378 
G01 X-2.4144 Y10.0347 
G01 X-2.3909 Y10.0347 
G01 X-2.3682 Y10.0287 
G01 X-2.3449 Y10.0256 
G01 X-2.3232 Y10.0166 
G01 X-2.3005 Y10.0105 
G01 X-2.2801 Y9.9988 
G01 X-2.2584 Y9.9898 
G01 X-2.2398 Y9.9754 
G01 X-2.2194 Y9.9637 
G01 X-2.2028 Y9.9471 
G01 X-2.1841 Y9.9328 
G01 X-2.1698 Y9.9141 
G01 X-2.1532 Y9.8975 
G01 X-2.1415 Y9.8771 
G01 X-2.1271 Y9.8585 
G01 X-2.1181 Y9.8368 
G01 X-2.1064 Y9.8164 
G01 X-2.1003 Y9.7937 
G01 X-2.0913 Y9.7720 
G01 X-2.0882 Y9.7487 
G01 X-2.0822 Y9.7260 
G01 X-2.0822 Y9.7025 
G01 X-2.0791 Y9.6791 
G01 X-2.0822 Y9.6558 
G01 X-2.0822 Y8.1278 
G01 X-2.0791 Y8.1045 
G01 X-2.0822 Y8.0812 
G01 X-2.0822 Y8.0577 
G01 X-2.0882 Y8.0350 
G01 X-2.0913 Y8.0117 
G01 X-2.1003 Y7.9899 
G01 X-2.1064 Y7.9672 
G01 X-2.1181 Y7.9469 
G01 X-2.1271 Y7.9252 
G01 X-2.1415 Y7.9065 
G01 X-2.1532 Y7.8862 
G01 X-2.1698 Y7.8696 
G01 X-2.1841 Y7.8509 
G01 X-2.2028 Y7.8366 
G01 X-2.2194 Y7.8200 
G01 X-2.2398 Y7.8082 
G01 X-2.2584 Y7.7939 
G01 X-2.2801 Y7.7849 
G01 X-2.3005 Y7.7731 
G01 X-2.3232 Y7.7671 
G01 X-2.3449 Y7.7581 
G01 X-2.3682 Y7.7550 
G01 X-2.3909 Y7.7489 
G01 X-2.4144 Y7.7489 
G01 X-2.4378 Y7.7458 
G01 X-2.4611 Y7.7489 
G01 X-2.4846 Y7.7489 
G01 X-2.5073 Y7.7550 
G01 X-2.5306 Y7.7581 
G01 X-2.5523 Y7.7671 
G01 X-2.5750 Y7.7731 
G01 X-2.5954 Y7.7849 
G01 X-2.6171 Y7.7939 
G01 X-2.6357 Y7.8082 
G01 X-2.6561 Y7.8200 
G01 X-2.6667 Y7.8305 
G01 X-2.6431 Y7.7119 
G01 X-2.6431 Y7.5318 
G01 X-2.6667 Y7.4131 
G01 X-2.6561 Y7.4237 
G01 X-2.6357 Y7.4354 
G01 X-2.6171 Y7.4498 
G01 X-2.5954 Y7.4588 
G01 X-2.5750 Y7.4705 
G01 X-2.5523 Y7.4766 
G01 X-2.5306 Y7.4856 
G01 X-2.5073 Y7.4887 
G01 X-2.4846 Y7.4947 
G01 X-2.4611 Y7.4947 
G01 X-2.4378 Y7.4978 
G01 X-2.4144 Y7.4947 
G01 X-2.3909 Y7.4947 
G01 X-2.3682 Y7.4887 
G01 X-2.3449 Y7.4856 
G01 X-2.3232 Y7.4766 
G01 X-2.3005 Y7.4705 
G01 X-2.2801 Y7.4588 
G01 X-2.2584 Y7.4498 
G01 X-2.2398 Y7.4354 
G01 X-2.2194 Y7.4237 
G01 X-2.2028 Y7.4071 
G01 X-2.1841 Y7.3928 
G01 X-2.1698 Y7.3741 
G01 X-2.1532 Y7.3575 
G01 X-2.1415 Y7.3371 
G01 X-2.1271 Y7.3185 
G01 X-2.1181 Y7.2968 
G01 X-2.1064 Y7.2764 
G01 X-2.1003 Y7.2537 
G01 X-2.0913 Y7.2320 
G01 X-2.0882 Y7.2087 
G01 X-2.0822 Y7.1860 
G01 X-2.0822 Y7.1625 
G01 X-2.0791 Y7.1391 
G01 X-2.0822 Y7.1158 
G01 X-2.0822 Y5.5878 
G01 X-2.0791 Y5.5645 
G01 X-2.0822 Y5.5412 
G01 X-2.0822 Y5.5177 
G01 X-2.0882 Y5.4950 
G01 X-2.0913 Y5.4717 
G01 X-2.1003 Y5.4499 
G01 X-2.1064 Y5.4272 
G01 X-2.1181 Y5.4069 
G01 X-2.1271 Y5.3852 
G01 X-2.1415 Y5.3665 
G01 X-2.1532 Y5.3462 
G01 X-2.1698 Y5.3296 
G01 X-2.1841 Y5.3109 
G01 X-2.2028 Y5.2966 
G01 X-2.2194 Y5.2800 
G01 X-2.2398 Y5.2682 
G01 X-2.2584 Y5.2539 
G01 X-2.2801 Y5.2449 
G01 X-2.3005 Y5.2331 
G01 X-2.3232 Y5.2271 
G01 X-2.3449 Y5.2181 
G01 X-2.3682 Y5.2150 
G01 X-2.3909 Y5.2089 
G01 X-2.4144 Y5.2089 
G01 X-2.4378 Y5.2058 
G01 X-2.4611 Y5.2089 
G01 X-2.4846 Y5.2089 
G01 X-2.5073 Y5.2150 
G01 X-2.5306 Y5.2181 
G01 X-2.5523 Y5.2271 
G01 X-2.5750 Y5.2331 
G01 X-2.5954 Y5.2449 
G01 X-2.6171 Y5.2539 
G01 X-2.6357 Y5.2682 
G01 X-2.6561 Y5.2800 
G01 X-2.6667 Y5.2905 
G01 X-2.6431 Y5.1719 
G01 X-2.6431 Y4.9918 
G01 X-2.6667 Y4.8731 
G01 X-2.6561 Y4.8837 
G01 X-2.6357 Y4.8954 
G01 X-2.6171 Y4.9098 
G01 X-2.5954 Y4.9188 
G01 X-2.5750 Y4.9305 
G01 X-2.5523 Y4.9366 
G01 X-2.5306 Y4.9456 
G01 X-2.5073 Y4.9487 
G01 X-2.4846 Y4.9547 
G01 X-2.4611 Y4.9547 
G01 X-2.4378 Y4.9578 
G01 X-2.4144 Y4.9547 
G01 X-2.3909 Y4.9547 
G01 X-2.3682 Y4.9487 
G01 X-2.3449 Y4.9456 
G01 X-2.3232 Y4.9366 
G01 X-2.3005 Y4.9305 
G01 X-2.2801 Y4.9188 
G01 X-2.2584 Y4.9098 
G01 X-2.2398 Y4.8954 
G01 X-2.2194 Y4.8837 
G01 X-2.2028 Y4.8671 
G01 X-2.1841 Y4.8528 
G01 X-2.1698 Y4.8341 
G01 X-2.1532 Y4.8175 
G01 X-2.1415 Y4.7971 
G01 X-2.1271 Y4.7785 
G01 X-2.1181 Y4.7567 
G01 X-2.1064 Y4.7364 
G01 X-2.1003 Y4.7137 
G01 X-2.0913 Y4.6920 
G01 X-2.0882 Y4.6687 
G01 X-2.0822 Y4.6460 
G01 X-2.0822 Y4.6225 
G01 X-2.0791 Y4.5991 
G01 X-2.0822 Y4.5758 
G01 X-2.0822 Y3.2409 
G01 X-2.1064 Y3.1505 
G01 X-2.1532 Y3.0694 
G00 Z2.0000 
G00 X-9.6700 Y3.4970 
G01 Z0.0000 F254.00 
G01 X-9.6647 Y3.5061 F508.00 
G01 X-9.6481 Y3.5227 
G01 X-9.6337 Y3.5414 
G01 X-9.6151 Y3.5557 
G01 X-9.5985 Y3.5723 
G01 X-9.7426 Y3.5730 
G01 X-9.7248 Y3.5557 
G01 X-9.7062 Y3.5414 
G01 X-9.6918 Y3.5227 
G01 X-9.6752 Y3.5061 
G01 X-9.6700 Y3.4970 
G00 Z2.0000 
G00 X-9.3652 Y6.8748 
G01 Z0.0000 F254.00 
G01 X-9.3497 Y6.8684 F508.00 
G01 X-9.3567 Y6.8805 
G01 X-9.3652 Y6.8916 
G01 X-9.3652 Y6.8748 
G00 Z2.0000 
G00 X-9.9748 Y6.8748 
G01 Z0.0000 F254.00 
G01 X-9.9748 Y6.8916 F508.00 
G01 X-9.9833 Y6.8805 
G01 X-9.9902 Y6.8684 
G01 X-9.9748 Y6.8748 
G00 Z2.0000 
G00 X-9.9748 Y7.5005 
G01 Z0.0000 F254.00 
G01 X-9.9748 Y8.2196 F508.00 
G01 X-10.0910 Y8.2196 
G01 X-10.0910 Y7.7441 
G01 X-10.1142 Y7.6881 
G01 X-10.1513 Y7.6510 
G01 X-10.1423 Y7.6486 
G01 X-10.0612 Y7.6018 
G01 X-9.9950 Y7.5356 
G01 X-9.9748 Y7.5005 
G00 Z2.0000 
G00 X-9.9748 Y8.8292 
G01 Z0.0000 F254.00 
G01 X-9.9748 Y10.1263 F508.00 
G01 X-10.1031 Y10.1794 
G01 X-10.2529 Y10.2795 
G01 X-10.3802 Y10.4069 
G01 X-10.4803 Y10.5566 
G01 X-10.5492 Y10.7230 
G01 X-10.5844 Y10.8997 
G01 X-10.5844 Y12.6038 
G01 X-10.5492 Y12.7805 
G01 X-10.4803 Y12.9469 
G01 X-10.3802 Y13.0967 
G01 X-10.2529 Y13.2240 
G01 X-10.1031 Y13.3241 
G01 X-9.9367 Y13.3930 
G01 X-9.7600 Y13.4282 
G01 X-9.5799 Y13.4282 
G01 X-9.4032 Y13.3930 
G01 X-9.2368 Y13.3241 
G01 X-9.0871 Y13.2240 
G01 X-8.9597 Y13.0967 
G01 X-8.8596 Y12.9469 
G01 X-8.8504 Y12.9245 
G01 X-6.6127 Y14.9931 
G01 X-6.6127 Y31.6519 
G01 X-6.6213 Y31.6408 
G01 X-6.6330 Y31.6205 
G01 X-6.6496 Y31.6038 
G01 X-6.6640 Y31.5851 
G01 X-6.6826 Y31.5708 
G01 X-6.6992 Y31.5543 
G01 X-6.7196 Y31.5425 
G01 X-6.7383 Y31.5281 
G01 X-6.7600 Y31.5192 
G01 X-6.7803 Y31.5074 
G01 X-6.8030 Y31.5013 
G01 X-6.8248 Y31.4923 
G01 X-6.8481 Y31.4893 
G01 X-6.8707 Y31.4832 
G01 X-6.8943 Y31.4832 
G01 X-6.9177 Y31.4801 
G01 X-6.9409 Y31.4832 
G01 X-6.9643 Y31.4832 
G01 X-6.9871 Y31.4893 
G01 X-7.0105 Y31.4924 
G01 X-7.0321 Y31.5014 
G01 X-7.0548 Y31.5074 
G01 X-7.0752 Y31.5192 
G01 X-7.0970 Y31.5283 
G01 X-7.1156 Y31.5425 
G01 X-7.1276 Y31.5495 
G01 X-7.1022 Y31.4881 
G01 X-7.0762 Y31.3573 
G01 X-7.0762 Y31.2238 
G01 X-7.1022 Y31.0930 
G01 X-7.1533 Y30.9697 
G01 X-7.2274 Y30.8587 
G01 X-7.3217 Y30.7644 
G01 X-7.4327 Y30.6903 
G01 X-7.5560 Y30.6392 
G01 X-7.6868 Y30.6132 
G01 X-8.8703 Y30.6132 
G01 X-9.0011 Y30.6392 
G01 X-9.1244 Y30.6903 
G01 X-9.2354 Y30.7644 
G01 X-9.3297 Y30.8587 
G01 X-9.4039 Y30.9697 
G01 X-9.4549 Y31.0930 
G01 X-9.4810 Y31.2238 
G01 X-9.4810 Y31.3573 
G01 X-9.4777 Y31.3735 
G01 X-9.4904 Y31.3638 
G01 X-9.5070 Y31.3472 
G01 X-9.5274 Y31.3354 
G01 X-9.5460 Y31.3211 
G01 X-9.5677 Y31.3121 
G01 X-9.5881 Y31.3004 
G01 X-9.6108 Y31.2943 
G01 X-9.6325 Y31.2853 
G01 X-9.6558 Y31.2822 
G01 X-9.6785 Y31.2761 
G01 X-9.7020 Y31.2761 
G01 X-9.7254 Y31.2731 
G01 X-9.7487 Y31.2761 
G01 X-9.7722 Y31.2761 
G01 X-9.7949 Y31.2822 
G01 X-9.8182 Y31.2853 
G01 X-9.8399 Y31.2943 
G01 X-9.8626 Y31.3004 
G01 X-9.8830 Y31.3121 
G01 X-9.9047 Y31.3211 
G01 X-9.9233 Y31.3354 
G01 X-9.9437 Y31.3472 
G01 X-9.9603 Y31.3638 
G01 X-9.9790 Y31.3781 
G01 X-9.9933 Y31.3968 
G01 X-10.0099 Y31.4134 
G01 X-10.0216 Y31.4337 
G01 X-10.0302 Y31.4448 
G01 X-10.0302 Y30.1282 
G01 X-10.0534 Y30.0722 
G01 X-10.0962 Y30.0294 
G01 X-10.1522 Y30.0062 
G01 X-10.1993 Y30.0062 
G01 X-9.7587 Y29.5656 
G01 X-9.4228 Y29.5656 
G01 X-9.4039 Y29.6114 
G01 X-9.3297 Y29.7224 
G01 X-9.2354 Y29.8167 
G01 X-9.1244 Y29.8909 
G01 X-9.0011 Y29.9419 
G01 X-8.8703 Y29.9680 
G01 X-7.6868 Y29.9680 
G01 X-7.5560 Y29.9419 
G01 X-7.4327 Y29.8909 
G01 X-7.3217 Y29.8167 
G01 X-7.2274 Y29.7224 
G01 X-7.1533 Y29.6114 
G01 X-7.1022 Y29.4881 
G01 X-7.0762 Y29.3573 
G01 X-7.0762 Y29.2238 
G01 X-7.1022 Y29.0930 
G01 X-7.1533 Y28.9697 
G01 X-7.2274 Y28.8587 
G01 X-7.3217 Y28.7644 
G01 X-7.4327 Y28.6903 
G01 X-7.5560 Y28.6392 
G01 X-7.6868 Y28.6132 
G01 X-8.8703 Y28.6132 
G01 X-9.0011 Y28.6392 
G01 X-9.1244 Y28.6903 
G01 X-9.2354 Y28.7644 
G01 X-9.3254 Y28.8544 
G01 X-9.9528 Y28.8544 
G01 X-10.0433 Y28.8786 
G01 X-10.1243 Y28.9255 
G01 X-10.1905 Y28.9917 
G01 X-11.1171 Y29.9182 
G01 X-11.1639 Y29.9993 
G01 X-11.1658 Y30.0062 
G01 X-11.5129 Y30.0062 
G01 X-11.5689 Y30.0294 
G01 X-11.6118 Y30.0722 
G01 X-11.6205 Y30.0934 
G01 X-11.6205 Y27.4500 
G01 X-10.9292 Y27.4500 
G01 X-10.8732 Y27.4268 
G01 X-10.8304 Y27.3839 
G01 X-10.8072 Y27.3279 
G01 X-10.8072 Y25.8132 
G01 X-9.8001 Y24.9036 
G01 X-9.7922 Y24.8990 
G01 X-9.7655 Y24.8723 
G01 X-9.7374 Y24.8470 
G01 X-9.7324 Y24.8393 
G01 X-9.7260 Y24.8328 
G01 X-9.7071 Y24.8001 
G01 X-9.6866 Y24.7684 
G01 X-9.6837 Y24.7596 
G01 X-9.6792 Y24.7517 
G01 X-9.6694 Y24.7152 
G01 X-9.6578 Y24.6793 
G01 X-9.6573 Y24.6701 
G01 X-9.6549 Y24.6613 
G01 X-9.6549 Y24.6235 
G01 X-9.6530 Y24.5857 
G01 X-9.6549 Y24.5768 
G01 X-9.6549 Y19.6596 
G01 X-9.3717 Y19.6596 
G01 X-9.3297 Y19.7224 
G01 X-9.2354 Y19.8167 
G01 X-9.1244 Y19.8909 
G01 X-9.0011 Y19.9419 
G01 X-8.8703 Y19.9680 
G01 X-7.6868 Y19.9680 
G01 X-7.5560 Y19.9419 
G01 X-7.4327 Y19.8909 
G01 X-7.3217 Y19.8167 
G01 X-7.2274 Y19.7224 
G01 X-7.1533 Y19.6114 
G01 X-7.1022 Y19.4881 
G01 X-7.0762 Y19.3573 
G01 X-7.0762 Y19.2238 
G01 X-7.1022 Y19.0930 
G01 X-7.1533 Y18.9697 
G01 X-7.2274 Y18.8587 
G01 X-7.3217 Y18.7644 
G01 X-7.4327 Y18.6903 
G01 X-7.5560 Y18.6392 
G01 X-7.6868 Y18.6132 
G01 X-8.5344 Y18.6132 
G01 X-8.5344 Y15.9552 
G01 X-8.5586 Y15.8647 
G01 X-8.6054 Y15.7837 
G01 X-8.6717 Y15.7174 
G01 X-12.4378 Y11.9513 
G01 X-12.4378 Y9.4268 
G01 X-12.1131 Y9.4268 
G01 X-12.0571 Y9.4036 
G01 X-12.0142 Y9.3608 
G01 X-11.9910 Y9.3048 
G01 X-11.9910 Y7.7533 
G01 X-11.9807 Y7.7592 
G01 X-11.8903 Y7.7835 
G01 X-11.7966 Y7.7835 
G01 X-11.7492 Y7.7708 
G01 X-11.7062 Y7.7592 
G01 X-11.6958 Y7.7533 
G01 X-11.6958 Y9.3048 
G01 X-11.6726 Y9.3608 
G01 X-11.6298 Y9.4036 
G01 X-11.5738 Y9.4268 
G01 X-10.2131 Y9.4268 
G01 X-10.1571 Y9.4036 
G01 X-10.1142 Y9.3608 
G01 X-10.0910 Y9.3048 
G01 X-10.0910 Y8.8292 
G01 X-9.9748 Y8.8292 
G00 Z2.0000 
G00 X-9.3652 Y10.1095 
G01 Z0.0000 F254.00 
G01 X-9.3567 Y10.1206 F508.00 
G01 X-9.3497 Y10.1327 
G01 X-9.3652 Y10.1263 
G01 X-9.3652 Y10.1095 
G00 Z2.0000 
G00 X-13.1490 Y10.2039 
G01 Z0.0000 F254.00 
G01 X-13.1490 Y12.1454 F508.00 
G01 X-13.1248 Y12.2358 
G01 X-13.0780 Y12.3169 
G01 X-12.9234 Y12.4715 
G01 X-12.9427 Y12.4652 
G01 X-12.9521 Y12.4647 
G01 X-12.9612 Y12.4623 
G01 X-12.9987 Y12.4623 
G01 X-13.0362 Y12.4603 
G01 X-13.0454 Y12.4623 
G01 X-13.0549 Y12.4623 
G01 X-13.0911 Y12.4720 
G01 X-13.1278 Y12.4798 
G01 X-13.1362 Y12.4841 
G01 X-13.1453 Y12.4865 
G01 X-13.1778 Y12.5053 
G01 X-13.2112 Y12.5223 
G01 X-13.2182 Y12.5286 
G01 X-13.2264 Y12.5334 
G01 X-13.2529 Y12.5599 
G01 X-13.2768 Y12.5814 
G01 X-13.2768 Y10.8997 
G01 X-13.3119 Y10.7230 
G01 X-13.3808 Y10.5566 
G01 X-13.4809 Y10.4069 
G01 X-13.5185 Y10.3692 
G01 X-13.5007 Y10.3740 
G01 X-13.4725 Y10.3740 
G01 X-13.4444 Y10.3770 
G01 X-13.4258 Y10.3740 
G01 X-13.4070 Y10.3740 
G01 X-13.3798 Y10.3667 
G01 X-13.3520 Y10.3623 
G01 X-13.3348 Y10.3547 
G01 X-13.3166 Y10.3498 
G01 X-13.2922 Y10.3357 
G01 X-13.2664 Y10.3242 
G01 X-13.2518 Y10.3124 
G01 X-13.2355 Y10.3030 
G01 X-13.2156 Y10.2831 
G01 X-13.1937 Y10.2653 
G01 X-13.1826 Y10.2501 
G01 X-13.1693 Y10.2368 
G01 X-13.1552 Y10.2124 
G01 X-13.1490 Y10.2039 
G00 Z2.0000 
G00 X-13.1490 Y9.5484 
G01 Z0.0000 F254.00 
G01 X-13.1693 Y9.5133 F508.00 
G01 X-13.2355 Y9.4471 
G01 X-13.2706 Y9.4268 
G01 X-13.1490 Y9.4268 
G01 X-13.1490 Y9.5484 
G00 Z2.0000 
G00 X-13.5958 Y9.0016 
G01 Z0.0000 F254.00 
G01 X-13.6161 Y8.9665 F508.00 
G01 X-13.6823 Y8.9003 
G01 X-13.7174 Y8.8800 
G01 X-13.5958 Y8.8800 
G01 X-13.5958 Y9.0016 
G00 Z2.0000 
G00 X-13.5958 Y8.1688 
G01 Z0.0000 F254.00 
G01 X-13.7174 Y8.1688 F508.00 
G01 X-13.6823 Y8.1486 
G01 X-13.6161 Y8.0824 
G01 X-13.5958 Y8.0473 
G01 X-13.5958 Y8.1688 
G00 Z2.0000 
G00 X-17.6841 Y8.1688 
G01 Z0.0000 F254.00 
G01 X-17.8056 Y8.1688 F508.00 
G01 X-17.8056 Y8.0473 
G01 X-17.7853 Y8.0824 
G01 X-17.7191 Y8.1486 
G01 X-17.6841 Y8.1688 
G00 Z2.0000 
G00 X-17.6841 Y8.8800 
G01 Z0.0000 F254.00 
G01 X-17.7191 Y8.9003 F508.00 
G01 X-17.7853 Y8.9665 
G01 X-17.8056 Y9.0016 
G01 X-17.8056 Y8.8800 
G01 X-17.6841 Y8.8800 
G00 Z2.0000 
G00 X-19.4104 Y9.4072 
G01 Z0.0000 F254.00 
G01 X-19.4207 Y9.4012 F508.00 
G01 X-19.4617 Y9.3902 
G01 X-19.5112 Y9.3770 
G01 X-19.6048 Y9.3770 
G01 X-19.6953 Y9.4012 
G01 X-19.7056 Y9.4072 
G01 X-19.7056 Y7.8648 
G01 X-19.6953 Y7.8708 
G01 X-19.6048 Y7.8950 
G01 X-19.5112 Y7.8950 
G01 X-19.4638 Y7.8823 
G01 X-19.4207 Y7.8708 
G01 X-19.4104 Y7.8648 
G01 X-19.4104 Y9.4072 
G00 Z2.0000 
G00 X-21.3104 Y9.4163 
G01 Z0.0000 F254.00 
G01 X-21.2872 Y9.4723 F508.00 
G01 X-21.2685 Y9.4910 
G01 X-21.3463 Y9.5118 
G01 X-21.4273 Y9.5586 
G01 X-21.4935 Y9.6249 
G01 X-21.5138 Y9.6599 
G01 X-21.5138 Y8.9408 
G01 X-21.3104 Y8.9408 
G01 X-21.3104 Y9.4163 
G00 Z2.0000 
G00 X-21.5138 Y10.1095 
G01 Z0.0000 F254.00 
G01 X-21.5053 Y10.1206 F508.00 
G01 X-21.4983 Y10.1327 
G01 X-21.5138 Y10.1263 
G01 X-21.5138 Y10.1095 
G00 Z2.0000 
G00 X-21.5138 Y8.3312 
G01 Z0.0000 F254.00 
G01 X-21.5138 Y7.6121 F508.00 
G01 X-21.4935 Y7.6471 
G01 X-21.4273 Y7.7133 
G01 X-21.3463 Y7.7602 
G01 X-21.2685 Y7.7810 
G01 X-21.2872 Y7.7997 
G01 X-21.3104 Y7.8557 
G01 X-21.3104 Y8.3312 
G01 X-21.5138 Y8.3312 
G00 Z2.0000 
G00 X-21.5138 Y6.8916 
G01 Z0.0000 F254.00 
G01 X-21.5138 Y6.8748 F508.00 
G01 X-21.4983 Y6.8684 
G01 X-21.5053 Y6.8805 
G01 X-21.5138 Y6.8916 
G00 Z2.0000 
G00 X-25.7072 Y7.0389 
G01 Z0.0000 F254.00 
G01 X-25.8346 Y6.9116 F508.00 
G01 X-25.9843 Y6.8115 
G01 X-26.1507 Y6.7426 
G01 X-26.3274 Y6.7074 
G01 X-28.0315 Y6.7074 
G01 X-28.2082 Y6.7426 
G01 X-28.3746 Y6.8115 
G01 X-28.5244 Y6.9116 
G01 X-28.6517 Y7.0389 
G01 X-28.7518 Y7.1887 
G01 X-28.8207 Y7.3551 
G01 X-28.8559 Y7.5318 
G01 X-28.8559 Y7.7119 
G01 X-28.8207 Y7.8885 
G01 X-28.7518 Y8.0550 
G01 X-28.6517 Y8.2047 
G01 X-28.5244 Y8.3321 
G01 X-28.3746 Y8.4322 
G01 X-28.2082 Y8.5011 
G01 X-28.0315 Y8.5362 
G01 X-26.3274 Y8.5362 
G01 X-26.1507 Y8.5011 
G01 X-25.9843 Y8.4322 
G01 X-25.8346 Y8.3321 
G01 X-25.7072 Y8.2047 
G01 X-25.6071 Y8.0550 
G01 X-25.5382 Y7.8885 
G01 X-25.5031 Y7.7119 
G01 X-25.5031 Y7.5318 
G01 X-25.5382 Y7.3551 
G01 X-25.6071 Y7.1887 
G01 X-25.7072 Y7.0389 
G00 Z2.0000 
G00 X-25.8346 Y5.7921 
G01 Z0.0000 F254.00 
G01 X-25.7072 Y5.6647 F508.00 
G01 X-25.6071 Y5.5150 
G01 X-25.5382 Y5.3485 
G01 X-25.5031 Y5.1719 
G01 X-25.5031 Y4.9918 
G01 X-25.5382 Y4.8151 
G01 X-25.6071 Y4.6487 
G01 X-25.7072 Y4.4989 
G01 X-25.8346 Y4.3716 
G01 X-25.9843 Y4.2715 
G01 X-26.1507 Y4.2026 
G01 X-26.3274 Y4.1674 
G01 X-28.0315 Y4.1674 
G01 X-28.2082 Y4.2026 
G01 X-28.3746 Y4.2715 
G01 X-28.5244 Y4.3716 
G01 X-28.6517 Y4.4989 
G01 X-28.7518 Y4.6487 
G01 X-28.8207 Y4.8151 
G01 X-28.8559 Y4.9918 
G01 X-28.8559 Y5.1719 
G01 X-28.8207 Y5.3485 
G01 X-28.7518 Y5.5150 
G01 X-28.6517 Y5.6647 
G01 X-28.5244 Y5.7921 
G01 X-28.3746 Y5.8922 
G01 X-28.2082 Y5.9611 
G01 X-28.0315 Y5.9962 
G01 X-26.3274 Y5.9962 
G01 X-26.1507 Y5.9611 
G01 X-25.9843 Y5.8922 
G01 X-25.8346 Y5.7921 
G00 Z2.0000 
G00 X-25.5743 Y13.0556 
G01 Z0.0000 F254.00 
G01 X-25.5473 Y13.0556 F508.00 
G01 X-25.4268 Y13.1761 
G01 X-25.4406 Y13.1724 
G01 X-25.4659 Y13.1656 
G01 X-25.5595 Y13.1656 
G01 X-25.6425 Y13.1879 
G01 X-25.6071 Y13.1350 
G01 X-25.5743 Y13.0556 
G00 Z2.0000 
G00 X-22.3735 Y18.2614 
G01 Z0.0000 F254.00 
G01 X-21.9744 Y18.6605 F508.00 
G01 X-21.9884 Y18.6558 
G01 X-22.0002 Y18.6550 
G01 X-22.0116 Y18.6519 
G01 X-22.0468 Y18.6519 
G01 X-22.0819 Y18.6496 
G01 X-22.0934 Y18.6519 
G01 X-22.1052 Y18.6519 
G01 X-22.1392 Y18.6610 
G01 X-22.1737 Y18.6679 
G01 X-22.1843 Y18.6731 
G01 X-22.1957 Y18.6762 
G01 X-22.2261 Y18.6937 
G01 X-22.2577 Y18.7093 
G01 X-22.2665 Y18.7171 
G01 X-22.2768 Y18.7230 
G01 X-22.3016 Y18.7478 
G01 X-22.3281 Y18.7710 
G01 X-22.3346 Y18.7809 
G01 X-22.3430 Y18.7892 
G01 X-22.3605 Y18.8196 
G01 X-22.3801 Y18.8489 
G01 X-22.3839 Y18.8601 
G01 X-22.3898 Y18.8703 
G01 X-22.3989 Y18.9042 
G01 X-22.4093 Y18.9349 
G01 X-22.4265 Y18.9349 
G01 X-22.4774 Y18.8587 
G01 X-22.5717 Y18.7644 
G01 X-22.6479 Y18.7135 
G01 X-22.6479 Y18.6963 
G01 X-22.6173 Y18.6859 
G01 X-22.5833 Y18.6768 
G01 X-22.5731 Y18.6709 
G01 X-22.5619 Y18.6671 
G01 X-22.5327 Y18.6476 
G01 X-22.5022 Y18.6300 
G01 X-22.4938 Y18.6216 
G01 X-22.4840 Y18.6151 
G01 X-22.4609 Y18.5886 
G01 X-22.4360 Y18.5638 
G01 X-22.4301 Y18.5535 
G01 X-22.4223 Y18.5447 
G01 X-22.4067 Y18.5131 
G01 X-22.3892 Y18.4827 
G01 X-22.3861 Y18.4713 
G01 X-22.3809 Y18.4607 
G01 X-22.3740 Y18.4262 
G01 X-22.3649 Y18.3922 
G01 X-22.3649 Y18.3804 
G01 X-22.3626 Y18.3689 
G01 X-22.3649 Y18.3338 
G01 X-22.3649 Y18.2986 
G01 X-22.3680 Y18.2872 
G01 X-22.3687 Y18.2754 
G01 X-22.3735 Y18.2614 
G00 Z2.0000 
G00 X-22.3483 Y20.8051 
G01 Z0.0000 F254.00 
G01 X-22.3057 Y20.7937 F508.00 
G01 X-22.2634 Y20.7692 
G01 X-22.2384 Y20.7548 
G01 X-22.2384 Y21.0464 
G01 X-22.3715 Y21.0464 
G01 X-22.4033 Y20.9697 
G01 X-22.4774 Y20.8587 
G01 X-22.5288 Y20.8074 
G01 X-22.4898 Y20.8178 
G01 X-22.4431 Y20.8178 
G01 X-22.3961 Y20.8179 
G01 X-22.3483 Y20.8051 
G00 Z2.0000 
G00 X-24.6139 Y20.9099 
G01 Z0.0000 F254.00 
G01 X-24.6306 Y20.9350 F508.00 
G01 X-24.7902 Y20.9350 
G01 X-24.8090 Y20.9161 
G01 X-24.7699 Y20.9266 
G01 X-24.6762 Y20.9266 
G01 X-24.6139 Y20.9099 
G00 Z2.0000 
G00 X-19.3323 Y18.6944 
G01 Z0.0000 F254.00 
G01 X-19.2972 Y18.6741 F508.00 
G01 X-19.2310 Y18.6079 
G01 X-19.1842 Y18.5269 
G01 X-19.1667 Y18.4617 
G01 X-19.1599 Y18.4364 
G01 X-19.1599 Y18.3428 
G01 X-19.1840 Y18.2530 
G01 X-19.0611 Y18.3039 
G01 X-18.9303 Y18.3300 
G01 X-18.7968 Y18.3300 
G01 X-18.6660 Y18.3039 
G01 X-18.5431 Y18.2530 
G01 X-18.5672 Y18.3428 
G01 X-18.5672 Y18.4364 
G01 X-18.5609 Y18.4596 
G01 X-18.5429 Y18.5269 
G01 X-18.4961 Y18.6079 
G01 X-18.4299 Y18.6741 
G01 X-18.3948 Y18.6944 
G01 X-19.3323 Y18.6944 
G00 Z2.0000 
G00 X-18.2571 Y19.4056 
G01 Z0.0000 F254.00 
G01 X-18.1356 Y19.4056 F508.00 
G01 X-18.1356 Y19.5271 
G01 X-18.1558 Y19.4921 
G01 X-18.2221 Y19.4258 
G01 X-18.2571 Y19.4056 
G00 Z2.0000 
G00 X-17.4244 Y21.7033 
G01 Z0.0000 F254.00 
G01 X-17.4170 Y21.7161 F508.00 
G01 X-17.4041 Y21.7384 
G01 X-17.3384 Y21.8041 
G01 X-17.2839 Y21.8358 
G01 X-17.2569 Y21.8514 
G01 X-17.2065 Y21.8649 
G01 X-17.1664 Y21.8756 
G01 X-17.1201 Y21.8756 
G01 X-17.0728 Y21.8756 
G01 X-17.0111 Y21.8591 
G01 X-16.9823 Y21.8514 
G01 X-16.9660 Y21.8419 
G01 X-16.9660 Y24.0292 
G01 X-16.9823 Y24.0197 
G01 X-17.0095 Y24.0124 
G01 X-17.0728 Y23.9955 
G01 X-17.1191 Y23.9955 
G01 X-17.1664 Y23.9955 
G01 X-17.2055 Y24.0060 
G01 X-17.2568 Y24.0197 
G01 X-17.2833 Y24.0350 
G01 X-17.3379 Y24.0665 
G01 X-17.4041 Y24.1327 
G01 X-17.4164 Y24.1539 
G01 X-17.4244 Y24.1678 
G01 X-17.4244 Y21.7033 
G00 Z2.0000 
G00 X-16.3648 Y27.4130 
G01 Z0.0000 F254.00 
G01 X-16.2433 Y27.4130 F508.00 
G01 X-16.2433 Y27.5345 
G01 X-16.2635 Y27.4994 
G01 X-16.3298 Y27.4332 
G01 X-16.3648 Y27.4130 
G00 Z2.0000 
G00 X-15.5321 Y27.4130 
G01 Z0.0000 F254.00 
G01 X-15.4106 Y27.4130 F508.00 
G01 X-15.4456 Y27.4332 
G01 X-15.5118 Y27.4994 
G01 X-15.5321 Y27.5345 
G01 X-15.5321 Y27.4130 
G00 Z2.0000 
G00 X-15.5321 Y28.0261 
G01 Z0.0000 F254.00 
G01 X-15.5118 Y28.0612 F508.00 
G01 X-15.4456 Y28.1274 
G01 X-15.4106 Y28.1477 
G01 X-15.5321 Y28.1477 
G01 X-15.5321 Y28.0261 
G00 Z2.0000 
G00 X-12.4532 Y27.4500 
G01 Z0.0000 F254.00 
G01 X-12.3317 Y27.4500 F508.00 
G01 X-12.3317 Y27.5715 
G01 X-12.3519 Y27.5364 
G01 X-12.4182 Y27.4702 
G01 X-12.4532 Y27.4500 
G00 Z2.0000 
G00 X-12.3317 Y29.8846 
G01 Z0.0000 F254.00 
G01 X-12.3317 Y29.9136 F508.00 
G01 X-12.4242 Y30.0062 
G01 X-12.4532 Y30.0062 
G01 X-12.4182 Y29.9859 
G01 X-12.3519 Y29.9197 
G01 X-12.3317 Y29.8846 
G00 Z2.0000 
G00 X-11.6350 Y30.1616 
G01 Z0.0000 F254.00 
G01 X-11.6350 Y31.6797 F508.00 
G01 X-11.6453 Y31.6738 
G01 X-11.6862 Y31.6628 
G01 X-11.7357 Y31.6495 
G01 X-11.8294 Y31.6495 
G01 X-11.9198 Y31.6738 
G01 X-11.9302 Y31.6797 
G01 X-11.9302 Y30.5178 
G01 X-11.6915 Y30.2792 
G01 X-11.6447 Y30.1982 
G01 X-11.6350 Y30.1616 
G00 Z2.0000 
G00 X-12.1975 Y31.8110 
G01 Z0.0000 F254.00 
G01 X-12.2325 Y31.8312 F508.00 
G01 X-12.2987 Y31.8974 
G01 X-12.3190 Y31.9325 
G01 X-12.3190 Y31.8110 
G01 X-12.1975 Y31.8110 
G00 Z2.0000 
G00 X-13.0302 Y31.8110 
G01 Z0.0000 F254.00 
G01 X-13.0302 Y31.9325 F508.00 
G01 X-13.0504 Y31.8974 
G01 X-13.1167 Y31.8312 
G01 X-13.1517 Y31.8110 
G01 X-13.0302 Y31.8110 
G00 Z2.0000 
G00 X-12.8520 Y33.6748 
G01 Z0.0000 F254.00 
G01 X-12.8520 Y34.2274 F508.00 
G01 X-12.8722 Y34.1923 
G01 X-12.9384 Y34.1261 
G01 X-13.0195 Y34.0793 
G01 X-13.1099 Y34.0551 
G01 X-13.2036 Y34.0551 
G01 X-13.2427 Y34.0656 
G01 X-12.8520 Y33.6748 
G00 Z2.0000 
G00 X-12.6996 Y34.5740 
G01 Z0.0000 F254.00 
G01 X-11.0995 Y34.5740 F508.00 
G01 X-11.1343 Y34.6343 
G01 X-11.1586 Y34.7247 
G01 X-11.1586 Y34.8184 
G01 X-11.1524 Y34.8416 
G01 X-11.1343 Y34.9088 
G01 X-11.0995 Y34.9692 
G01 X-12.6996 Y34.9692 
G01 X-12.6648 Y34.9088 
G01 X-12.6473 Y34.8436 
G01 X-12.6405 Y34.8184 
G01 X-12.6405 Y34.7247 
G01 X-12.6648 Y34.6343 
G01 X-12.6996 Y34.5740 
G00 Z2.0000 
G00 X-15.3304 Y35.1475 
G01 Z0.0000 F254.00 
G01 X-15.3365 Y35.1536 F508.00 
G01 X-15.3531 Y35.1536 
G01 X-15.3304 Y35.1475 
G00 Z2.0000 
G00 X-15.4796 Y35.1536 
G01 Z0.0000 F254.00 
G01 X-15.7212 Y35.1536 F508.00 
G01 X-15.7212 Y34.9857 
G01 X-15.7009 Y35.0208 
G01 X-15.6347 Y35.0870 
G01 X-15.5536 Y35.1338 
G01 X-15.4796 Y35.1536 
G00 Z2.0000 
G00 X-15.5996 Y35.8648 
G01 Z0.0000 F254.00 
G01 X-15.6347 Y35.8850 F508.00 
G01 X-15.7009 Y35.9513 
G01 X-15.7212 Y35.9863 
G01 X-15.7212 Y35.8648 
G01 X-15.5996 Y35.8648 
G00 Z2.0000 
G00 X-7.0982 Y33.4678 
G01 Z0.0000 F254.00 
G01 X-7.0762 Y33.3573 F508.00 
G01 X-7.0762 Y33.2238 
G01 X-7.1022 Y33.0930 
G01 X-7.1276 Y33.0316 
G01 X-7.1156 Y33.0386 
G01 X-7.0969 Y33.0529 
G01 X-7.0752 Y33.0619 
G01 X-7.0548 Y33.0737 
G01 X-7.0321 Y33.0797 
G01 X-7.0104 Y33.0887 
G01 X-6.9871 Y33.0918 
G01 X-6.9643 Y33.0979 
G01 X-6.9409 Y33.0979 
G01 X-6.9176 Y33.1010 
G01 X-6.8943 Y33.0979 
G01 X-6.8707 Y33.0979 
G01 X-6.8480 Y33.0918 
G01 X-6.8248 Y33.0888 
G01 X-6.8030 Y33.0798 
G01 X-6.7803 Y33.0737 
G01 X-6.7600 Y33.0619 
G01 X-6.7383 Y33.0530 
G01 X-6.7196 Y33.0386 
G01 X-6.6992 Y33.0268 
G01 X-6.6826 Y33.0103 
G01 X-6.6640 Y32.9960 
G01 X-6.6496 Y32.9773 
G01 X-6.6330 Y32.9606 
G01 X-6.6213 Y32.9403 
G01 X-6.6127 Y32.9292 
G01 X-6.6127 Y33.5134 
G01 X-6.6267 Y33.4953 
G01 X-6.6719 Y33.4606 
G01 X-6.7009 Y33.4383 
G01 X-6.7212 Y33.4299 
G01 X-6.7874 Y33.4025 
G01 X-6.8228 Y33.3978 
G01 X-6.8803 Y33.3902 
G01 X-6.9354 Y33.3975 
G01 X-6.9731 Y33.4024 
G01 X-7.0379 Y33.4293 
G01 X-7.0596 Y33.4383 
G01 X-7.0982 Y33.4678 
G00 Z2.0000 
G00 X-5.8918 Y33.4550 
G01 Z0.0000 F254.00 
G01 X-5.7917 Y33.6047 F508.00 
G01 X-5.6644 Y33.7321 
G01 X-5.5146 Y33.8322 
G01 X-5.3482 Y33.9011 
G01 X-5.1715 Y33.9362 
G01 X-3.4674 Y33.9362 
G01 X-3.2907 Y33.9011 
G01 X-3.1243 Y33.8322 
G01 X-2.9746 Y33.7321 
G01 X-2.8472 Y33.6047 
G01 X-2.7471 Y33.4550 
G01 X-2.6782 Y33.2885 
G01 X-2.6431 Y33.1119 
G01 X-2.6431 Y32.9318 
G01 X-2.6782 Y32.7551 
G01 X-2.7471 Y32.5887 
G01 X-2.8472 Y32.4389 
G01 X-2.9746 Y32.3116 
G01 X-3.1243 Y32.2115 
G01 X-3.2907 Y32.1426 
G01 X-3.4674 Y32.1074 
G01 X-5.1715 Y32.1074 
G01 X-5.3482 Y32.1426 
G01 X-5.5146 Y32.2115 
G01 X-5.6644 Y32.3116 
G01 X-5.7917 Y32.4389 
G01 X-5.8918 Y32.5887 
G01 X-5.9607 Y32.7551 
G01 X-5.9959 Y32.9318 
G01 X-5.9959 Y33.1119 
G01 X-5.9607 Y33.2885 
G01 X-5.8918 Y33.4550 
G00 Z2.0000 
G00 X-5.6474 Y34.6742 
G01 Z0.0000 F254.00 
G01 X-5.5508 Y34.7757 F508.00 
G01 X-5.6513 Y34.8428 
G01 X-5.6406 Y34.8068 
G01 X-5.6405 Y34.8023 
G01 X-5.6394 Y34.7979 
G01 X-5.6394 Y34.7556 
G01 X-5.6383 Y34.7132 
G01 X-5.6394 Y34.7088 
G01 X-5.6394 Y34.7043 
G01 X-5.6474 Y34.6742 
G00 Z2.0000 
G00 X-5.6644 Y31.1921 
G01 Z0.0000 F254.00 
G01 X-5.5146 Y31.2922 F508.00 
G01 X-5.3482 Y31.3611 
G01 X-5.1715 Y31.3962 
G01 X-3.4674 Y31.3962 
G01 X-3.2907 Y31.3611 
G01 X-3.1243 Y31.2922 
G01 X-2.9746 Y31.1921 
G01 X-2.8472 Y31.0647 
G01 X-2.7471 Y30.9150 
G01 X-2.6782 Y30.7485 
G01 X-2.6431 Y30.5719 
G01 X-2.6431 Y30.3918 
G01 X-2.6782 Y30.2151 
G01 X-2.7471 Y30.0487 
G01 X-2.8472 Y29.8989 
G01 X-2.9746 Y29.7716 
G01 X-3.1243 Y29.6715 
G01 X-3.2907 Y29.6026 
G01 X-3.4674 Y29.5674 
G01 X-5.1715 Y29.5674 
G01 X-5.3482 Y29.6026 
G01 X-5.5146 Y29.6715 
G01 X-5.6644 Y29.7716 
G01 X-5.7917 Y29.8989 
G01 X-5.8918 Y30.0487 
G01 X-5.9607 Y30.2151 
G01 X-5.9959 Y30.3918 
G01 X-5.9959 Y30.5719 
G01 X-5.9607 Y30.7485 
G01 X-5.8918 Y30.9150 
G01 X-5.7917 Y31.0647 
G01 X-5.6644 Y31.1921 
G00 Z2.0000 
G00 X-5.6644 Y28.6521 
G01 Z0.0000 F254.00 
G01 X-5.5146 Y28.7522 F508.00 
G01 X-5.3482 Y28.8211 
G01 X-5.1715 Y28.8562 
G01 X-3.4674 Y28.8562 
G01 X-3.2907 Y28.8211 
G01 X-3.1243 Y28.7522 
G01 X-2.9746 Y28.6521 
G01 X-2.8472 Y28.5247 
G01 X-2.7471 Y28.3750 
G01 X-2.6782 Y28.2085 
G01 X-2.6431 Y28.0319 
G01 X-2.6431 Y27.8518 
G01 X-2.6782 Y27.6751 
G01 X-2.7471 Y27.5087 
G01 X-2.8472 Y27.3589 
G01 X-2.9746 Y27.2316 
G01 X-3.1243 Y27.1315 
G01 X-3.2907 Y27.0626 
G01 X-3.4674 Y27.0274 
G01 X-5.1715 Y27.0274 
G01 X-5.3482 Y27.0626 
G01 X-5.5146 Y27.1315 
G01 X-5.6644 Y27.2316 
G01 X-5.7917 Y27.3589 
G01 X-5.8918 Y27.5087 
G01 X-5.9607 Y27.6751 
G01 X-5.9959 Y27.8518 
G01 X-5.9959 Y28.0319 
G01 X-5.9607 Y28.2085 
G01 X-5.8918 Y28.3750 
G01 X-5.7917 Y28.5247 
G01 X-5.6644 Y28.6521 
G00 Z2.0000 
G00 X-7.3217 Y27.8167 
G01 Z0.0000 F254.00 
G01 X-7.2274 Y27.7224 F508.00 
G01 X-7.1533 Y27.6114 
G01 X-7.1022 Y27.4881 
G01 X-7.0762 Y27.3573 
G01 X-7.0762 Y27.2238 
G01 X-7.1022 Y27.0930 
G01 X-7.1533 Y26.9697 
G01 X-7.2274 Y26.8587 
G01 X-7.3217 Y26.7644 
G01 X-7.4327 Y26.6903 
G01 X-7.5560 Y26.6392 
G01 X-7.6868 Y26.6132 
G01 X-8.8703 Y26.6132 
G01 X-9.0011 Y26.6392 
G01 X-9.1244 Y26.6903 
G01 X-9.2354 Y26.7644 
G01 X-9.3297 Y26.8587 
G01 X-9.4039 Y26.9697 
G01 X-9.4549 Y27.0930 
G01 X-9.4810 Y27.2238 
G01 X-9.4810 Y27.3573 
G01 X-9.4549 Y27.4881 
G01 X-9.4039 Y27.6114 
G01 X-9.3297 Y27.7224 
G01 X-9.2354 Y27.8167 
G01 X-9.1244 Y27.8909 
G01 X-9.0011 Y27.9419 
G01 X-8.8703 Y27.9680 
G01 X-7.6868 Y27.9680 
G01 X-7.5560 Y27.9419 
G01 X-7.4327 Y27.8909 
G01 X-7.3217 Y27.8167 
G00 Z2.0000 
G00 X-7.3217 Y25.8167 
G01 Z0.0000 F254.00 
G01 X-7.2274 Y25.7224 F508.00 
G01 X-7.1533 Y25.6114 
G01 X-7.1022 Y25.4881 
G01 X-7.0762 Y25.3573 
G01 X-7.0762 Y25.2238 
G01 X-7.1022 Y25.0930 
G01 X-7.1533 Y24.9697 
G01 X-7.2274 Y24.8587 
G01 X-7.3217 Y24.7644 
G01 X-7.4327 Y24.6903 
G01 X-7.5560 Y24.6392 
G01 X-7.6868 Y24.6132 
G01 X-8.8703 Y24.6132 
G01 X-9.0011 Y24.6392 
G01 X-9.1244 Y24.6903 
G01 X-9.2354 Y24.7644 
G01 X-9.3297 Y24.8587 
G01 X-9.4039 Y24.9697 
G01 X-9.4549 Y25.0930 
G01 X-9.4810 Y25.2238 
G01 X-9.4810 Y25.3573 
G01 X-9.4549 Y25.4881 
G01 X-9.4039 Y25.6114 
G01 X-9.3297 Y25.7224 
G01 X-9.2354 Y25.8167 
G01 X-9.1244 Y25.8909 
G01 X-9.0011 Y25.9419 
G01 X-8.8703 Y25.9680 
G01 X-7.6868 Y25.9680 
G01 X-7.5560 Y25.9419 
G01 X-7.4327 Y25.8909 
G01 X-7.3217 Y25.8167 
G00 Z2.0000 
G00 X-5.8918 Y25.8350 
G01 Z0.0000 F254.00 
G01 X-5.7917 Y25.9847 F508.00 
G01 X-5.6644 Y26.1121 
G01 X-5.5146 Y26.2122 
G01 X-5.3482 Y26.2811 
G01 X-5.1715 Y26.3162 
G01 X-3.4674 Y26.3162 
G01 X-3.2907 Y26.2811 
G01 X-3.1243 Y26.2122 
G01 X-2.9746 Y26.1121 
G01 X-2.8472 Y25.9847 
G01 X-2.7471 Y25.8350 
G01 X-2.6782 Y25.6685 
G01 X-2.6431 Y25.4919 
G01 X-2.6431 Y25.3118 
G01 X-2.6782 Y25.1351 
G01 X-2.7471 Y24.9687 
G01 X-2.8472 Y24.8189 
G01 X-2.9746 Y24.6916 
G01 X-3.1243 Y24.5915 
G01 X-3.2907 Y24.5226 
G01 X-3.4674 Y24.4874 
G01 X-5.1715 Y24.4874 
G01 X-5.3482 Y24.5226 
G01 X-5.5146 Y24.5915 
G01 X-5.6644 Y24.6916 
G01 X-5.7917 Y24.8189 
G01 X-5.8918 Y24.9687 
G01 X-5.9607 Y25.1351 
G01 X-5.9959 Y25.3118 
G01 X-5.9959 Y25.4919 
G01 X-5.9607 Y25.6685 
G01 X-5.8918 Y25.8350 
G00 Z2.0000 
G00 X-5.7917 Y23.4447 
G01 Z0.0000 F254.00 
G01 X-5.6644 Y23.5721 F508.00 
G01 X-5.5146 Y23.6722 
G01 X-5.3482 Y23.7411 
G01 X-5.1715 Y23.7762 
G01 X-3.4674 Y23.7762 
G01 X-3.2907 Y23.7411 
G01 X-3.1243 Y23.6722 
G01 X-2.9746 Y23.5721 
G01 X-2.8472 Y23.4447 
G01 X-2.7471 Y23.2950 
G01 X-2.6782 Y23.1285 
G01 X-2.6431 Y22.9519 
G01 X-2.6431 Y22.7718 
G01 X-2.6782 Y22.5951 
G01 X-2.7471 Y22.4287 
G01 X-2.8472 Y22.2789 
G01 X-2.9746 Y22.1516 
G01 X-3.1243 Y22.0515 
G01 X-3.2907 Y21.9826 
G01 X-3.4674 Y21.9474 
G01 X-5.1715 Y21.9474 
G01 X-5.3482 Y21.9826 
G01 X-5.5146 Y22.0515 
G01 X-5.6644 Y22.1516 
G01 X-5.7917 Y22.2789 
G01 X-5.8918 Y22.4287 
G01 X-5.9607 Y22.5951 
G01 X-5.9959 Y22.7718 
G01 X-5.9959 Y22.9519 
G01 X-5.9607 Y23.1285 
G01 X-5.8918 Y23.2950 
G01 X-5.7917 Y23.4447 
G00 Z2.0000 
G00 X-7.1022 Y23.4881 
G01 Z0.0000 F254.00 
G01 X-7.0762 Y23.3573 F508.00 
G01 X-7.0762 Y23.2238 
G01 X-7.1022 Y23.0930 
G01 X-7.1533 Y22.9697 
G01 X-7.2274 Y22.8587 
G01 X-7.3217 Y22.7644 
G01 X-7.4327 Y22.6903 
G01 X-7.5560 Y22.6392 
G01 X-7.6868 Y22.6132 
G01 X-8.8703 Y22.6132 
G01 X-9.0011 Y22.6392 
G01 X-9.1244 Y22.6903 
G01 X-9.2354 Y22.7644 
G01 X-9.3297 Y22.8587 
G01 X-9.4039 Y22.9697 
G01 X-9.4549 Y23.0930 
G01 X-9.4810 Y23.2238 
G01 X-9.4810 Y23.3573 
G01 X-9.4549 Y23.4881 
G01 X-9.4039 Y23.6114 
G01 X-9.3297 Y23.7224 
G01 X-9.2354 Y23.8167 
G01 X-9.1244 Y23.8909 
G01 X-9.0011 Y23.9419 
G01 X-8.8703 Y23.9680 
G01 X-7.6868 Y23.9680 
G01 X-7.5560 Y23.9419 
G01 X-7.4327 Y23.8909 
G01 X-7.3217 Y23.8167 
G01 X-7.2274 Y23.7224 
G01 X-7.1533 Y23.6114 
G01 X-7.1022 Y23.4881 
G00 Z2.0000 
G00 X-7.3217 Y21.8167 
G01 Z0.0000 F254.00 
G01 X-7.2274 Y21.7224 F508.00 
G01 X-7.1533 Y21.6114 
G01 X-7.1022 Y21.4881 
G01 X-7.0762 Y21.3573 
G01 X-7.0762 Y21.2238 
G01 X-7.1022 Y21.0930 
G01 X-7.1533 Y20.9697 
G01 X-7.2274 Y20.8587 
G01 X-7.3217 Y20.7644 
G01 X-7.4327 Y20.6903 
G01 X-7.5560 Y20.6392 
G01 X-7.6868 Y20.6132 
G01 X-8.8703 Y20.6132 
G01 X-9.0011 Y20.6392 
G01 X-9.1244 Y20.6903 
G01 X-9.2354 Y20.7644 
G01 X-9.3297 Y20.8587 
G01 X-9.4039 Y20.9697 
G01 X-9.4549 Y21.0930 
G01 X-9.4810 Y21.2238 
G01 X-9.4810 Y21.3573 
G01 X-9.4549 Y21.4881 
G01 X-9.4039 Y21.6114 
G01 X-9.3297 Y21.7224 
G01 X-9.2354 Y21.8167 
G01 X-9.1244 Y21.8909 
G01 X-9.0011 Y21.9419 
G01 X-8.8703 Y21.9680 
G01 X-7.6868 Y21.9680 
G01 X-7.5560 Y21.9419 
G01 X-7.4327 Y21.8909 
G01 X-7.3217 Y21.8167 
G00 Z2.0000 
G00 X-5.7917 Y20.9047 
G01 Z0.0000 F254.00 
G01 X-5.6644 Y21.0321 F508.00 
G01 X-5.5146 Y21.1322 
G01 X-5.3482 Y21.2011 
G01 X-5.1715 Y21.2362 
G01 X-3.4674 Y21.2362 
G01 X-3.2907 Y21.2011 
G01 X-3.1243 Y21.1322 
G01 X-2.9746 Y21.0321 
G01 X-2.8472 Y20.9047 
G01 X-2.7471 Y20.7550 
G01 X-2.6782 Y20.5885 
G01 X-2.6431 Y20.4119 
G01 X-2.6431 Y20.2318 
G01 X-2.6782 Y20.0551 
G01 X-2.7471 Y19.8887 
G01 X-2.8472 Y19.7389 
G01 X-2.9746 Y19.6116 
G01 X-3.1243 Y19.5115 
G01 X-3.2907 Y19.4426 
G01 X-3.4674 Y19.4074 
G01 X-5.1715 Y19.4074 
G01 X-5.3482 Y19.4426 
G01 X-5.5146 Y19.5115 
G01 X-5.6644 Y19.6116 
G01 X-5.7917 Y19.7389 
G01 X-5.8918 Y19.8887 
G01 X-5.9607 Y20.0551 
G01 X-5.9959 Y20.2318 
G01 X-5.9959 Y20.4119 
G01 X-5.9607 Y20.5885 
G01 X-5.8918 Y20.7550 
G01 X-5.7917 Y20.9047 
G00 Z2.0000 
G00 X-5.7917 Y18.3647 
G01 Z0.0000 F254.00 
G01 X-5.6644 Y18.4921 F508.00 
G01 X-5.5146 Y18.5922 
G01 X-5.3482 Y18.6611 
G01 X-5.1715 Y18.6962 
G01 X-3.4674 Y18.6962 
G01 X-3.2907 Y18.6611 
G01 X-3.1243 Y18.5922 
G01 X-2.9746 Y18.4921 
G01 X-2.8472 Y18.3647 
G01 X-2.7471 Y18.2150 
G01 X-2.6782 Y18.0485 
G01 X-2.6431 Y17.8719 
G01 X-2.6431 Y17.6918 
G01 X-2.6782 Y17.5151 
G01 X-2.7471 Y17.3487 
G01 X-2.8472 Y17.1989 
G01 X-2.9746 Y17.0716 
G01 X-3.1243 Y16.9715 
G01 X-3.2907 Y16.9026 
G01 X-3.4674 Y16.8674 
G01 X-5.1715 Y16.8674 
G01 X-5.3482 Y16.9026 
G01 X-5.5146 Y16.9715 
G01 X-5.6644 Y17.0716 
G01 X-5.7917 Y17.1989 
G01 X-5.8918 Y17.3487 
G01 X-5.9607 Y17.5151 
G01 X-5.9959 Y17.6918 
G01 X-5.9959 Y17.8719 
G01 X-5.9607 Y18.0485 
G01 X-5.8918 Y18.2150 
G01 X-5.7917 Y18.3647 
G00 Z2.0000 
G00 X-10.3661 Y21.7229 
G01 Z0.0000 F254.00 
G01 X-10.3661 Y24.4564 F508.00 
G01 X-10.5233 Y24.5984 
G01 X-10.5110 Y24.5600 
G01 X-10.5105 Y24.5509 
G01 X-10.5082 Y24.5420 
G01 X-10.5082 Y24.5042 
G01 X-10.5063 Y24.4665 
G01 X-10.5082 Y24.4576 
G01 X-10.5082 Y24.4484 
G01 X-10.5180 Y24.4119 
G01 X-10.5259 Y24.3750 
G01 X-10.5300 Y24.3668 
G01 X-10.5324 Y24.3579 
G01 X-10.5513 Y24.3252 
G01 X-10.5685 Y24.2916 
G01 X-10.5746 Y24.2848 
G01 X-10.5792 Y24.2769 
G01 X-10.6059 Y24.2501 
G01 X-10.6313 Y24.2221 
G01 X-10.6390 Y24.2171 
G01 X-10.6454 Y24.2107 
G01 X-10.6781 Y24.1918 
G01 X-10.7099 Y24.1712 
G01 X-10.7186 Y24.1684 
G01 X-10.7265 Y24.1638 
G01 X-10.7630 Y24.1541 
G01 X-10.7990 Y24.1425 
G01 X-10.8081 Y24.1420 
G01 X-10.8170 Y24.1396 
G01 X-10.8361 Y24.1396 
G01 X-10.8304 Y24.1339 
G01 X-10.8072 Y24.0779 
G01 X-10.8072 Y21.8712 
G01 X-10.7677 Y21.8818 
G01 X-10.7178 Y21.8952 
G01 X-10.6712 Y21.8952 
G01 X-10.6242 Y21.8952 
G01 X-10.5806 Y21.8835 
G01 X-10.5337 Y21.8710 
G01 X-10.4962 Y21.8494 
G01 X-10.4526 Y21.8242 
G01 X-10.4233 Y21.7949 
G01 X-10.3864 Y21.7580 
G01 X-10.3684 Y21.7268 
G01 X-10.3661 Y21.7229 
G00 Z2.0000 
G00 X-14.1887 Y3.5730 
G01 Z0.0000 F254.00 
G01 X-14.1936 Y3.5730 F508.00 
G01 X-14.1898 Y3.5723 
G00 Z2.0000 
G00 X-17.2949 Y3.5730 
G01 Z0.0000 F254.00 
G01 X-17.2999 Y3.5730 F508.00 
G01 X-17.2961 Y3.5723 
G00 Z2.0000 
G00 Z5.0000 
M05
M02
