(.../EAGLE-7.2.0/ulp/pcb-gcode.ulp)
(Copyright 2005 - 2012 by John Johnson)
(See readme.txt for licensing terms.)
(This file generated from the board:)
(.../Breakout Adapter v1.0 - LM1117 - AndersV209/ESP12E Breakout Adapter.brd)
(Current profile is .../pcb-gcode-3.6.2.4/profiles/emc.pp  )
(This file generated 23-10-2015 15:22:57)
(Settings from pcb-machine.h)
(spindle on time = 3.0000)
(  Tool Size)
(0.2540 )
(spindle speed = 30000.0000)
(tool change at 0.0000 0.0000 5.0000 )
(feed rate xy = F508.00 )
(feed rate z  = F254.00 )
(Z Axis Settings)
(  High     Up        Down     Drill)
(5.0000 	2.0000 	0.0000 	-1.6000 )
(Settings from pcb-defaults.h)
(isolate min = 0.0254)
(isolate max = 0.5080)
(isolate step = 0.1270)
(Generated top outlines, bottom outlines, bottom drill, )
(Unit of measure: mm)
(Metric Mode)
G21
(Absolute Coordinates)
G90
S30000
G00 Z5.0000 
G00 X0.0000 Y0.0000 
M03
G04 P3.000000
G00 Z2.0000 
G00 X2.8472 Y4.4989 
G01 Z0.0000 F254.00 
G01 X2.7471 Y4.6487 F508.00 
G01 X2.6782 Y4.8151 
G01 X2.6431 Y4.9918 
G01 X2.6431 Y5.1719 
G01 X2.6667 Y5.2905 
G01 X2.6561 Y5.2800 
G01 X2.6357 Y5.2682 
G01 X2.6171 Y5.2539 
G01 X2.5954 Y5.2449 
G01 X2.5750 Y5.2331 
G01 X2.5523 Y5.2271 
G01 X2.5306 Y5.2181 
G01 X2.5073 Y5.2150 
G01 X2.4846 Y5.2089 
G01 X2.4611 Y5.2089 
G01 X2.4378 Y5.2058 
G01 X2.4144 Y5.2089 
G01 X2.3909 Y5.2089 
G01 X2.3682 Y5.2150 
G01 X2.3449 Y5.2181 
G01 X2.3232 Y5.2271 
G01 X2.3005 Y5.2331 
G01 X2.2801 Y5.2449 
G01 X2.2584 Y5.2539 
G01 X2.2398 Y5.2682 
G01 X2.2194 Y5.2800 
G01 X2.2028 Y5.2966 
G01 X2.1841 Y5.3109 
G01 X2.1698 Y5.3296 
G01 X2.1532 Y5.3462 
G01 X2.1415 Y5.3665 
G01 X2.1271 Y5.3852 
G01 X2.1181 Y5.4069 
G01 X2.1064 Y5.4272 
G01 X2.1003 Y5.4499 
G01 X2.0913 Y5.4717 
G01 X2.0882 Y5.4950 
G01 X2.0822 Y5.5177 
G01 X2.0822 Y5.5412 
G01 X2.0791 Y5.5645 
G01 X2.0822 Y5.5878 
G01 X2.0822 Y7.1158 
G01 X2.0791 Y7.1391 
G01 X2.0822 Y7.1625 
G01 X2.0822 Y7.1860 
G01 X2.0882 Y7.2087 
G01 X2.0913 Y7.2320 
G01 X2.1003 Y7.2537 
G01 X2.1064 Y7.2764 
G01 X2.1181 Y7.2968 
G01 X2.1271 Y7.3185 
G01 X2.1415 Y7.3371 
G01 X2.1532 Y7.3575 
G01 X2.1698 Y7.3741 
G01 X2.1841 Y7.3928 
G01 X2.2028 Y7.4071 
G01 X2.2194 Y7.4237 
G01 X2.2398 Y7.4354 
G01 X2.2584 Y7.4498 
G01 X2.2801 Y7.4588 
G01 X2.3005 Y7.4705 
G01 X2.3232 Y7.4766 
G01 X2.3449 Y7.4856 
G01 X2.3682 Y7.4887 
G01 X2.3909 Y7.4947 
G01 X2.4144 Y7.4947 
G01 X2.4378 Y7.4978 
G01 X2.4611 Y7.4947 
G01 X2.4846 Y7.4947 
G01 X2.5073 Y7.4887 
G01 X2.5306 Y7.4856 
G01 X2.5523 Y7.4766 
G01 X2.5750 Y7.4705 
G01 X2.5954 Y7.4588 
G01 X2.6171 Y7.4498 
G01 X2.6357 Y7.4354 
G01 X2.6561 Y7.4237 
G01 X2.6667 Y7.4131 
G01 X2.6431 Y7.5318 
G01 X2.6431 Y7.7119 
G01 X2.6782 Y7.8885 
G01 X2.7471 Y8.0550 
G01 X2.8472 Y8.2047 
G01 X2.9746 Y8.3321 
G01 X3.1243 Y8.4322 
G01 X3.2907 Y8.5011 
G01 X3.4674 Y8.5362 
G01 X5.1715 Y8.5362 
G01 X5.3482 Y8.5011 
G01 X5.5146 Y8.4322 
G01 X5.6644 Y8.3321 
G01 X5.7917 Y8.2047 
G01 X5.8091 Y8.1788 
G01 X7.3152 Y8.1788 
G01 X7.3152 Y12.7401 
G01 X7.3360 Y12.8176 
G01 X7.3761 Y12.8872 
G01 X7.4328 Y12.9439 
G01 X9.4648 Y14.9759 
G01 X9.5343 Y15.0160 
G01 X9.6119 Y15.0368 
G01 X11.0497 Y15.0368 
G01 X11.8278 Y15.8148 
G01 X11.8139 Y15.8130 
G01 X11.7912 Y15.8069 
G01 X11.7677 Y15.8069 
G01 X11.7444 Y15.8038 
G01 X11.7211 Y15.8069 
G01 X11.6976 Y15.8069 
G01 X11.6749 Y15.8130 
G01 X11.6516 Y15.8161 
G01 X11.6298 Y15.8251 
G01 X11.6071 Y15.8311 
G01 X11.5868 Y15.8429 
G01 X11.5651 Y15.8519 
G01 X11.5464 Y15.8662 
G01 X11.5261 Y15.8780 
G01 X11.5094 Y15.8946 
G01 X11.4908 Y15.9089 
G01 X11.4765 Y15.9276 
G01 X11.4598 Y15.9442 
G01 X11.4481 Y15.9645 
G01 X11.4338 Y15.9832 
G01 X11.4248 Y16.0049 
G01 X11.4130 Y16.0252 
G01 X11.4070 Y16.0480 
G01 X11.3979 Y16.0697 
G01 X11.3949 Y16.0930 
G01 X11.3888 Y16.1157 
G01 X11.3888 Y16.1392 
G01 X11.3857 Y16.1625 
G01 X11.3864 Y16.1674 
G01 X11.2954 Y16.0764 
G01 X11.1844 Y16.0023 
G01 X11.0611 Y15.9512 
G01 X10.9303 Y15.9252 
G01 X10.7968 Y15.9252 
G01 X10.6660 Y15.9512 
G01 X10.5427 Y16.0023 
G01 X10.4317 Y16.0764 
G01 X10.3374 Y16.1707 
G01 X10.3031 Y16.2221 
G01 X6.9088 Y12.8277 
G01 X6.9088 Y10.1199 
G01 X6.8880 Y10.0424 
G01 X6.8479 Y9.9728 
G01 X6.7912 Y9.9161 
G01 X6.7216 Y9.8760 
G01 X6.6441 Y9.8552 
G01 X5.9442 Y9.8552 
G01 X5.8918 Y9.7287 
G01 X5.7917 Y9.5789 
G01 X5.6644 Y9.4516 
G01 X5.5146 Y9.3515 
G01 X5.3482 Y9.2826 
G01 X5.1715 Y9.2474 
G01 X3.4674 Y9.2474 
G01 X3.2907 Y9.2826 
G01 X3.1243 Y9.3515 
G01 X2.9746 Y9.4516 
G01 X2.8472 Y9.5789 
G01 X2.7471 Y9.7287 
G01 X2.6782 Y9.8951 
G01 X2.6431 Y10.0718 
G01 X2.6431 Y10.2519 
G01 X2.6667 Y10.3705 
G01 X2.6561 Y10.3600 
G01 X2.6357 Y10.3482 
G01 X2.6171 Y10.3339 
G01 X2.5954 Y10.3249 
G01 X2.5750 Y10.3131 
G01 X2.5523 Y10.3071 
G01 X2.5306 Y10.2981 
G01 X2.5073 Y10.2950 
G01 X2.4846 Y10.2889 
G01 X2.4611 Y10.2889 
G01 X2.4378 Y10.2858 
G01 X2.4144 Y10.2889 
G01 X2.3909 Y10.2889 
G01 X2.3682 Y10.2950 
G01 X2.3449 Y10.2981 
G01 X2.3232 Y10.3071 
G01 X2.3005 Y10.3131 
G01 X2.2801 Y10.3249 
G01 X2.2584 Y10.3339 
G01 X2.2398 Y10.3482 
G01 X2.2194 Y10.3600 
G01 X2.2028 Y10.3766 
G01 X2.1841 Y10.3909 
G01 X2.1698 Y10.4095 
G01 X2.1532 Y10.4262 
G01 X2.1415 Y10.4465 
G01 X2.1271 Y10.4652 
G01 X2.1181 Y10.4869 
G01 X2.1064 Y10.5073 
G01 X2.1003 Y10.5299 
G01 X2.0913 Y10.5517 
G01 X2.0882 Y10.5750 
G01 X2.0822 Y10.5977 
G01 X2.0822 Y10.6212 
G01 X2.0791 Y10.6445 
G01 X2.0822 Y10.6678 
G01 X2.0822 Y12.1765 
G01 X2.0802 Y12.1857 
G01 X2.0822 Y12.2232 
G01 X2.0822 Y12.2607 
G01 X2.0846 Y12.2698 
G01 X2.0851 Y12.2792 
G01 X2.0967 Y12.3149 
G01 X2.1064 Y12.3511 
G01 X2.1111 Y12.3593 
G01 X2.1140 Y12.3683 
G01 X2.1345 Y12.3998 
G01 X2.1532 Y12.4322 
G01 X2.1599 Y12.4389 
G01 X2.1650 Y12.4468 
G01 X2.1929 Y12.4719 
G01 X2.2194 Y12.4984 
G01 X2.2276 Y12.5031 
G01 X2.2346 Y12.5095 
G01 X2.2680 Y12.5265 
G01 X2.3005 Y12.5452 
G01 X2.3096 Y12.5477 
G01 X2.3180 Y12.5520 
G01 X2.3547 Y12.5598 
G01 X2.3909 Y12.5695 
G01 X2.4004 Y12.5695 
G01 X2.4096 Y12.5714 
G01 X2.4471 Y12.5695 
G01 X2.4846 Y12.5695 
G01 X2.4937 Y12.5670 
G01 X2.5031 Y12.5665 
G01 X2.5388 Y12.5549 
G01 X2.5750 Y12.5452 
G01 X2.5832 Y12.5405 
G01 X2.5922 Y12.5376 
G01 X2.6236 Y12.5172 
G01 X2.6561 Y12.4984 
G01 X2.6628 Y12.4918 
G01 X2.6676 Y12.4886 
G01 X2.6431 Y12.6118 
G01 X2.6431 Y12.7919 
G01 X2.6676 Y12.9150 
G01 X2.6628 Y12.9119 
G01 X2.6561 Y12.9052 
G01 X2.6236 Y12.8865 
G01 X2.5922 Y12.8660 
G01 X2.5832 Y12.8631 
G01 X2.5750 Y12.8584 
G01 X2.5388 Y12.8487 
G01 X2.5031 Y12.8371 
G01 X2.4937 Y12.8366 
G01 X2.4846 Y12.8342 
G01 X2.4471 Y12.8342 
G01 X2.4096 Y12.8322 
G01 X2.4004 Y12.8342 
G01 X2.3909 Y12.8342 
G01 X2.3547 Y12.8439 
G01 X2.3180 Y12.8517 
G01 X2.3096 Y12.8560 
G01 X2.3005 Y12.8584 
G01 X2.2680 Y12.8772 
G01 X2.2346 Y12.8942 
G01 X2.2276 Y12.9005 
G01 X2.2194 Y12.9052 
G01 X2.1929 Y12.9317 
G01 X2.1650 Y12.9568 
G01 X2.1599 Y12.9648 
G01 X2.1532 Y12.9714 
G01 X2.1345 Y13.0039 
G01 X2.1140 Y13.0354 
G01 X2.1111 Y13.0443 
G01 X2.1064 Y13.0525 
G01 X2.0967 Y13.0887 
G01 X2.0851 Y13.1244 
G01 X2.0846 Y13.1338 
G01 X2.0822 Y13.1430 
G01 X2.0822 Y13.1805 
G01 X2.0802 Y13.2179 
G01 X2.0822 Y13.2271 
G01 X2.0822 Y14.7358 
G01 X2.0791 Y14.7592 
G01 X2.0822 Y14.7825 
G01 X2.0822 Y14.8060 
G01 X2.0882 Y14.8287 
G01 X2.0913 Y14.8520 
G01 X2.1003 Y14.8737 
G01 X2.1064 Y14.8964 
G01 X2.1181 Y14.9168 
G01 X2.1271 Y14.9385 
G01 X2.1415 Y14.9571 
G01 X2.1532 Y14.9775 
G01 X2.1698 Y14.9941 
G01 X2.1841 Y15.0128 
G01 X2.2028 Y15.0271 
G01 X2.2194 Y15.0437 
G01 X2.2398 Y15.0554 
G01 X2.2584 Y15.0698 
G01 X2.2801 Y15.0788 
G01 X2.3005 Y15.0905 
G01 X2.3232 Y15.0966 
G01 X2.3449 Y15.1056 
G01 X2.3682 Y15.1087 
G01 X2.3909 Y15.1147 
G01 X2.4144 Y15.1147 
G01 X2.4378 Y15.1178 
G01 X2.4611 Y15.1147 
G01 X2.4846 Y15.1147 
G01 X2.5073 Y15.1087 
G01 X2.5306 Y15.1056 
G01 X2.5523 Y15.0966 
G01 X2.5750 Y15.0905 
G01 X2.5954 Y15.0788 
G01 X2.6171 Y15.0698 
G01 X2.6357 Y15.0554 
G01 X2.6561 Y15.0437 
G01 X2.6667 Y15.0331 
G01 X2.6431 Y15.1518 
G01 X2.6431 Y15.3319 
G01 X2.6782 Y15.5085 
G01 X2.7471 Y15.6750 
G01 X2.8472 Y15.8247 
G01 X2.9746 Y15.9521 
G01 X3.1243 Y16.0522 
G01 X3.2907 Y16.1211 
G01 X3.4674 Y16.1562 
G01 X3.9639 Y16.1562 
G01 X3.9639 Y16.8674 
G01 X3.4674 Y16.8674 
G01 X3.2907 Y16.9026 
G01 X3.1243 Y16.9715 
G01 X2.9746 Y17.0716 
G01 X2.8472 Y17.1989 
G01 X2.7471 Y17.3487 
G01 X2.6782 Y17.5151 
G01 X2.6431 Y17.6918 
G01 X2.6431 Y17.8719 
G01 X2.6667 Y17.9905 
G01 X2.6561 Y17.9800 
G01 X2.6357 Y17.9682 
G01 X2.6171 Y17.9539 
G01 X2.5954 Y17.9449 
G01 X2.5750 Y17.9331 
G01 X2.5523 Y17.9271 
G01 X2.5306 Y17.9181 
G01 X2.5073 Y17.9150 
G01 X2.4846 Y17.9089 
G01 X2.4611 Y17.9089 
G01 X2.4378 Y17.9058 
G01 X2.4144 Y17.9089 
G01 X2.3909 Y17.9089 
G01 X2.3682 Y17.9150 
G01 X2.3449 Y17.9181 
G01 X2.3232 Y17.9271 
G01 X2.3005 Y17.9331 
G01 X2.2801 Y17.9449 
G01 X2.2584 Y17.9539 
G01 X2.2398 Y17.9682 
G01 X2.2194 Y17.9800 
G01 X2.2028 Y17.9966 
G01 X2.1841 Y18.0109 
G01 X2.1698 Y18.0295 
G01 X2.1532 Y18.0462 
G01 X2.1415 Y18.0665 
G01 X2.1271 Y18.0852 
G01 X2.1181 Y18.1069 
G01 X2.1064 Y18.1272 
G01 X2.1003 Y18.1499 
G01 X2.0913 Y18.1717 
G01 X2.0882 Y18.1950 
G01 X2.0822 Y18.2177 
G01 X2.0822 Y18.2412 
G01 X2.0791 Y18.2645 
G01 X2.0822 Y18.2878 
G01 X2.0822 Y19.8158 
G01 X2.0791 Y19.8391 
G01 X2.0822 Y19.8625 
G01 X2.0822 Y19.8860 
G01 X2.0882 Y19.9087 
G01 X2.0913 Y19.9320 
G01 X2.1003 Y19.9537 
G01 X2.1064 Y19.9764 
G01 X2.1181 Y19.9967 
G01 X2.1271 Y20.0185 
G01 X2.1415 Y20.0371 
G01 X2.1532 Y20.0575 
G01 X2.1698 Y20.0741 
G01 X2.1841 Y20.0928 
G01 X2.2028 Y20.1071 
G01 X2.2194 Y20.1237 
G01 X2.2398 Y20.1354 
G01 X2.2584 Y20.1498 
G01 X2.2801 Y20.1588 
G01 X2.3005 Y20.1705 
G01 X2.3232 Y20.1766 
G01 X2.3449 Y20.1856 
G01 X2.3682 Y20.1887 
G01 X2.3909 Y20.1947 
G01 X2.4144 Y20.1947 
G01 X2.4378 Y20.1978 
G01 X2.4611 Y20.1947 
G01 X2.4846 Y20.1947 
G01 X2.5073 Y20.1887 
G01 X2.5306 Y20.1856 
G01 X2.5523 Y20.1766 
G01 X2.5750 Y20.1705 
G01 X2.5954 Y20.1588 
G01 X2.6171 Y20.1498 
G01 X2.6357 Y20.1354 
G01 X2.6561 Y20.1237 
G01 X2.6667 Y20.1131 
G01 X2.6431 Y20.2318 
G01 X2.6431 Y20.4119 
G01 X2.6667 Y20.5305 
G01 X2.6561 Y20.5200 
G01 X2.6357 Y20.5082 
G01 X2.6171 Y20.4939 
G01 X2.5954 Y20.4849 
G01 X2.5750 Y20.4731 
G01 X2.5523 Y20.4671 
G01 X2.5306 Y20.4581 
G01 X2.5073 Y20.4550 
G01 X2.4846 Y20.4489 
G01 X2.4611 Y20.4489 
G01 X2.4378 Y20.4458 
G01 X2.4144 Y20.4489 
G01 X2.3909 Y20.4489 
G01 X2.3682 Y20.4550 
G01 X2.3449 Y20.4581 
G01 X2.3232 Y20.4671 
G01 X2.3005 Y20.4731 
G01 X2.2801 Y20.4849 
G01 X2.2584 Y20.4939 
G01 X2.2398 Y20.5082 
G01 X2.2194 Y20.5200 
G01 X2.2028 Y20.5366 
G01 X2.1841 Y20.5509 
G01 X2.1698 Y20.5695 
G01 X2.1532 Y20.5862 
G01 X2.1415 Y20.6065 
G01 X2.1271 Y20.6252 
G01 X2.1181 Y20.6469 
G01 X2.1064 Y20.6672 
G01 X2.1003 Y20.6899 
G01 X2.0913 Y20.7117 
G01 X2.0882 Y20.7350 
G01 X2.0822 Y20.7577 
G01 X2.0822 Y20.7812 
G01 X2.0791 Y20.8045 
G01 X2.0822 Y20.8278 
G01 X2.0822 Y22.3558 
G01 X2.0791 Y22.3791 
G01 X2.0822 Y22.4025 
G01 X2.0822 Y22.4260 
G01 X2.0882 Y22.4487 
G01 X2.0913 Y22.4720 
G01 X2.1003 Y22.4937 
G01 X2.1064 Y22.5164 
G01 X2.1181 Y22.5368 
G01 X2.1271 Y22.5585 
G01 X2.1415 Y22.5771 
G01 X2.1532 Y22.5975 
G01 X2.1698 Y22.6141 
G01 X2.1841 Y22.6328 
G01 X2.2028 Y22.6471 
G01 X2.2194 Y22.6637 
G01 X2.2398 Y22.6754 
G01 X2.2584 Y22.6898 
G01 X2.2801 Y22.6988 
G01 X2.3005 Y22.7105 
G01 X2.3232 Y22.7166 
G01 X2.3449 Y22.7256 
G01 X2.3682 Y22.7287 
G01 X2.3909 Y22.7347 
G01 X2.4144 Y22.7347 
G01 X2.4378 Y22.7378 
G01 X2.4611 Y22.7347 
G01 X2.4846 Y22.7347 
G01 X2.5073 Y22.7287 
G01 X2.5306 Y22.7256 
G01 X2.5523 Y22.7166 
G01 X2.5750 Y22.7105 
G01 X2.5954 Y22.6988 
G01 X2.6171 Y22.6898 
G01 X2.6357 Y22.6754 
G01 X2.6561 Y22.6637 
G01 X2.6667 Y22.6531 
G01 X2.6431 Y22.7718 
G01 X2.6431 Y22.9519 
G01 X2.6667 Y23.0705 
G01 X2.6561 Y23.0600 
G01 X2.6357 Y23.0482 
G01 X2.6171 Y23.0339 
G01 X2.5954 Y23.0249 
G01 X2.5750 Y23.0131 
G01 X2.5523 Y23.0071 
G01 X2.5306 Y22.9981 
G01 X2.5073 Y22.9950 
G01 X2.4846 Y22.9889 
G01 X2.4611 Y22.9889 
G01 X2.4378 Y22.9858 
G01 X2.4144 Y22.9889 
G01 X2.3909 Y22.9889 
G01 X2.3682 Y22.9950 
G01 X2.3449 Y22.9981 
G01 X2.3232 Y23.0071 
G01 X2.3005 Y23.0131 
G01 X2.2801 Y23.0249 
G01 X2.2584 Y23.0339 
G01 X2.2398 Y23.0482 
G01 X2.2194 Y23.0600 
G01 X2.2028 Y23.0766 
G01 X2.1841 Y23.0909 
G01 X2.1698 Y23.1095 
G01 X2.1532 Y23.1262 
G01 X2.1415 Y23.1465 
G01 X2.1271 Y23.1652 
G01 X2.1181 Y23.1869 
G01 X2.1064 Y23.2072 
G01 X2.1003 Y23.2299 
G01 X2.0913 Y23.2517 
G01 X2.0882 Y23.2750 
G01 X2.0822 Y23.2977 
G01 X2.0822 Y23.3212 
G01 X2.0791 Y23.3445 
G01 X2.0822 Y23.3678 
G01 X2.0822 Y24.8958 
G01 X2.0791 Y24.9191 
G01 X2.0822 Y24.9425 
G01 X2.0822 Y24.9660 
G01 X2.0882 Y24.9887 
G01 X2.0913 Y25.0120 
G01 X2.1003 Y25.0337 
G01 X2.1064 Y25.0564 
G01 X2.1181 Y25.0768 
G01 X2.1271 Y25.0985 
G01 X2.1415 Y25.1171 
G01 X2.1532 Y25.1375 
G01 X2.1698 Y25.1541 
G01 X2.1841 Y25.1728 
G01 X2.2028 Y25.1871 
G01 X2.2194 Y25.2037 
G01 X2.2398 Y25.2154 
G01 X2.2584 Y25.2298 
G01 X2.2801 Y25.2388 
G01 X2.3005 Y25.2505 
G01 X2.3232 Y25.2566 
G01 X2.3449 Y25.2656 
G01 X2.3682 Y25.2687 
G01 X2.3909 Y25.2747 
G01 X2.4144 Y25.2747 
G01 X2.4378 Y25.2778 
G01 X2.4611 Y25.2747 
G01 X2.4846 Y25.2747 
G01 X2.5073 Y25.2687 
G01 X2.5306 Y25.2656 
G01 X2.5523 Y25.2566 
G01 X2.5750 Y25.2505 
G01 X2.5954 Y25.2388 
G01 X2.6171 Y25.2298 
G01 X2.6357 Y25.2154 
G01 X2.6561 Y25.2037 
G01 X2.6667 Y25.1931 
G01 X2.6431 Y25.3118 
G01 X2.6431 Y25.4919 
G01 X2.6667 Y25.6105 
G01 X2.6561 Y25.6000 
G01 X2.6357 Y25.5882 
G01 X2.6171 Y25.5739 
G01 X2.5954 Y25.5649 
G01 X2.5750 Y25.5531 
G01 X2.5523 Y25.5471 
G01 X2.5306 Y25.5381 
G01 X2.5073 Y25.5350 
G01 X2.4846 Y25.5289 
G01 X2.4611 Y25.5289 
G01 X2.4378 Y25.5258 
G01 X2.4144 Y25.5289 
G01 X2.3909 Y25.5289 
G01 X2.3682 Y25.5350 
G01 X2.3449 Y25.5381 
G01 X2.3232 Y25.5471 
G01 X2.3005 Y25.5531 
G01 X2.2801 Y25.5649 
G01 X2.2584 Y25.5739 
G01 X2.2398 Y25.5882 
G01 X2.2194 Y25.6000 
G01 X2.2028 Y25.6166 
G01 X2.1841 Y25.6309 
G01 X2.1698 Y25.6496 
G01 X2.1532 Y25.6662 
G01 X2.1415 Y25.6865 
G01 X2.1271 Y25.7052 
G01 X2.1181 Y25.7269 
G01 X2.1064 Y25.7473 
G01 X2.1003 Y25.7699 
G01 X2.0913 Y25.7917 
G01 X2.0882 Y25.8150 
G01 X2.0822 Y25.8377 
G01 X2.0822 Y25.8612 
G01 X2.0791 Y25.8845 
G01 X2.0822 Y25.9078 
G01 X2.0822 Y27.4358 
G01 X2.0791 Y27.4591 
G01 X2.0822 Y27.4825 
G01 X2.0822 Y27.5060 
G01 X2.0882 Y27.5287 
G01 X2.0913 Y27.5520 
G01 X2.1003 Y27.5737 
G01 X2.1064 Y27.5964 
G01 X2.1181 Y27.6167 
G01 X2.1271 Y27.6385 
G01 X2.1415 Y27.6571 
G01 X2.1532 Y27.6775 
G01 X2.1698 Y27.6941 
G01 X2.1841 Y27.7128 
G01 X2.2028 Y27.7271 
G01 X2.2194 Y27.7437 
G01 X2.2398 Y27.7554 
G01 X2.2584 Y27.7698 
G01 X2.2801 Y27.7788 
G01 X2.3005 Y27.7905 
G01 X2.3232 Y27.7966 
G01 X2.3449 Y27.8056 
G01 X2.3682 Y27.8087 
G01 X2.3909 Y27.8147 
G01 X2.4144 Y27.8147 
G01 X2.4378 Y27.8178 
G01 X2.4611 Y27.8147 
G01 X2.4846 Y27.8147 
G01 X2.5073 Y27.8087 
G01 X2.5306 Y27.8056 
G01 X2.5523 Y27.7966 
G01 X2.5750 Y27.7905 
G01 X2.5954 Y27.7788 
G01 X2.6171 Y27.7698 
G01 X2.6357 Y27.7554 
G01 X2.6561 Y27.7437 
G01 X2.6667 Y27.7331 
G01 X2.6431 Y27.8518 
G01 X2.6431 Y28.0319 
G01 X2.6667 Y28.1505 
G01 X2.6561 Y28.1400 
G01 X2.6357 Y28.1282 
G01 X2.6171 Y28.1139 
G01 X2.5954 Y28.1049 
G01 X2.5750 Y28.0931 
G01 X2.5523 Y28.0871 
G01 X2.5306 Y28.0781 
G01 X2.5073 Y28.0750 
G01 X2.4846 Y28.0689 
G01 X2.4611 Y28.0689 
G01 X2.4378 Y28.0658 
G01 X2.4144 Y28.0689 
G01 X2.3909 Y28.0689 
G01 X2.3682 Y28.0750 
G01 X2.3449 Y28.0781 
G01 X2.3232 Y28.0871 
G01 X2.3005 Y28.0931 
G01 X2.2801 Y28.1049 
G01 X2.2584 Y28.1139 
G01 X2.2398 Y28.1282 
G01 X2.2194 Y28.1400 
G01 X2.2028 Y28.1566 
G01 X2.1841 Y28.1709 
G01 X2.1698 Y28.1896 
G01 X2.1532 Y28.2062 
G01 X2.1415 Y28.2265 
G01 X2.1271 Y28.2452 
G01 X2.1181 Y28.2669 
G01 X2.1064 Y28.2873 
G01 X2.1003 Y28.3099 
G01 X2.0913 Y28.3317 
G01 X2.0882 Y28.3550 
G01 X2.0822 Y28.3777 
G01 X2.0822 Y28.4012 
G01 X2.0791 Y28.4245 
G01 X2.0822 Y28.4478 
G01 X2.0822 Y29.9758 
G01 X2.0791 Y29.9991 
G01 X2.0822 Y30.0225 
G01 X2.0822 Y30.0460 
G01 X2.0882 Y30.0687 
G01 X2.0913 Y30.0920 
G01 X2.1003 Y30.1137 
G01 X2.1064 Y30.1364 
G01 X2.1181 Y30.1567 
G01 X2.1271 Y30.1785 
G01 X2.1415 Y30.1971 
G01 X2.1532 Y30.2175 
G01 X2.1698 Y30.2341 
G01 X2.1841 Y30.2528 
G01 X2.2028 Y30.2671 
G01 X2.2194 Y30.2837 
G01 X2.2398 Y30.2954 
G01 X2.2584 Y30.3098 
G01 X2.2801 Y30.3188 
G01 X2.3005 Y30.3305 
G01 X2.3232 Y30.3366 
G01 X2.3449 Y30.3456 
G01 X2.3682 Y30.3487 
G01 X2.3909 Y30.3547 
G01 X2.4144 Y30.3547 
G01 X2.4378 Y30.3578 
G01 X2.4611 Y30.3547 
G01 X2.4846 Y30.3547 
G01 X2.5073 Y30.3487 
G01 X2.5306 Y30.3456 
G01 X2.5523 Y30.3366 
G01 X2.5750 Y30.3305 
G01 X2.5954 Y30.3188 
G01 X2.6171 Y30.3098 
G01 X2.6357 Y30.2954 
G01 X2.6561 Y30.2837 
G01 X2.6667 Y30.2731 
G01 X2.6431 Y30.3918 
G01 X2.6431 Y30.5719 
G01 X2.6667 Y30.6905 
G01 X2.6561 Y30.6800 
G01 X2.6357 Y30.6682 
G01 X2.6171 Y30.6539 
G01 X2.5954 Y30.6449 
G01 X2.5750 Y30.6331 
G01 X2.5523 Y30.6271 
G01 X2.5306 Y30.6181 
G01 X2.5073 Y30.6150 
G01 X2.4846 Y30.6089 
G01 X2.4611 Y30.6089 
G01 X2.4378 Y30.6058 
G01 X2.4144 Y30.6089 
G01 X2.3909 Y30.6089 
G01 X2.3682 Y30.6150 
G01 X2.3449 Y30.6181 
G01 X2.3232 Y30.6271 
G01 X2.3005 Y30.6331 
G01 X2.2801 Y30.6449 
G01 X2.2584 Y30.6539 
G01 X2.2398 Y30.6682 
G01 X2.2194 Y30.6800 
G01 X2.2028 Y30.6966 
G01 X2.1841 Y30.7109 
G01 X2.1698 Y30.7295 
G01 X2.1532 Y30.7462 
G01 X2.1415 Y30.7665 
G01 X2.1271 Y30.7852 
G01 X2.1181 Y30.8069 
G01 X2.1064 Y30.8272 
G01 X2.1003 Y30.8499 
G01 X2.0913 Y30.8717 
G01 X2.0882 Y30.8950 
G01 X2.0822 Y30.9177 
G01 X2.0822 Y30.9412 
G01 X2.0791 Y30.9645 
G01 X2.0822 Y30.9878 
G01 X2.0822 Y32.5158 
G01 X2.0791 Y32.5391 
G01 X2.0822 Y32.5625 
G01 X2.0822 Y32.5860 
G01 X2.0882 Y32.6087 
G01 X2.0913 Y32.6320 
G01 X2.1003 Y32.6537 
G01 X2.1064 Y32.6764 
G01 X2.1181 Y32.6967 
G01 X2.1271 Y32.7185 
G01 X2.1415 Y32.7371 
G01 X2.1532 Y32.7575 
G01 X2.1698 Y32.7741 
G01 X2.1841 Y32.7928 
G01 X2.2028 Y32.8071 
G01 X2.2194 Y32.8237 
G01 X2.2398 Y32.8354 
G01 X2.2584 Y32.8498 
G01 X2.2801 Y32.8588 
G01 X2.3005 Y32.8705 
G01 X2.3232 Y32.8766 
G01 X2.3449 Y32.8856 
G01 X2.3682 Y32.8887 
G01 X2.3909 Y32.8947 
G01 X2.4144 Y32.8947 
G01 X2.4378 Y32.8978 
G01 X2.4611 Y32.8947 
G01 X2.4846 Y32.8947 
G01 X2.5073 Y32.8887 
G01 X2.5306 Y32.8856 
G01 X2.5523 Y32.8766 
G01 X2.5750 Y32.8705 
G01 X2.5954 Y32.8588 
G01 X2.6171 Y32.8498 
G01 X2.6357 Y32.8354 
G01 X2.6561 Y32.8237 
G01 X2.6667 Y32.8131 
G01 X2.6431 Y32.9318 
G01 X2.6431 Y33.1119 
G01 X2.6667 Y33.2305 
G01 X2.6561 Y33.2200 
G01 X2.6357 Y33.2082 
G01 X2.6171 Y33.1939 
G01 X2.5954 Y33.1849 
G01 X2.5750 Y33.1731 
G01 X2.5523 Y33.1671 
G01 X2.5306 Y33.1581 
G01 X2.5073 Y33.1550 
G01 X2.4846 Y33.1489 
G01 X2.4611 Y33.1489 
G01 X2.4378 Y33.1458 
G01 X2.4144 Y33.1489 
G01 X2.3909 Y33.1489 
G01 X2.3682 Y33.1550 
G01 X2.3449 Y33.1581 
G01 X2.3232 Y33.1671 
G01 X2.3005 Y33.1731 
G01 X2.2801 Y33.1849 
G01 X2.2584 Y33.1939 
G01 X2.2398 Y33.2082 
G01 X2.2194 Y33.2200 
G01 X2.2028 Y33.2366 
G01 X2.1841 Y33.2509 
G01 X2.1698 Y33.2696 
G01 X2.1532 Y33.2862 
G01 X2.1415 Y33.3065 
G01 X2.1271 Y33.3252 
G01 X2.1181 Y33.3469 
G01 X2.1064 Y33.3672 
G01 X2.1003 Y33.3899 
G01 X2.0913 Y33.4117 
G01 X2.0882 Y33.4350 
G01 X2.0822 Y33.4577 
G01 X2.0822 Y33.4812 
G01 X2.0791 Y33.5045 
G01 X2.0822 Y33.5278 
G01 X2.0822 Y35.0558 
G01 X2.0791 Y35.0791 
G01 X2.0822 Y35.1025 
G01 X2.0822 Y35.1260 
G01 X2.0882 Y35.1487 
G01 X2.0913 Y35.1720 
G01 X2.1003 Y35.1937 
G01 X2.1064 Y35.2164 
G01 X2.1181 Y35.2368 
G01 X2.1271 Y35.2585 
G01 X2.1415 Y35.2771 
G01 X2.1532 Y35.2975 
G01 X2.1698 Y35.3141 
G01 X2.1841 Y35.3328 
G01 X2.2028 Y35.3471 
G01 X2.2194 Y35.3637 
G01 X2.2398 Y35.3754 
G01 X2.2584 Y35.3898 
G01 X2.2801 Y35.3988 
G01 X2.3005 Y35.4105 
G01 X2.3232 Y35.4166 
G01 X2.3449 Y35.4256 
G01 X2.3682 Y35.4287 
G01 X2.3909 Y35.4347 
G01 X2.4144 Y35.4347 
G01 X2.4378 Y35.4378 
G01 X2.4611 Y35.4347 
G01 X2.4846 Y35.4347 
G01 X2.5073 Y35.4287 
G01 X2.5306 Y35.4256 
G01 X2.5523 Y35.4166 
G01 X2.5750 Y35.4105 
G01 X2.5954 Y35.3988 
G01 X2.6171 Y35.3898 
G01 X2.6357 Y35.3754 
G01 X2.6561 Y35.3637 
G01 X2.6667 Y35.3531 
G01 X2.6431 Y35.4718 
G01 X2.6431 Y35.6519 
G01 X2.6667 Y35.7705 
G01 X2.6561 Y35.7600 
G01 X2.6357 Y35.7482 
G01 X2.6171 Y35.7339 
G01 X2.5954 Y35.7249 
G01 X2.5750 Y35.7131 
G01 X2.5523 Y35.7071 
G01 X2.5306 Y35.6981 
G01 X2.5073 Y35.6950 
G01 X2.4846 Y35.6889 
G01 X2.4611 Y35.6889 
G01 X2.4378 Y35.6858 
G01 X2.4144 Y35.6889 
G01 X2.3909 Y35.6889 
G01 X2.3682 Y35.6950 
G01 X2.3449 Y35.6981 
G01 X2.3232 Y35.7071 
G01 X2.3005 Y35.7131 
G01 X2.2801 Y35.7249 
G01 X2.2584 Y35.7339 
G01 X2.2398 Y35.7482 
G01 X2.2194 Y35.7600 
G01 X2.2028 Y35.7766 
G01 X2.1841 Y35.7909 
G01 X2.1698 Y35.8096 
G01 X2.1532 Y35.8262 
G01 X2.1415 Y35.8465 
G01 X2.1271 Y35.8652 
G01 X2.1181 Y35.8869 
G01 X2.1064 Y35.9072 
G01 X2.1003 Y35.9299 
G01 X2.0913 Y35.9517 
G01 X2.0882 Y35.9750 
G01 X2.0822 Y35.9977 
G01 X2.0822 Y36.0212 
G01 X2.0791 Y36.0445 
G01 X2.0822 Y36.0678 
G01 X2.0822 Y37.3848 
G01 X2.1064 Y37.4753 
G01 X2.1532 Y37.5563 
G01 X2.2194 Y37.6225 
G01 X2.3005 Y37.6694 
G01 X2.3909 Y37.6936 
G01 X29.0532 Y37.6936 
G01 X29.1436 Y37.6694 
G01 X29.2247 Y37.6225 
G01 X29.2909 Y37.5563 
G01 X29.3377 Y37.4753 
G01 X29.3620 Y37.3848 
G01 X29.3620 Y36.2002 
G01 X29.3650 Y36.1768 
G01 X29.3620 Y36.1535 
G01 X29.3620 Y36.1300 
G01 X29.3559 Y36.1073 
G01 X29.3528 Y36.0840 
G01 X29.3438 Y36.0623 
G01 X29.3377 Y36.0396 
G01 X29.3260 Y36.0193 
G01 X29.3170 Y35.9975 
G01 X29.3026 Y35.9789 
G01 X29.2909 Y35.9585 
G01 X29.2743 Y35.9419 
G01 X29.2600 Y35.9232 
G01 X29.2413 Y35.9089 
G01 X29.2247 Y35.8923 
G01 X29.2043 Y35.8806 
G01 X29.1857 Y35.8662 
G01 X29.1640 Y35.8572 
G01 X29.1436 Y35.8455 
G01 X29.1209 Y35.8394 
G01 X29.0992 Y35.8304 
G01 X29.0759 Y35.8274 
G01 X29.0532 Y35.8213 
G01 X29.0297 Y35.8213 
G01 X29.0063 Y35.8182 
G01 X28.9830 Y35.8213 
G01 X28.9595 Y35.8213 
G01 X28.9368 Y35.8274 
G01 X28.9135 Y35.8304 
G01 X28.8918 Y35.8394 
G01 X28.8691 Y35.8455 
G01 X28.8487 Y35.8573 
G01 X28.8270 Y35.8663 
G01 X28.8084 Y35.8806 
G01 X28.7963 Y35.8875 
G01 X28.8207 Y35.8285 
G01 X28.8559 Y35.6519 
G01 X28.8559 Y35.4718 
G01 X28.8207 Y35.2951 
G01 X28.7963 Y35.2361 
G01 X28.8084 Y35.2431 
G01 X28.8270 Y35.2574 
G01 X28.8487 Y35.2664 
G01 X28.8691 Y35.2781 
G01 X28.8918 Y35.2842 
G01 X28.9135 Y35.2932 
G01 X28.9368 Y35.2963 
G01 X28.9595 Y35.3024 
G01 X28.9830 Y35.3024 
G01 X29.0063 Y35.3055 
G01 X29.0297 Y35.3024 
G01 X29.0532 Y35.3024 
G01 X29.0759 Y35.2963 
G01 X29.0992 Y35.2932 
G01 X29.1209 Y35.2842 
G01 X29.1436 Y35.2781 
G01 X29.1640 Y35.2664 
G01 X29.1857 Y35.2574 
G01 X29.2043 Y35.2431 
G01 X29.2247 Y35.2313 
G01 X29.2413 Y35.2147 
G01 X29.2600 Y35.2004 
G01 X29.2743 Y35.1817 
G01 X29.2909 Y35.1651 
G01 X29.3026 Y35.1448 
G01 X29.3170 Y35.1261 
G01 X29.3260 Y35.1044 
G01 X29.3377 Y35.0840 
G01 X29.3438 Y35.0613 
G01 X29.3528 Y35.0396 
G01 X29.3559 Y35.0163 
G01 X29.3620 Y34.9936 
G01 X29.3620 Y34.9701 
G01 X29.3650 Y34.9468 
G01 X29.3620 Y34.9235 
G01 X29.3620 Y33.6602 
G01 X29.3650 Y33.6368 
G01 X29.3620 Y33.6135 
G01 X29.3620 Y33.5900 
G01 X29.3559 Y33.5673 
G01 X29.3528 Y33.5440 
G01 X29.3438 Y33.5223 
G01 X29.3377 Y33.4996 
G01 X29.3260 Y33.4793 
G01 X29.3170 Y33.4575 
G01 X29.3026 Y33.4389 
G01 X29.2909 Y33.4185 
G01 X29.2743 Y33.4019 
G01 X29.2600 Y33.3832 
G01 X29.2413 Y33.3689 
G01 X29.2247 Y33.3523 
G01 X29.2043 Y33.3406 
G01 X29.1857 Y33.3262 
G01 X29.1640 Y33.3172 
G01 X29.1436 Y33.3055 
G01 X29.1209 Y33.2994 
G01 X29.0992 Y33.2904 
G01 X29.0759 Y33.2874 
G01 X29.0532 Y33.2813 
G01 X29.0297 Y33.2813 
G01 X29.0063 Y33.2782 
G01 X28.9830 Y33.2813 
G01 X28.9595 Y33.2813 
G01 X28.9368 Y33.2874 
G01 X28.9135 Y33.2904 
G01 X28.8918 Y33.2994 
G01 X28.8691 Y33.3055 
G01 X28.8487 Y33.3173 
G01 X28.8270 Y33.3263 
G01 X28.8084 Y33.3406 
G01 X28.7963 Y33.3475 
G01 X28.8207 Y33.2885 
G01 X28.8559 Y33.1119 
G01 X28.8559 Y32.9318 
G01 X28.8207 Y32.7551 
G01 X28.7963 Y32.6961 
G01 X28.8084 Y32.7031 
G01 X28.8270 Y32.7174 
G01 X28.8487 Y32.7264 
G01 X28.8691 Y32.7381 
G01 X28.8918 Y32.7442 
G01 X28.9135 Y32.7532 
G01 X28.9368 Y32.7563 
G01 X28.9595 Y32.7624 
G01 X28.9830 Y32.7624 
G01 X29.0063 Y32.7655 
G01 X29.0297 Y32.7624 
G01 X29.0532 Y32.7624 
G01 X29.0759 Y32.7563 
G01 X29.0992 Y32.7532 
G01 X29.1209 Y32.7442 
G01 X29.1436 Y32.7381 
G01 X29.1640 Y32.7264 
G01 X29.1857 Y32.7174 
G01 X29.2043 Y32.7031 
G01 X29.2247 Y32.6913 
G01 X29.2413 Y32.6747 
G01 X29.2600 Y32.6604 
G01 X29.2743 Y32.6417 
G01 X29.2909 Y32.6251 
G01 X29.3026 Y32.6048 
G01 X29.3170 Y32.5861 
G01 X29.3260 Y32.5644 
G01 X29.3377 Y32.5440 
G01 X29.3438 Y32.5213 
G01 X29.3528 Y32.4996 
G01 X29.3559 Y32.4763 
G01 X29.3620 Y32.4536 
G01 X29.3620 Y32.4301 
G01 X29.3650 Y32.4068 
G01 X29.3620 Y32.3835 
G01 X29.3620 Y31.1202 
G01 X29.3650 Y31.0968 
G01 X29.3620 Y31.0735 
G01 X29.3620 Y31.0500 
G01 X29.3559 Y31.0273 
G01 X29.3528 Y31.0040 
G01 X29.3438 Y30.9823 
G01 X29.3377 Y30.9596 
G01 X29.3260 Y30.9393 
G01 X29.3170 Y30.9175 
G01 X29.3026 Y30.8989 
G01 X29.2909 Y30.8785 
G01 X29.2743 Y30.8619 
G01 X29.2600 Y30.8432 
G01 X29.2413 Y30.8289 
G01 X29.2247 Y30.8123 
G01 X29.2043 Y30.8006 
G01 X29.1857 Y30.7862 
G01 X29.1640 Y30.7772 
G01 X29.1436 Y30.7655 
G01 X29.1209 Y30.7594 
G01 X29.0992 Y30.7504 
G01 X29.0759 Y30.7474 
G01 X29.0532 Y30.7413 
G01 X29.0297 Y30.7413 
G01 X29.0063 Y30.7382 
G01 X28.9830 Y30.7413 
G01 X28.9595 Y30.7413 
G01 X28.9368 Y30.7474 
G01 X28.9135 Y30.7504 
G01 X28.8918 Y30.7594 
G01 X28.8691 Y30.7655 
G01 X28.8487 Y30.7773 
G01 X28.8270 Y30.7863 
G01 X28.8084 Y30.8006 
G01 X28.7963 Y30.8075 
G01 X28.8207 Y30.7485 
G01 X28.8559 Y30.5719 
G01 X28.8559 Y30.3918 
G01 X28.8207 Y30.2151 
G01 X28.7963 Y30.1561 
G01 X28.8084 Y30.1631 
G01 X28.8270 Y30.1774 
G01 X28.8487 Y30.1864 
G01 X28.8691 Y30.1981 
G01 X28.8918 Y30.2042 
G01 X28.9135 Y30.2132 
G01 X28.9368 Y30.2163 
G01 X28.9595 Y30.2224 
G01 X28.9830 Y30.2224 
G01 X29.0063 Y30.2255 
G01 X29.0297 Y30.2224 
G01 X29.0532 Y30.2224 
G01 X29.0759 Y30.2163 
G01 X29.0992 Y30.2132 
G01 X29.1209 Y30.2042 
G01 X29.1436 Y30.1981 
G01 X29.1640 Y30.1864 
G01 X29.1857 Y30.1774 
G01 X29.2043 Y30.1631 
G01 X29.2247 Y30.1513 
G01 X29.2413 Y30.1347 
G01 X29.2600 Y30.1204 
G01 X29.2743 Y30.1017 
G01 X29.2909 Y30.0851 
G01 X29.3026 Y30.0648 
G01 X29.3170 Y30.0461 
G01 X29.3260 Y30.0244 
G01 X29.3377 Y30.0040 
G01 X29.3438 Y29.9813 
G01 X29.3528 Y29.9596 
G01 X29.3559 Y29.9363 
G01 X29.3620 Y29.9136 
G01 X29.3620 Y29.8901 
G01 X29.3650 Y29.8668 
G01 X29.3620 Y29.8435 
G01 X29.3620 Y28.5802 
G01 X29.3650 Y28.5568 
G01 X29.3620 Y28.5335 
G01 X29.3620 Y28.5100 
G01 X29.3559 Y28.4873 
G01 X29.3528 Y28.4640 
G01 X29.3438 Y28.4423 
G01 X29.3377 Y28.4196 
G01 X29.3260 Y28.3993 
G01 X29.3170 Y28.3775 
G01 X29.3026 Y28.3589 
G01 X29.2909 Y28.3385 
G01 X29.2743 Y28.3219 
G01 X29.2600 Y28.3032 
G01 X29.2413 Y28.2889 
G01 X29.2247 Y28.2723 
G01 X29.2043 Y28.2606 
G01 X29.1857 Y28.2462 
G01 X29.1640 Y28.2372 
G01 X29.1436 Y28.2255 
G01 X29.1209 Y28.2194 
G01 X29.0992 Y28.2104 
G01 X29.0759 Y28.2074 
G01 X29.0532 Y28.2013 
G01 X29.0297 Y28.2013 
G01 X29.0063 Y28.1982 
G01 X28.9830 Y28.2013 
G01 X28.9595 Y28.2013 
G01 X28.9368 Y28.2074 
G01 X28.9135 Y28.2104 
G01 X28.8918 Y28.2194 
G01 X28.8691 Y28.2255 
G01 X28.8487 Y28.2373 
G01 X28.8270 Y28.2463 
G01 X28.8084 Y28.2606 
G01 X28.7963 Y28.2675 
G01 X28.8207 Y28.2085 
G01 X28.8559 Y28.0319 
G01 X28.8559 Y27.8518 
G01 X28.8207 Y27.6751 
G01 X28.7963 Y27.6161 
G01 X28.8084 Y27.6231 
G01 X28.8270 Y27.6374 
G01 X28.8487 Y27.6464 
G01 X28.8691 Y27.6581 
G01 X28.8918 Y27.6642 
G01 X28.9135 Y27.6732 
G01 X28.9368 Y27.6763 
G01 X28.9595 Y27.6824 
G01 X28.9830 Y27.6824 
G01 X29.0063 Y27.6855 
G01 X29.0297 Y27.6824 
G01 X29.0532 Y27.6824 
G01 X29.0759 Y27.6763 
G01 X29.0992 Y27.6732 
G01 X29.1209 Y27.6642 
G01 X29.1436 Y27.6581 
G01 X29.1640 Y27.6464 
G01 X29.1857 Y27.6374 
G01 X29.2043 Y27.6231 
G01 X29.2247 Y27.6113 
G01 X29.2413 Y27.5947 
G01 X29.2600 Y27.5804 
G01 X29.2743 Y27.5617 
G01 X29.2909 Y27.5451 
G01 X29.3026 Y27.5248 
G01 X29.3170 Y27.5061 
G01 X29.3260 Y27.4844 
G01 X29.3377 Y27.4640 
G01 X29.3438 Y27.4413 
G01 X29.3528 Y27.4196 
G01 X29.3559 Y27.3963 
G01 X29.3620 Y27.3736 
G01 X29.3620 Y27.3501 
G01 X29.3650 Y27.3268 
G01 X29.3620 Y27.3035 
G01 X29.3620 Y26.0402 
G01 X29.3650 Y26.0168 
G01 X29.3620 Y25.9935 
G01 X29.3620 Y25.9700 
G01 X29.3559 Y25.9473 
G01 X29.3528 Y25.9240 
G01 X29.3438 Y25.9023 
G01 X29.3377 Y25.8796 
G01 X29.3260 Y25.8593 
G01 X29.3170 Y25.8375 
G01 X29.3026 Y25.8189 
G01 X29.2909 Y25.7985 
G01 X29.2743 Y25.7819 
G01 X29.2600 Y25.7632 
G01 X29.2413 Y25.7489 
G01 X29.2247 Y25.7323 
G01 X29.2043 Y25.7206 
G01 X29.1857 Y25.7062 
G01 X29.1640 Y25.6972 
G01 X29.1436 Y25.6855 
G01 X29.1209 Y25.6794 
G01 X29.0992 Y25.6704 
G01 X29.0759 Y25.6673 
G01 X29.0532 Y25.6613 
G01 X29.0297 Y25.6613 
G01 X29.0063 Y25.6582 
G01 X28.9830 Y25.6613 
G01 X28.9595 Y25.6613 
G01 X28.9368 Y25.6674 
G01 X28.9135 Y25.6704 
G01 X28.8918 Y25.6794 
G01 X28.8691 Y25.6855 
G01 X28.8487 Y25.6973 
G01 X28.8270 Y25.7063 
G01 X28.8084 Y25.7206 
G01 X28.7963 Y25.7275 
G01 X28.8207 Y25.6685 
G01 X28.8559 Y25.4919 
G01 X28.8559 Y25.3118 
G01 X28.8207 Y25.1351 
G01 X28.7963 Y25.0761 
G01 X28.8084 Y25.0831 
G01 X28.8270 Y25.0974 
G01 X28.8487 Y25.1064 
G01 X28.8691 Y25.1181 
G01 X28.8918 Y25.1242 
G01 X28.9135 Y25.1332 
G01 X28.9368 Y25.1363 
G01 X28.9595 Y25.1424 
G01 X28.9830 Y25.1424 
G01 X29.0063 Y25.1455 
G01 X29.0297 Y25.1424 
G01 X29.0532 Y25.1424 
G01 X29.0759 Y25.1363 
G01 X29.0992 Y25.1332 
G01 X29.1209 Y25.1242 
G01 X29.1436 Y25.1181 
G01 X29.1640 Y25.1064 
G01 X29.1857 Y25.0974 
G01 X29.2043 Y25.0831 
G01 X29.2247 Y25.0713 
G01 X29.2413 Y25.0547 
G01 X29.2600 Y25.0404 
G01 X29.2743 Y25.0217 
G01 X29.2909 Y25.0051 
G01 X29.3026 Y24.9848 
G01 X29.3170 Y24.9661 
G01 X29.3260 Y24.9444 
G01 X29.3377 Y24.9240 
G01 X29.3438 Y24.9014 
G01 X29.3528 Y24.8796 
G01 X29.3559 Y24.8563 
G01 X29.3620 Y24.8336 
G01 X29.3620 Y24.8101 
G01 X29.3650 Y24.7868 
G01 X29.3620 Y24.7635 
G01 X29.3620 Y23.5002 
G01 X29.3650 Y23.4768 
G01 X29.3620 Y23.4535 
G01 X29.3620 Y23.4300 
G01 X29.3559 Y23.4073 
G01 X29.3528 Y23.3840 
G01 X29.3438 Y23.3623 
G01 X29.3377 Y23.3396 
G01 X29.3260 Y23.3193 
G01 X29.3170 Y23.2975 
G01 X29.3026 Y23.2789 
G01 X29.2909 Y23.2585 
G01 X29.2743 Y23.2419 
G01 X29.2600 Y23.2232 
G01 X29.2413 Y23.2089 
G01 X29.2247 Y23.1923 
G01 X29.2043 Y23.1806 
G01 X29.1857 Y23.1662 
G01 X29.1640 Y23.1572 
G01 X29.1436 Y23.1455 
G01 X29.1209 Y23.1394 
G01 X29.0992 Y23.1304 
G01 X29.0759 Y23.1273 
G01 X29.0532 Y23.1213 
G01 X29.0297 Y23.1213 
G01 X29.0063 Y23.1182 
G01 X28.9830 Y23.1213 
G01 X28.9595 Y23.1213 
G01 X28.9368 Y23.1273 
G01 X28.9135 Y23.1304 
G01 X28.8918 Y23.1394 
G01 X28.8691 Y23.1455 
G01 X28.8487 Y23.1573 
G01 X28.8270 Y23.1663 
G01 X28.8084 Y23.1806 
G01 X28.7963 Y23.1875 
G01 X28.8207 Y23.1285 
G01 X28.8559 Y22.9519 
G01 X28.8559 Y22.7718 
G01 X28.8207 Y22.5951 
G01 X28.7963 Y22.5361 
G01 X28.8084 Y22.5431 
G01 X28.8270 Y22.5574 
G01 X28.8487 Y22.5664 
G01 X28.8691 Y22.5782 
G01 X28.8918 Y22.5842 
G01 X28.9135 Y22.5932 
G01 X28.9368 Y22.5963 
G01 X28.9595 Y22.6024 
G01 X28.9830 Y22.6024 
G01 X29.0063 Y22.6055 
G01 X29.0297 Y22.6024 
G01 X29.0532 Y22.6024 
G01 X29.0759 Y22.5963 
G01 X29.0992 Y22.5932 
G01 X29.1209 Y22.5842 
G01 X29.1436 Y22.5782 
G01 X29.1640 Y22.5664 
G01 X29.1857 Y22.5574 
G01 X29.2043 Y22.5431 
G01 X29.2247 Y22.5313 
G01 X29.2413 Y22.5147 
G01 X29.2600 Y22.5004 
G01 X29.2743 Y22.4817 
G01 X29.2909 Y22.4651 
G01 X29.3026 Y22.4448 
G01 X29.3170 Y22.4261 
G01 X29.3260 Y22.4044 
G01 X29.3377 Y22.3840 
G01 X29.3438 Y22.3614 
G01 X29.3528 Y22.3396 
G01 X29.3559 Y22.3163 
G01 X29.3620 Y22.2936 
G01 X29.3620 Y22.2701 
G01 X29.3650 Y22.2468 
G01 X29.3620 Y22.2235 
G01 X29.3620 Y20.9602 
G01 X29.3650 Y20.9369 
G01 X29.3620 Y20.9136 
G01 X29.3620 Y20.8900 
G01 X29.3559 Y20.8673 
G01 X29.3528 Y20.8440 
G01 X29.3438 Y20.8223 
G01 X29.3377 Y20.7996 
G01 X29.3260 Y20.7793 
G01 X29.3170 Y20.7575 
G01 X29.3026 Y20.7389 
G01 X29.2909 Y20.7185 
G01 X29.2743 Y20.7019 
G01 X29.2600 Y20.6832 
G01 X29.2413 Y20.6689 
G01 X29.2247 Y20.6523 
G01 X29.2044 Y20.6406 
G01 X29.1857 Y20.6262 
G01 X29.1640 Y20.6172 
G01 X29.1436 Y20.6055 
G01 X29.1209 Y20.5994 
G01 X29.0992 Y20.5904 
G01 X29.0759 Y20.5874 
G01 X29.0532 Y20.5813 
G01 X29.0297 Y20.5813 
G01 X29.0063 Y20.5782 
G01 X28.9830 Y20.5813 
G01 X28.9595 Y20.5813 
G01 X28.9368 Y20.5874 
G01 X28.9135 Y20.5904 
G01 X28.8918 Y20.5994 
G01 X28.8691 Y20.6055 
G01 X28.8487 Y20.6173 
G01 X28.8270 Y20.6263 
G01 X28.8084 Y20.6406 
G01 X28.7963 Y20.6475 
G01 X28.8207 Y20.5885 
G01 X28.8559 Y20.4119 
G01 X28.8559 Y20.2318 
G01 X28.8207 Y20.0551 
G01 X28.7963 Y19.9961 
G01 X28.8084 Y20.0031 
G01 X28.8270 Y20.0174 
G01 X28.8487 Y20.0264 
G01 X28.8691 Y20.0381 
G01 X28.8918 Y20.0442 
G01 X28.9135 Y20.0532 
G01 X28.9368 Y20.0563 
G01 X28.9595 Y20.0624 
G01 X28.9830 Y20.0624 
G01 X29.0063 Y20.0654 
G01 X29.0297 Y20.0624 
G01 X29.0532 Y20.0624 
G01 X29.0759 Y20.0563 
G01 X29.0992 Y20.0532 
G01 X29.1209 Y20.0442 
G01 X29.1436 Y20.0381 
G01 X29.1640 Y20.0264 
G01 X29.1857 Y20.0174 
G01 X29.2044 Y20.0031 
G01 X29.2247 Y19.9913 
G01 X29.2413 Y19.9747 
G01 X29.2600 Y19.9604 
G01 X29.2743 Y19.9417 
G01 X29.2909 Y19.9251 
G01 X29.3026 Y19.9048 
G01 X29.3170 Y19.8861 
G01 X29.3260 Y19.8644 
G01 X29.3377 Y19.8440 
G01 X29.3438 Y19.8213 
G01 X29.3528 Y19.7996 
G01 X29.3559 Y19.7763 
G01 X29.3620 Y19.7536 
G01 X29.3620 Y19.7301 
G01 X29.3650 Y19.7068 
G01 X29.3620 Y19.6835 
G01 X29.3620 Y18.4147 
G01 X29.3639 Y18.4055 
G01 X29.3620 Y18.3680 
G01 X29.3620 Y18.3306 
G01 X29.3595 Y18.3214 
G01 X29.3590 Y18.3120 
G01 X29.3474 Y18.2763 
G01 X29.3377 Y18.2401 
G01 X29.3330 Y18.2319 
G01 X29.3301 Y18.2229 
G01 X29.3096 Y18.1915 
G01 X29.2909 Y18.1590 
G01 X29.2842 Y18.1524 
G01 X29.2791 Y18.1444 
G01 X29.2512 Y18.1193 
G01 X29.2247 Y18.0928 
G01 X29.2165 Y18.0881 
G01 X29.2095 Y18.0818 
G01 X29.1761 Y18.0647 
G01 X29.1436 Y18.0460 
G01 X29.1345 Y18.0436 
G01 X29.1261 Y18.0393 
G01 X29.0894 Y18.0315 
G01 X29.0532 Y18.0218 
G01 X29.0437 Y18.0218 
G01 X29.0345 Y18.0198 
G01 X28.9970 Y18.0218 
G01 X28.9595 Y18.0218 
G01 X28.9504 Y18.0242 
G01 X28.9410 Y18.0247 
G01 X28.9053 Y18.0363 
G01 X28.8691 Y18.0460 
G01 X28.8609 Y18.0507 
G01 X28.8519 Y18.0537 
G01 X28.8204 Y18.0741 
G01 X28.8069 Y18.0819 
G01 X28.8207 Y18.0485 
G01 X28.8559 Y17.8719 
G01 X28.8559 Y17.6918 
G01 X28.8207 Y17.5151 
G01 X28.8069 Y17.4817 
G01 X28.8204 Y17.4896 
G01 X28.8519 Y17.5100 
G01 X28.8609 Y17.5129 
G01 X28.8691 Y17.5176 
G01 X28.9053 Y17.5273 
G01 X28.9410 Y17.5389 
G01 X28.9504 Y17.5394 
G01 X28.9595 Y17.5419 
G01 X28.9970 Y17.5419 
G01 X29.0345 Y17.5438 
G01 X29.0437 Y17.5419 
G01 X29.0532 Y17.5419 
G01 X29.0894 Y17.5322 
G01 X29.1261 Y17.5244 
G01 X29.1345 Y17.5201 
G01 X29.1436 Y17.5176 
G01 X29.1761 Y17.4989 
G01 X29.2095 Y17.4819 
G01 X29.2165 Y17.4755 
G01 X29.2247 Y17.4708 
G01 X29.2512 Y17.4443 
G01 X29.2791 Y17.4192 
G01 X29.2842 Y17.4113 
G01 X29.2909 Y17.4046 
G01 X29.3096 Y17.3722 
G01 X29.3301 Y17.3407 
G01 X29.3330 Y17.3317 
G01 X29.3377 Y17.3235 
G01 X29.3474 Y17.2873 
G01 X29.3590 Y17.2517 
G01 X29.3595 Y17.2422 
G01 X29.3620 Y17.2331 
G01 X29.3620 Y17.1956 
G01 X29.3639 Y17.1582 
G01 X29.3620 Y17.1489 
G01 X29.3620 Y15.8747 
G01 X29.3639 Y15.8655 
G01 X29.3620 Y15.8280 
G01 X29.3620 Y15.7906 
G01 X29.3595 Y15.7814 
G01 X29.3590 Y15.7720 
G01 X29.3474 Y15.7363 
G01 X29.3377 Y15.7001 
G01 X29.3330 Y15.6919 
G01 X29.3301 Y15.6829 
G01 X29.3096 Y15.6515 
G01 X29.2909 Y15.6190 
G01 X29.2842 Y15.6124 
G01 X29.2791 Y15.6044 
G01 X29.2512 Y15.5793 
G01 X29.2247 Y15.5528 
G01 X29.2165 Y15.5481 
G01 X29.2095 Y15.5418 
G01 X29.1761 Y15.5247 
G01 X29.1436 Y15.5060 
G01 X29.1345 Y15.5036 
G01 X29.1261 Y15.4993 
G01 X29.0894 Y15.4915 
G01 X29.0532 Y15.4818 
G01 X29.0437 Y15.4818 
G01 X29.0345 Y15.4798 
G01 X28.9970 Y15.4818 
G01 X28.9595 Y15.4818 
G01 X28.9504 Y15.4842 
G01 X28.9410 Y15.4847 
G01 X28.9053 Y15.4963 
G01 X28.8691 Y15.5060 
G01 X28.8609 Y15.5107 
G01 X28.8519 Y15.5137 
G01 X28.8204 Y15.5341 
G01 X28.8069 Y15.5419 
G01 X28.8207 Y15.5085 
G01 X28.8559 Y15.3319 
G01 X28.8559 Y15.1518 
G01 X28.8207 Y14.9751 
G01 X28.8069 Y14.9417 
G01 X28.8204 Y14.9496 
G01 X28.8519 Y14.9700 
G01 X28.8609 Y14.9729 
G01 X28.8691 Y14.9776 
G01 X28.9053 Y14.9873 
G01 X28.9410 Y14.9989 
G01 X28.9504 Y14.9994 
G01 X28.9595 Y15.0019 
G01 X28.9970 Y15.0019 
G01 X29.0345 Y15.0038 
G01 X29.0437 Y15.0019 
G01 X29.0532 Y15.0019 
G01 X29.0894 Y14.9922 
G01 X29.1261 Y14.9844 
G01 X29.1345 Y14.9801 
G01 X29.1436 Y14.9776 
G01 X29.1761 Y14.9589 
G01 X29.2095 Y14.9419 
G01 X29.2165 Y14.9355 
G01 X29.2247 Y14.9308 
G01 X29.2512 Y14.9043 
G01 X29.2791 Y14.8792 
G01 X29.2842 Y14.8713 
G01 X29.2909 Y14.8646 
G01 X29.3096 Y14.8322 
G01 X29.3301 Y14.8007 
G01 X29.3330 Y14.7917 
G01 X29.3377 Y14.7835 
G01 X29.3474 Y14.7473 
G01 X29.3590 Y14.7117 
G01 X29.3595 Y14.7022 
G01 X29.3620 Y14.6931 
G01 X29.3620 Y14.6556 
G01 X29.3639 Y14.6182 
G01 X29.3620 Y14.6089 
G01 X29.3620 Y13.3402 
G01 X29.3650 Y13.3169 
G01 X29.3620 Y13.2936 
G01 X29.3620 Y13.2700 
G01 X29.3559 Y13.2473 
G01 X29.3528 Y13.2240 
G01 X29.3438 Y13.2023 
G01 X29.3377 Y13.1796 
G01 X29.3260 Y13.1593 
G01 X29.3170 Y13.1375 
G01 X29.3026 Y13.1189 
G01 X29.2909 Y13.0985 
G01 X29.2743 Y13.0819 
G01 X29.2600 Y13.0632 
G01 X29.2413 Y13.0489 
G01 X29.2247 Y13.0323 
G01 X29.2044 Y13.0206 
G01 X29.1857 Y13.0062 
G01 X29.1640 Y12.9972 
G01 X29.1436 Y12.9855 
G01 X29.1209 Y12.9794 
G01 X29.0992 Y12.9704 
G01 X29.0759 Y12.9674 
G01 X29.0532 Y12.9613 
G01 X29.0297 Y12.9613 
G01 X29.0063 Y12.9582 
G01 X28.9830 Y12.9613 
G01 X28.9595 Y12.9613 
G01 X28.9368 Y12.9674 
G01 X28.9135 Y12.9704 
G01 X28.8918 Y12.9794 
G01 X28.8691 Y12.9855 
G01 X28.8487 Y12.9973 
G01 X28.8270 Y13.0063 
G01 X28.8084 Y13.0206 
G01 X28.7963 Y13.0275 
G01 X28.8207 Y12.9685 
G01 X28.8559 Y12.7919 
G01 X28.8559 Y12.6118 
G01 X28.8207 Y12.4351 
G01 X28.7963 Y12.3761 
G01 X28.8084 Y12.3831 
G01 X28.8270 Y12.3974 
G01 X28.8487 Y12.4064 
G01 X28.8691 Y12.4181 
G01 X28.8918 Y12.4242 
G01 X28.9135 Y12.4332 
G01 X28.9368 Y12.4363 
G01 X28.9595 Y12.4424 
G01 X28.9830 Y12.4424 
G01 X29.0063 Y12.4454 
G01 X29.0297 Y12.4424 
G01 X29.0532 Y12.4424 
G01 X29.0759 Y12.4363 
G01 X29.0992 Y12.4332 
G01 X29.1209 Y12.4242 
G01 X29.1436 Y12.4181 
G01 X29.1640 Y12.4064 
G01 X29.1857 Y12.3974 
G01 X29.2044 Y12.3831 
G01 X29.2247 Y12.3713 
G01 X29.2413 Y12.3547 
G01 X29.2600 Y12.3404 
G01 X29.2743 Y12.3217 
G01 X29.2909 Y12.3051 
G01 X29.3026 Y12.2848 
G01 X29.3170 Y12.2661 
G01 X29.3260 Y12.2444 
G01 X29.3377 Y12.2240 
G01 X29.3438 Y12.2013 
G01 X29.3528 Y12.1796 
G01 X29.3559 Y12.1563 
G01 X29.3620 Y12.1336 
G01 X29.3620 Y12.1101 
G01 X29.3650 Y12.0868 
G01 X29.3620 Y12.0635 
G01 X29.3620 Y10.8002 
G01 X29.3650 Y10.7769 
G01 X29.3620 Y10.7536 
G01 X29.3620 Y10.7301 
G01 X29.3559 Y10.7073 
G01 X29.3528 Y10.6840 
G01 X29.3438 Y10.6623 
G01 X29.3377 Y10.6396 
G01 X29.3260 Y10.6193 
G01 X29.3170 Y10.5975 
G01 X29.3026 Y10.5789 
G01 X29.2909 Y10.5585 
G01 X29.2743 Y10.5419 
G01 X29.2600 Y10.5232 
G01 X29.2413 Y10.5089 
G01 X29.2247 Y10.4923 
G01 X29.2044 Y10.4806 
G01 X29.1857 Y10.4662 
G01 X29.1640 Y10.4573 
G01 X29.1436 Y10.4455 
G01 X29.1209 Y10.4394 
G01 X29.0992 Y10.4304 
G01 X29.0759 Y10.4274 
G01 X29.0532 Y10.4213 
G01 X29.0297 Y10.4213 
G01 X29.0063 Y10.4182 
G01 X28.9830 Y10.4213 
G01 X28.9595 Y10.4213 
G01 X28.9368 Y10.4274 
G01 X28.9135 Y10.4304 
G01 X28.8918 Y10.4394 
G01 X28.8691 Y10.4455 
G01 X28.8487 Y10.4573 
G01 X28.8270 Y10.4663 
G01 X28.8084 Y10.4806 
G01 X28.7963 Y10.4875 
G01 X28.8207 Y10.4285 
G01 X28.8559 Y10.2519 
G01 X28.8559 Y10.0718 
G01 X28.8207 Y9.8951 
G01 X28.7963 Y9.8361 
G01 X28.8084 Y9.8431 
G01 X28.8270 Y9.8574 
G01 X28.8487 Y9.8664 
G01 X28.8691 Y9.8781 
G01 X28.8918 Y9.8842 
G01 X28.9135 Y9.8932 
G01 X28.9368 Y9.8963 
G01 X28.9595 Y9.9024 
G01 X28.9830 Y9.9024 
G01 X29.0063 Y9.9055 
G01 X29.0297 Y9.9024 
G01 X29.0532 Y9.9024 
G01 X29.0759 Y9.8963 
G01 X29.0992 Y9.8932 
G01 X29.1209 Y9.8842 
G01 X29.1436 Y9.8781 
G01 X29.1640 Y9.8664 
G01 X29.1857 Y9.8574 
G01 X29.2044 Y9.8431 
G01 X29.2247 Y9.8313 
G01 X29.2413 Y9.8147 
G01 X29.2600 Y9.8004 
G01 X29.2743 Y9.7817 
G01 X29.2909 Y9.7651 
G01 X29.3026 Y9.7448 
G01 X29.3170 Y9.7261 
G01 X29.3260 Y9.7044 
G01 X29.3377 Y9.6840 
G01 X29.3438 Y9.6613 
G01 X29.3528 Y9.6396 
G01 X29.3559 Y9.6163 
G01 X29.3620 Y9.5936 
G01 X29.3620 Y9.5701 
G01 X29.3650 Y9.5468 
G01 X29.3620 Y9.5235 
G01 X29.3620 Y8.2602 
G01 X29.3650 Y8.2369 
G01 X29.3620 Y8.2136 
G01 X29.3620 Y8.1900 
G01 X29.3559 Y8.1673 
G01 X29.3528 Y8.1440 
G01 X29.3438 Y8.1223 
G01 X29.3377 Y8.0996 
G01 X29.3260 Y8.0793 
G01 X29.3170 Y8.0575 
G01 X29.3026 Y8.0389 
G01 X29.2909 Y8.0185 
G01 X29.2743 Y8.0019 
G01 X29.2600 Y7.9832 
G01 X29.2413 Y7.9689 
G01 X29.2247 Y7.9523 
G01 X29.2044 Y7.9406 
G01 X29.1857 Y7.9262 
G01 X29.1640 Y7.9173 
G01 X29.1436 Y7.9055 
G01 X29.1209 Y7.8994 
G01 X29.0992 Y7.8904 
G01 X29.0759 Y7.8874 
G01 X29.0532 Y7.8813 
G01 X29.0297 Y7.8813 
G01 X29.0063 Y7.8782 
G01 X28.9830 Y7.8813 
G01 X28.9595 Y7.8813 
G01 X28.9368 Y7.8874 
G01 X28.9135 Y7.8904 
G01 X28.8918 Y7.8994 
G01 X28.8691 Y7.9055 
G01 X28.8487 Y7.9173 
G01 X28.8270 Y7.9263 
G01 X28.8084 Y7.9406 
G01 X28.7963 Y7.9475 
G01 X28.8207 Y7.8885 
G01 X28.8559 Y7.7119 
G01 X28.8559 Y7.5318 
G01 X28.8207 Y7.3551 
G01 X28.7518 Y7.1887 
G01 X28.6517 Y7.0389 
G01 X28.5244 Y6.9116 
G01 X28.3746 Y6.8115 
G01 X28.2082 Y6.7426 
G01 X28.0315 Y6.7074 
G01 X26.3274 Y6.7074 
G01 X26.1507 Y6.7426 
G01 X25.9843 Y6.8115 
G01 X25.8346 Y6.9116 
G01 X25.7072 Y7.0389 
G01 X25.6071 Y7.1887 
G01 X25.5547 Y7.3152 
G01 X24.5979 Y7.3152 
G01 X24.5204 Y7.3360 
G01 X24.4508 Y7.3761 
G01 X24.3941 Y7.4328 
G01 X24.0037 Y7.8232 
G01 X19.7719 Y7.8232 
G01 X19.6944 Y7.8440 
G01 X19.6248 Y7.8841 
G01 X19.5681 Y7.9408 
G01 X19.5280 Y8.0104 
G01 X19.5072 Y8.0879 
G01 X19.5072 Y14.0977 
G01 X18.6197 Y14.9853 
G01 X18.5966 Y15.0252 
G01 X18.5853 Y14.9829 
G01 X18.5385 Y14.9018 
G01 X18.4723 Y14.8356 
G01 X18.3912 Y14.7888 
G01 X18.3008 Y14.7645 
G01 X18.2071 Y14.7645 
G01 X18.1680 Y14.7750 
G01 X18.9831 Y13.9599 
G01 X19.0399 Y13.9032 
G01 X19.0800 Y13.8336 
G01 X19.1008 Y13.7561 
G01 X19.1008 Y7.6708 
G01 X23.0829 Y7.6708 
G01 X23.0918 Y7.6726 
G01 X23.1230 Y7.6708 
G01 X23.1541 Y7.6708 
G01 X23.1629 Y7.6684 
G01 X23.1720 Y7.6679 
G01 X23.2016 Y7.6581 
G01 X23.2316 Y7.6500 
G01 X23.2395 Y7.6455 
G01 X23.2481 Y7.6426 
G01 X23.2742 Y7.6255 
G01 X23.3011 Y7.6099 
G01 X23.3076 Y7.6035 
G01 X23.3151 Y7.5985 
G01 X23.3359 Y7.5752 
G01 X23.3579 Y7.5531 
G01 X23.3624 Y7.5453 
G01 X25.2829 Y5.3848 
G01 X25.5532 Y5.3848 
G01 X25.6071 Y5.5150 
G01 X25.7072 Y5.6647 
G01 X25.8346 Y5.7921 
G01 X25.9843 Y5.8922 
G01 X26.1507 Y5.9611 
G01 X26.3274 Y5.9962 
G01 X28.0315 Y5.9962 
G01 X28.2082 Y5.9611 
G01 X28.3746 Y5.8922 
G01 X28.5244 Y5.7921 
G01 X28.6517 Y5.6647 
G01 X28.7518 Y5.5150 
G01 X28.8207 Y5.3485 
G01 X28.8559 Y5.1719 
G01 X28.8559 Y4.9918 
G01 X28.8207 Y4.8151 
G01 X28.7518 Y4.6487 
G01 X28.6517 Y4.4989 
G01 X28.5244 Y4.3716 
G01 X28.3746 Y4.2715 
G01 X28.2082 Y4.2026 
G01 X28.0315 Y4.1674 
G01 X26.3274 Y4.1674 
G01 X26.1507 Y4.2026 
G01 X25.9843 Y4.2715 
G01 X25.8346 Y4.3716 
G01 X25.7072 Y4.4989 
G01 X25.6071 Y4.6487 
G01 X25.5547 Y4.7752 
G01 X25.1771 Y4.7752 
G01 X25.1682 Y4.7734 
G01 X25.1370 Y4.7752 
G01 X25.1059 Y4.7752 
G01 X25.0971 Y4.7775 
G01 X25.0880 Y4.7781 
G01 X25.0584 Y4.7879 
G01 X25.0283 Y4.7960 
G01 X25.0205 Y4.8005 
G01 X25.0119 Y4.8034 
G01 X24.9858 Y4.8205 
G01 X24.9588 Y4.8361 
G01 X24.9524 Y4.8425 
G01 X24.9448 Y4.8475 
G01 X24.9241 Y4.8708 
G01 X24.9021 Y4.8928 
G01 X24.8976 Y4.9007 
G01 X22.9771 Y7.0612 
G01 X21.0227 Y7.0612 
G01 X21.0371 Y7.0529 
G01 X21.0578 Y7.0409 
G01 X21.1240 Y6.9747 
G01 X21.1708 Y6.8936 
G01 X21.1854 Y6.8390 
G01 X21.1950 Y6.8032 
G01 X21.1950 Y6.7096 
G01 X21.1846 Y6.6705 
G01 X21.2357 Y6.7216 
G01 X21.3855 Y6.8217 
G01 X21.5519 Y6.8906 
G01 X21.7285 Y6.9258 
G01 X21.9087 Y6.9258 
G01 X22.0853 Y6.8906 
G01 X22.2517 Y6.8217 
G01 X22.4015 Y6.7216 
G01 X22.5289 Y6.5942 
G01 X22.6289 Y6.4445 
G01 X22.6979 Y6.2781 
G01 X22.7330 Y6.1014 
G01 X22.7330 Y4.3973 
G01 X22.6979 Y4.2206 
G01 X22.6289 Y4.0542 
G01 X22.5289 Y3.9045 
G01 X22.4015 Y3.7771 
G01 X22.2517 Y3.6770 
G01 X22.0853 Y3.6081 
G01 X21.9087 Y3.5730 
G01 X21.7460 Y3.5730 
G01 X21.7637 Y3.5557 
G01 X21.7824 Y3.5414 
G01 X21.7967 Y3.5227 
G01 X21.8133 Y3.5061 
G01 X21.8251 Y3.4857 
G01 X21.8394 Y3.4671 
G01 X21.8484 Y3.4454 
G01 X21.8601 Y3.4250 
G01 X21.8662 Y3.4023 
G01 X21.8752 Y3.3806 
G01 X21.8783 Y3.3573 
G01 X21.8844 Y3.3346 
G01 X21.8844 Y3.3111 
G01 X21.8874 Y3.2878 
G01 X21.8844 Y3.2644 
G01 X21.8844 Y3.2409 
G01 X21.8783 Y3.2182 
G01 X21.8752 Y3.1949 
G01 X21.8662 Y3.1732 
G01 X21.8601 Y3.1505 
G01 X21.8484 Y3.1301 
G01 X21.8394 Y3.1084 
G01 X21.8251 Y3.0898 
G01 X21.8133 Y3.0694 
G01 X21.7967 Y3.0528 
G01 X21.7824 Y3.0341 
G01 X21.7637 Y3.0198 
G01 X21.7471 Y3.0032 
G01 X21.7268 Y2.9915 
G01 X21.7081 Y2.9771 
G01 X21.6864 Y2.9681 
G01 X21.6660 Y2.9564 
G01 X21.6433 Y2.9503 
G01 X21.6216 Y2.9413 
G01 X21.5983 Y2.9382 
G01 X21.5756 Y2.9322 
G01 X21.5521 Y2.9322 
G01 X21.5288 Y2.9291 
G01 X21.5055 Y2.9322 
G01 X17.5450 Y2.9322 
G01 X17.5264 Y2.9292 
G01 X17.4984 Y2.9322 
G01 X17.4702 Y2.9322 
G01 X17.4521 Y2.9370 
G01 X17.4333 Y2.9390 
G01 X17.4070 Y2.9491 
G01 X17.3798 Y2.9564 
G01 X17.3635 Y2.9658 
G01 X17.3459 Y2.9726 
G01 X17.3231 Y2.9891 
G01 X17.2987 Y3.0032 
G01 X17.2961 Y3.0032 
G01 X17.2717 Y2.9891 
G01 X17.2489 Y2.9726 
G01 X17.2313 Y2.9658 
G01 X17.2150 Y2.9564 
G01 X17.1878 Y2.9491 
G01 X17.1615 Y2.9390 
G01 X17.1427 Y2.9370 
G01 X17.1245 Y2.9322 
G01 X17.0964 Y2.9322 
G01 X17.0684 Y2.9292 
G01 X17.0497 Y2.9322 
G01 X14.4388 Y2.9322 
G01 X14.4202 Y2.9292 
G01 X14.3922 Y2.9322 
G01 X14.3640 Y2.9322 
G01 X14.3458 Y2.9370 
G01 X14.3271 Y2.9390 
G01 X14.3008 Y2.9491 
G01 X14.2736 Y2.9564 
G01 X14.2573 Y2.9658 
G01 X14.2397 Y2.9726 
G01 X14.2169 Y2.9891 
G01 X14.1925 Y3.0032 
G01 X14.1898 Y3.0032 
G01 X14.1654 Y2.9891 
G01 X14.1426 Y2.9726 
G01 X14.1250 Y2.9658 
G01 X14.1087 Y2.9564 
G01 X14.0815 Y2.9491 
G01 X14.0552 Y2.9390 
G01 X14.0365 Y2.9370 
G01 X14.0183 Y2.9322 
G01 X13.9901 Y2.9322 
G01 X13.9621 Y2.9292 
G01 X13.9435 Y2.9322 
G01 X9.9831 Y2.9322 
G01 X9.9598 Y2.9291 
G01 X9.9365 Y2.9322 
G01 X9.9130 Y2.9322 
G01 X9.8902 Y2.9382 
G01 X9.8669 Y2.9413 
G01 X9.8452 Y2.9503 
G01 X9.8225 Y2.9564 
G01 X9.8022 Y2.9681 
G01 X9.7804 Y2.9771 
G01 X9.7618 Y2.9915 
G01 X9.7414 Y3.0032 
G01 X9.7248 Y3.0198 
G01 X9.7062 Y3.0341 
G01 X9.6918 Y3.0528 
G01 X9.6752 Y3.0694 
G01 X9.6635 Y3.0898 
G01 X9.6492 Y3.1084 
G01 X9.6402 Y3.1301 
G01 X9.6284 Y3.1505 
G01 X9.6223 Y3.1732 
G01 X9.6133 Y3.1949 
G01 X9.6103 Y3.2182 
G01 X9.6042 Y3.2409 
G01 X9.6042 Y3.2644 
G01 X9.6011 Y3.2878 
G01 X9.6042 Y3.3111 
G01 X9.6042 Y3.3346 
G01 X9.6103 Y3.3573 
G01 X9.6133 Y3.3806 
G01 X9.6223 Y3.4023 
G01 X9.6284 Y3.4250 
G01 X9.6402 Y3.4454 
G01 X9.6492 Y3.4671 
G01 X9.6635 Y3.4857 
G01 X9.6752 Y3.5061 
G01 X9.6918 Y3.5227 
G01 X9.7062 Y3.5414 
G01 X9.7248 Y3.5557 
G01 X9.7414 Y3.5723 
G01 X9.5799 Y3.5730 
G01 X9.4032 Y3.6081 
G01 X9.2368 Y3.6770 
G01 X9.0871 Y3.7771 
G01 X8.9597 Y3.9045 
G01 X8.8596 Y4.0542 
G01 X8.7907 Y4.2206 
G01 X8.7556 Y4.3973 
G01 X8.7556 Y6.1014 
G01 X8.7907 Y6.2781 
G01 X8.8596 Y6.4445 
G01 X8.9597 Y6.5942 
G01 X9.0871 Y6.7216 
G01 X9.2368 Y6.8217 
G01 X9.4032 Y6.8906 
G01 X9.4709 Y6.9041 
G01 X9.3983 Y6.9460 
G01 X9.3321 Y7.0122 
G01 X9.2853 Y7.0933 
G01 X9.2611 Y7.1837 
G01 X9.2611 Y7.2774 
G01 X9.2715 Y7.3165 
G01 X6.8479 Y4.8928 
G01 X6.7912 Y4.8361 
G01 X6.7216 Y4.7960 
G01 X6.6441 Y4.7752 
G01 X5.9442 Y4.7752 
G01 X5.8918 Y4.6487 
G01 X5.7917 Y4.4989 
G01 X5.6644 Y4.3716 
G01 X5.5146 Y4.2715 
G01 X5.3482 Y4.2026 
G01 X5.1715 Y4.1674 
G01 X3.4674 Y4.1674 
G01 X3.2907 Y4.2026 
G01 X3.1243 Y4.2715 
G01 X2.9746 Y4.3716 
G01 X2.8472 Y4.4989 
G00 Z2.0000 
G00 X5.9457 Y5.3848 
G01 Z0.0000 F254.00 
G01 X5.9625 Y5.3848 F508.00 
G01 X5.9514 Y5.3933 
G01 X5.9393 Y5.4003 
G01 X5.9457 Y5.3848 
G00 Z2.0000 
G00 X5.9909 Y7.5069 
G01 Z0.0000 F254.00 
G01 X5.9994 Y7.5180 F508.00 
G01 X6.0181 Y7.5323 
G01 X6.0347 Y7.5489 
G01 X6.0551 Y7.5607 
G01 X6.0662 Y7.5692 
G01 X5.9959 Y7.5692 
G01 X5.9959 Y7.5318 
G01 X5.9909 Y7.5069 
G00 Z2.0000 
G00 X5.9457 Y10.4648 
G01 Z0.0000 F254.00 
G01 X6.2992 Y10.4648 F508.00 
G01 X6.2992 Y10.7898 
G01 X6.2789 Y10.7547 
G01 X6.2127 Y10.6885 
G01 X6.1317 Y10.6417 
G01 X6.0644 Y10.6237 
G01 X6.0412 Y10.6175 
G01 X5.9476 Y10.6175 
G01 X5.8613 Y10.6406 
G01 X5.8918 Y10.5950 
G01 X5.9457 Y10.4648 
G00 Z2.0000 
G00 X5.9476 Y12.2462 
G01 Z0.0000 F254.00 
G01 X6.0412 Y12.2462 F508.00 
G01 X6.0907 Y12.2329 
G01 X6.1316 Y12.2219 
G01 X6.1552 Y12.2083 
G01 X6.2127 Y12.1751 
G01 X6.2789 Y12.1089 
G01 X6.2992 Y12.0738 
G01 X6.2992 Y12.9941 
G01 X6.3094 Y13.0323 
G01 X6.2954 Y13.0252 
G01 X6.2630 Y13.0065 
G01 X6.2538 Y13.0040 
G01 X6.2453 Y12.9997 
G01 X6.2087 Y12.9919 
G01 X6.1726 Y12.9822 
G01 X6.1630 Y12.9822 
G01 X6.1537 Y12.9803 
G01 X6.1163 Y12.9822 
G01 X6.0789 Y12.9822 
G01 X6.0697 Y12.9847 
G01 X6.0602 Y12.9852 
G01 X6.0259 Y12.9964 
G01 X6.0224 Y12.9969 
G01 X6.0197 Y12.9981 
G01 X5.9885 Y13.0065 
G01 X5.9802 Y13.0112 
G01 X5.9712 Y13.0142 
G01 X5.9442 Y13.0317 
G01 X5.9368 Y13.0350 
G01 X5.9314 Y13.0394 
G01 X5.9607 Y12.9685 
G01 X5.9959 Y12.7919 
G01 X5.9959 Y12.6118 
G01 X5.9607 Y12.4351 
G01 X5.8918 Y12.2687 
G01 X5.8613 Y12.2230 
G01 X5.9476 Y12.2462 
G00 Z2.0000 
G00 X8.3648 Y13.0138 
G01 Z0.0000 F254.00 
G01 X8.4039 Y13.0243 F508.00 
G01 X8.4976 Y13.0243 
G01 X8.5228 Y13.0175 
G01 X8.5880 Y13.0000 
G01 X8.6691 Y12.9532 
G01 X8.7353 Y12.8870 
G01 X8.7811 Y12.8077 
G01 X8.7831 Y12.8021 
G01 X8.7899 Y12.7767 
G01 X8.7907 Y12.7805 
G01 X8.8596 Y12.9469 
G01 X8.9597 Y13.0967 
G01 X9.0871 Y13.2240 
G01 X9.2368 Y13.3241 
G01 X9.4032 Y13.3930 
G01 X9.4070 Y13.3938 
G01 X9.3778 Y13.4016 
G01 X9.2967 Y13.4484 
G01 X9.2305 Y13.5146 
G01 X9.1837 Y13.5957 
G01 X9.1657 Y13.6629 
G01 X9.1595 Y13.6861 
G01 X9.1595 Y13.7798 
G01 X9.1699 Y13.8189 
G01 X8.3648 Y13.0138 
G00 Z2.0000 
G00 X4.7966 Y16.1562 
G01 Z0.0000 F254.00 
G01 X4.7615 Y16.1765 F508.00 
G01 X4.6953 Y16.2427 
G01 X4.6751 Y16.2778 
G01 X4.6751 Y16.1562 
G01 X4.7966 Y16.1562 
G00 Z2.0000 
G00 X4.6751 Y16.7459 
G01 Z0.0000 F254.00 
G01 X4.6953 Y16.7810 F508.00 
G01 X4.7615 Y16.8472 
G01 X4.7966 Y16.8674 
G01 X4.6751 Y16.8674 
G01 X4.6751 Y16.7459 
G00 Z2.0000 
G00 X5.8446 Y18.2855 
G01 Z0.0000 F254.00 
G01 X5.9437 Y18.3846 F508.00 
G01 X5.9046 Y18.3741 
G01 X5.8110 Y18.3741 
G01 X5.7718 Y18.3846 
G01 X5.7917 Y18.3647 
G01 X5.8446 Y18.2855 
G00 Z2.0000 
G00 X7.2953 Y18.7304 
G01 Z0.0000 F254.00 
G01 X7.3091 Y18.7322 F508.00 
G01 X7.3318 Y18.7383 
G01 X7.3554 Y18.7383 
G01 X7.3599 Y18.7389 
G01 X7.3263 Y18.7614 
G01 X7.2953 Y18.7304 
G00 Z2.0000 
G00 X7.2684 Y20.8177 
G01 Z0.0000 F254.00 
G01 X7.2274 Y20.8587 F508.00 
G01 X7.1914 Y20.9125 
G01 X7.0966 Y20.8177 
G01 X7.1357 Y20.8282 
G01 X7.2293 Y20.8282 
G01 X7.2684 Y20.8177 
G00 Z2.0000 
G00 X6.0451 Y20.2184 
G01 Z0.0000 F254.00 
G01 X5.9932 Y20.2184 F508.00 
G01 X5.9839 Y20.1714 
G01 X5.9971 Y20.1815 
G01 X6.0137 Y20.1981 
G01 X6.0340 Y20.2099 
G01 X6.0451 Y20.2184 
G00 Z2.0000 
G00 X5.9959 Y22.8134 
G01 Z0.0000 F254.00 
G01 X6.0161 Y22.8485 F508.00 
G01 X6.0823 Y22.9147 
G01 X6.1174 Y22.9350 
G01 X5.9959 Y22.9350 
G01 X5.9959 Y22.8134 
G00 Z2.0000 
G00 X5.9867 Y25.6462 
G01 Z0.0000 F254.00 
G01 X5.9757 Y25.6547 F508.00 
G01 X5.9619 Y25.6626 
G01 X5.9652 Y25.6462 
G01 X5.9867 Y25.6462 
G00 Z2.0000 
G00 X6.0298 Y27.4747 
G01 Z0.0000 F254.00 
G01 X6.0550 Y27.4679 F508.00 
G01 X6.0689 Y27.4642 
G01 X5.9487 Y27.5844 
G01 X5.9232 Y27.5844 
G01 X5.8918 Y27.5087 
G01 X5.8545 Y27.4528 
G01 X5.8987 Y27.4647 
G01 X5.9361 Y27.4747 
G01 X6.0298 Y27.4747 
G00 Z2.0000 
G00 X5.9414 Y28.2956 
G01 Z0.0000 F254.00 
G01 X5.9303 Y28.3041 F508.00 
G01 X5.9183 Y28.3111 
G01 X5.9247 Y28.2956 
G01 X5.9414 Y28.2956 
G00 Z2.0000 
G00 X5.9419 Y29.8772 
G01 Z0.0000 F254.00 
G01 X5.8432 Y29.9759 F508.00 
G01 X5.7917 Y29.8989 
G01 X5.7700 Y29.8772 
G01 X5.8091 Y29.8877 
G01 X5.9028 Y29.8877 
G01 X5.9419 Y29.8772 
G00 Z2.0000 
G00 X7.0790 Y29.7459 
G01 Z0.0000 F254.00 
G01 X7.1774 Y29.6475 F508.00 
G01 X7.2274 Y29.7224 
G01 X7.2509 Y29.7459 
G01 X7.2415 Y29.7433 
G01 X7.2118 Y29.7354 
G01 X7.1645 Y29.7354 
G01 X7.1182 Y29.7354 
G01 X7.0790 Y29.7459 
G00 Z2.0000 
G00 X7.3079 Y31.8029 
G01 Z0.0000 F254.00 
G01 X7.3217 Y31.8167 F508.00 
G01 X7.3429 Y31.8309 
G01 X7.3305 Y31.8325 
G01 X7.3070 Y31.8325 
G01 X7.2843 Y31.8386 
G01 X7.2705 Y31.8404 
G01 X7.3079 Y31.8029 
G00 Z2.0000 
G00 X5.7944 Y32.3107 
G01 Z0.0000 F254.00 
G01 X5.7290 Y32.3762 F508.00 
G01 X5.6714 Y32.3186 
G01 X5.6878 Y32.3186 
G01 X5.7111 Y32.3216 
G01 X5.7344 Y32.3186 
G01 X5.7579 Y32.3186 
G01 X5.7806 Y32.3125 
G01 X5.7944 Y32.3107 
G00 Z2.0000 
G00 X5.9175 Y35.1907 
G01 Z0.0000 F254.00 
G01 X5.9296 Y35.1977 F508.00 
G01 X5.9407 Y35.2062 
G01 X5.9239 Y35.2062 
G01 X5.9175 Y35.1907 
G00 Z2.0000 
G00 X5.9239 Y35.9174 
G01 Z0.0000 F254.00 
G01 X5.9407 Y35.9174 F508.00 
G01 X5.9296 Y35.9259 
G01 X5.9175 Y35.9329 
G01 X5.9239 Y35.9174 
G00 Z2.0000 
G00 X7.4622 Y34.1290 
G01 Z0.0000 F254.00 
G01 X7.4727 Y34.0899 F508.00 
G01 X7.4727 Y33.9963 
G01 X7.4484 Y33.9058 
G01 X7.4420 Y33.8947 
G01 X7.5560 Y33.9419 
G01 X7.6338 Y33.9574 
G01 X7.4622 Y34.1290 
G00 Z2.0000 
G00 X24.1733 Y33.9574 
G01 Z0.0000 F254.00 
G01 X24.2511 Y33.9419 F508.00 
G01 X24.3651 Y33.8947 
G01 X24.3587 Y33.9058 
G01 X24.3344 Y33.9963 
G01 X24.3344 Y34.0899 
G01 X24.3449 Y34.1290 
G01 X24.1733 Y33.9574 
G00 Z2.0000 
G00 X24.4367 Y31.8492 
G01 Z0.0000 F254.00 
G01 X24.4677 Y31.8286 F508.00 
G01 X24.4963 Y31.8571 
G01 X24.4824 Y31.8553 
G01 X24.4597 Y31.8492 
G01 X24.4367 Y31.8492 
G00 Z2.0000 
G00 X25.8820 Y32.2371 
G01 Z0.0000 F254.00 
G01 X25.8959 Y32.2390 F508.00 
G01 X25.9186 Y32.2450 
G01 X25.9341 Y32.2450 
G01 X25.9076 Y32.2627 
G01 X25.8820 Y32.2371 
G00 Z2.0000 
G00 X25.8267 Y29.7794 
G01 Z0.0000 F254.00 
G01 X25.7685 Y29.8376 F508.00 
G01 X25.7024 Y29.7715 
G01 X25.7162 Y29.7733 
G01 X25.7390 Y29.7794 
G01 X25.7625 Y29.7794 
G01 X25.7858 Y29.7825 
G01 X25.8091 Y29.7794 
G01 X25.8267 Y29.7794 
G00 Z2.0000 
G00 X24.6995 Y29.7744 
G01 Z0.0000 F254.00 
G01 X24.6604 Y29.7639 F508.00 
G01 X24.6134 Y29.7639 
G01 X24.5668 Y29.7639 
G01 X24.5277 Y29.7744 
G01 X24.5797 Y29.7224 
G01 X24.6069 Y29.6818 
G01 X24.6995 Y29.7744 
G00 Z2.0000 
G00 X25.7024 Y27.2315 
G01 Z0.0000 F254.00 
G01 X25.7162 Y27.2333 F508.00 
G01 X25.7390 Y27.2394 
G01 X25.7625 Y27.2394 
G01 X25.7858 Y27.2425 
G01 X25.8091 Y27.2394 
G01 X25.8267 Y27.2394 
G01 X25.7685 Y27.2976 
G01 X25.7024 Y27.2315 
G00 Z2.0000 
G00 X25.5370 Y25.6626 
G01 Z0.0000 F254.00 
G01 X25.5233 Y25.6547 F508.00 
G01 X25.5122 Y25.6462 
G01 X25.5338 Y25.6462 
G01 X25.5370 Y25.6626 
G00 Z2.0000 
G00 X22.3966 Y24.9858 
G01 Z0.0000 F254.00 
G01 X22.1488 Y24.9858 F508.00 
G01 X22.1488 Y24.6421 
G01 X22.1573 Y24.6532 
G01 X22.1690 Y24.6736 
G01 X22.1857 Y24.6902 
G01 X22.2000 Y24.7089 
G01 X22.2186 Y24.7232 
G01 X22.2353 Y24.7398 
G01 X22.2556 Y24.7515 
G01 X22.2743 Y24.7659 
G01 X22.2960 Y24.7748 
G01 X22.3163 Y24.7866 
G01 X22.3391 Y24.7927 
G01 X22.3608 Y24.8017 
G01 X22.3841 Y24.8047 
G01 X22.4068 Y24.8108 
G01 X22.4303 Y24.8108 
G01 X22.4536 Y24.8139 
G01 X22.4769 Y24.8108 
G01 X22.5004 Y24.8108 
G01 X22.5231 Y24.8047 
G01 X22.5326 Y24.8035 
G01 X22.4774 Y24.8587 
G01 X22.4033 Y24.9697 
G01 X22.3966 Y24.9858 
G00 Z2.0000 
G00 X22.3841 Y23.7764 
G01 Z0.0000 F254.00 
G01 X22.3608 Y23.7794 F508.00 
G01 X22.3391 Y23.7884 
G01 X22.3163 Y23.7945 
G01 X22.2960 Y23.8063 
G01 X22.2743 Y23.8153 
G01 X22.2556 Y23.8296 
G01 X22.2353 Y23.8413 
G01 X22.2186 Y23.8579 
G01 X22.2000 Y23.8723 
G01 X22.1857 Y23.8909 
G01 X22.1690 Y23.9075 
G01 X22.1573 Y23.9279 
G01 X22.1488 Y23.9390 
G01 X22.1488 Y22.6421 
G01 X22.1573 Y22.6532 
G01 X22.1690 Y22.6736 
G01 X22.1857 Y22.6902 
G01 X22.2000 Y22.7089 
G01 X22.2186 Y22.7232 
G01 X22.2353 Y22.7398 
G01 X22.2556 Y22.7515 
G01 X22.2743 Y22.7659 
G01 X22.2960 Y22.7748 
G01 X22.3163 Y22.7866 
G01 X22.3391 Y22.7927 
G01 X22.3608 Y22.8017 
G01 X22.3841 Y22.8047 
G01 X22.4068 Y22.8108 
G01 X22.4303 Y22.8108 
G01 X22.4536 Y22.8139 
G01 X22.4769 Y22.8108 
G01 X22.5004 Y22.8108 
G01 X22.5231 Y22.8047 
G01 X22.5326 Y22.8035 
G01 X22.4774 Y22.8587 
G01 X22.4033 Y22.9697 
G01 X22.3522 Y23.0930 
G01 X22.3262 Y23.2238 
G01 X22.3262 Y23.3573 
G01 X22.3522 Y23.4881 
G01 X22.4033 Y23.6114 
G01 X22.4774 Y23.7224 
G01 X22.5326 Y23.7776 
G01 X22.5231 Y23.7764 
G01 X22.5004 Y23.7703 
G01 X22.4769 Y23.7703 
G01 X22.4536 Y23.7672 
G01 X22.4303 Y23.7703 
G01 X22.4068 Y23.7703 
G01 X22.3841 Y23.7764 
G00 Z2.0000 
G00 X22.3841 Y21.7764 
G01 Z0.0000 F254.00 
G01 X22.3608 Y21.7794 F508.00 
G01 X22.3391 Y21.7884 
G01 X22.3163 Y21.7945 
G01 X22.2960 Y21.8063 
G01 X22.2743 Y21.8153 
G01 X22.2556 Y21.8296 
G01 X22.2353 Y21.8413 
G01 X22.2186 Y21.8579 
G01 X22.2000 Y21.8723 
G01 X22.1857 Y21.8909 
G01 X22.1690 Y21.9075 
G01 X22.1573 Y21.9279 
G01 X22.1488 Y21.9390 
G01 X22.1488 Y20.6421 
G01 X22.1573 Y20.6532 
G01 X22.1690 Y20.6736 
G01 X22.1857 Y20.6902 
G01 X22.2000 Y20.7089 
G01 X22.2186 Y20.7232 
G01 X22.2353 Y20.7398 
G01 X22.2556 Y20.7515 
G01 X22.2743 Y20.7659 
G01 X22.2960 Y20.7748 
G01 X22.3163 Y20.7866 
G01 X22.3391 Y20.7927 
G01 X22.3608 Y20.8017 
G01 X22.3841 Y20.8047 
G01 X22.4068 Y20.8108 
G01 X22.4303 Y20.8108 
G01 X22.4536 Y20.8139 
G01 X22.4769 Y20.8108 
G01 X22.5004 Y20.8108 
G01 X22.5231 Y20.8047 
G01 X22.5326 Y20.8035 
G01 X22.4774 Y20.8587 
G01 X22.4033 Y20.9697 
G01 X22.3522 Y21.0930 
G01 X22.3262 Y21.2238 
G01 X22.3262 Y21.3573 
G01 X22.3522 Y21.4881 
G01 X22.4033 Y21.6114 
G01 X22.4774 Y21.7224 
G01 X22.5326 Y21.7776 
G01 X22.5231 Y21.7764 
G01 X22.5004 Y21.7703 
G01 X22.4769 Y21.7703 
G01 X22.4536 Y21.7672 
G01 X22.4303 Y21.7703 
G01 X22.4068 Y21.7703 
G01 X22.3841 Y21.7764 
G00 Z2.0000 
G00 X22.3728 Y19.7579 
G01 Z0.0000 F254.00 
G01 X22.3383 Y19.7647 F508.00 
G01 X22.3277 Y19.7699 
G01 X22.3163 Y19.7730 
G01 X22.2859 Y19.7906 
G01 X22.2543 Y19.8061 
G01 X22.2455 Y19.8139 
G01 X22.2353 Y19.8198 
G01 X22.2104 Y19.8447 
G01 X22.1839 Y19.8679 
G01 X22.1774 Y19.8777 
G01 X22.1690 Y19.8860 
G01 X22.1515 Y19.9165 
G01 X22.1488 Y19.9205 
G01 X22.1488 Y18.6683 
G01 X22.5391 Y18.2779 
G01 X22.5434 Y18.2736 
G01 X22.5387 Y18.3102 
G01 X22.5403 Y18.3220 
G01 X22.5395 Y18.3338 
G01 X22.5464 Y18.3682 
G01 X22.5510 Y18.4031 
G01 X22.5555 Y18.4140 
G01 X22.5578 Y18.4256 
G01 X22.5733 Y18.4571 
G01 X22.5868 Y18.4896 
G01 X22.5940 Y18.4990 
G01 X22.5992 Y18.5096 
G01 X22.6224 Y18.5360 
G01 X22.6438 Y18.5638 
G01 X22.6479 Y18.5670 
G01 X22.6479 Y18.7135 
G01 X22.5717 Y18.7644 
G01 X22.4774 Y18.8587 
G01 X22.4033 Y18.9697 
G01 X22.3522 Y19.0930 
G01 X22.3262 Y19.2238 
G01 X22.3262 Y19.3573 
G01 X22.3522 Y19.4881 
G01 X22.4033 Y19.6114 
G01 X22.4774 Y19.7224 
G01 X22.5050 Y19.7500 
G01 X22.5004 Y19.7488 
G01 X22.4652 Y19.7488 
G01 X22.4301 Y19.7465 
G01 X22.4186 Y19.7488 
G01 X22.4068 Y19.7488 
G01 X22.3728 Y19.7579 
G00 Z2.0000 
G00 X21.5627 Y18.4196 
G01 Z0.0000 F254.00 
G01 X21.5540 Y18.4045 F508.00 
G01 X21.5450 Y18.3827 
G01 X21.5307 Y18.3641 
G01 X21.5189 Y18.3437 
G01 X21.5023 Y18.3271 
G01 X21.4880 Y18.3085 
G01 X21.4694 Y18.2941 
G01 X21.4527 Y18.2775 
G01 X21.4324 Y18.2658 
G01 X21.4137 Y18.2514 
G01 X21.3920 Y18.2425 
G01 X21.3717 Y18.2307 
G01 X21.3489 Y18.2246 
G01 X21.3272 Y18.2156 
G01 X21.3039 Y18.2126 
G01 X21.2812 Y18.2065 
G01 X21.2577 Y18.2065 
G01 X21.2545 Y18.2060 
G01 X21.2954 Y18.1787 
G01 X21.3897 Y18.0844 
G01 X21.4639 Y17.9734 
G01 X21.5149 Y17.8501 
G01 X21.5410 Y17.7193 
G01 X21.5410 Y16.5358 
G01 X21.5219 Y16.4401 
G01 X21.5444 Y16.4540 
G01 X21.5631 Y16.4683 
G01 X21.5848 Y16.4773 
G01 X21.6051 Y16.4890 
G01 X21.6278 Y16.4951 
G01 X21.6496 Y16.5041 
G01 X21.6729 Y16.5072 
G01 X21.6956 Y16.5133 
G01 X21.7191 Y16.5133 
G01 X21.7424 Y16.5163 
G01 X21.7657 Y16.5133 
G01 X21.7892 Y16.5133 
G01 X21.8119 Y16.5072 
G01 X21.8352 Y16.5041 
G01 X21.8569 Y16.4951 
G01 X21.8797 Y16.4890 
G01 X21.9000 Y16.4773 
G01 X21.9217 Y16.4683 
G01 X21.9404 Y16.4540 
G01 X21.9607 Y16.4422 
G01 X21.9774 Y16.4256 
G01 X21.9960 Y16.4113 
G01 X22.0103 Y16.3926 
G01 X22.0269 Y16.3760 
G01 X22.0387 Y16.3557 
G01 X22.0472 Y16.3446 
G01 X22.0472 Y17.9077 
G01 X21.6001 Y18.3548 
G01 X21.5627 Y18.4196 
G00 Z2.0000 
G00 X21.5392 Y13.4045 
G01 Z0.0000 F254.00 
G01 X21.5307 Y13.3934 F508.00 
G01 X21.5237 Y13.3813 
G01 X21.5392 Y13.3878 
G01 X21.5392 Y13.4045 
G00 Z2.0000 
G00 X22.1488 Y13.3667 
G01 Z0.0000 F254.00 
G01 X22.2277 Y13.3340 F508.00 
G01 X22.1920 Y13.3960 
G01 X22.1739 Y13.4632 
G01 X22.1677 Y13.4864 
G01 X22.1677 Y13.5800 
G01 X22.1745 Y13.6053 
G01 X22.1782 Y13.6192 
G01 X22.1488 Y13.5897 
G01 X22.1488 Y13.3667 
G00 Z2.0000 
G00 X18.4912 Y13.1657 
G01 Z0.0000 F254.00 
G01 X18.4709 Y13.1306 F508.00 
G01 X18.4047 Y13.0644 
G01 X18.3310 Y13.0218 
G01 X18.3237 Y13.0176 
G01 X18.2806 Y13.0061 
G01 X18.2332 Y12.9934 
G01 X18.1396 Y12.9934 
G01 X18.0630 Y13.0139 
G01 X18.1077 Y12.9469 
G01 X18.1767 Y12.7805 
G01 X18.2118 Y12.6038 
G01 X18.2118 Y10.8997 
G01 X18.1767 Y10.7230 
G01 X18.1077 Y10.5566 
G01 X18.0630 Y10.4896 
G01 X18.1396 Y10.5101 
G01 X18.2332 Y10.5101 
G01 X18.2827 Y10.4969 
G01 X18.3237 Y10.4859 
G01 X18.3323 Y10.4809 
G01 X18.4047 Y10.4391 
G01 X18.4709 Y10.3729 
G01 X18.4912 Y10.3378 
G01 X18.4912 Y13.1657 
G00 Z2.0000 
G00 X17.1684 Y15.9532 
G01 Z0.0000 F254.00 
G01 X17.1807 Y15.9993 F508.00 
G01 X17.1684 Y15.9956 
G01 X17.1684 Y15.9532 
G00 Z2.0000 
G00 X14.3444 Y16.0454 
G01 Z0.0000 F254.00 
G01 X14.4035 Y16.1046 F508.00 
G01 X14.3523 Y16.1559 
G01 X14.3523 Y16.1521 
G01 X14.3553 Y16.1288 
G01 X14.3523 Y16.1055 
G01 X14.3523 Y16.0820 
G01 X14.3462 Y16.0593 
G01 X14.3444 Y16.0454 
G00 Z2.0000 
G00 X12.2758 Y16.2629 
G01 Z0.0000 F254.00 
G01 X12.2665 Y16.2768 F508.00 
G01 X12.2624 Y16.2615 
G01 X12.2606 Y16.2476 
G01 X12.2758 Y16.2629 
G00 Z2.0000 
G00 X14.1887 Y3.5730 
G01 Z0.0000 F254.00 
G01 X14.1898 Y3.5723 F508.00 
G01 X14.1925 Y3.5723 
G01 X14.1887 Y3.5730 
G00 Z2.0000 
G00 X17.2949 Y3.5730 
G01 Z0.0000 F254.00 
G01 X17.2961 Y3.5723 F508.00 
G01 X17.2987 Y3.5723 
G01 X17.2949 Y3.5730 
G00 Z2.0000 
G00 X20.1168 Y8.4328 
G01 Z0.0000 F254.00 
G01 X20.2383 Y8.4328 F508.00 
G01 X20.2033 Y8.4530 
G01 X20.1370 Y8.5193 
G01 X20.1168 Y8.5543 
G01 X20.1168 Y8.4328 
G00 Z2.0000 
G00 X25.5365 Y7.9248 
G01 Z0.0000 F254.00 
G01 X25.5532 Y7.9248 F508.00 
G01 X25.5596 Y7.9403 
G01 X25.5476 Y7.9333 
G01 X25.5365 Y7.9248 
G00 Z2.0000 
G00 X25.5883 Y35.1354 
G01 Z0.0000 F254.00 
G01 X25.6117 Y35.1219 F508.00 
G01 X25.6071 Y35.1287 
G01 X25.5750 Y35.2062 
G01 X25.4221 Y35.2062 
G01 X25.3651 Y35.1492 
G01 X25.3810 Y35.1535 
G01 X25.4042 Y35.1597 
G01 X25.4978 Y35.1597 
G01 X25.5883 Y35.1354 
G00 Z2.0000 
G00 X25.5750 Y35.9174 
G01 Z0.0000 F254.00 
G01 X25.5814 Y35.9329 F508.00 
G01 X25.5694 Y35.9259 
G01 X25.5583 Y35.9174 
G01 X25.5750 Y35.9174 
G00 Z2.0000 
G00 Z5.0000 
M05
M02
